assets/luts/bleach_bypass.cube
TITLE "Bleach Bypass"
LUT_3D_SIZE 9
0.000000 0.000000 0.000000
0.000000 0.000000 0.000000
0.032651 0.000000 0.000000
0.128976 0.000000 0.000000
0.225301 0.000000 0.000000
0.321626 0.000000 0.000000
0.417952 0.018952 0.018952
0.514277 0.048777 0.048777
0.610602 0.078602 0.078602
0.000000 0.000000 0.000000
0.000000 0.000000 0.000000
0.091204 0.024704 0.000000
0.187529 0.054529 0.000000
0.283854 0.084354 0.017854
0.380180 0.114180 0.047680
0.476505 0.144005 0.077505
0.572830 0.173830 0.107330
0.669155 0.203655 0.137155
0.000000 0.090106 0.000000
0.053432 0.119932 0.000000
0.149757 0.149757 0.016757
0.246082 0.179582 0.046582
0.342408 0.209407 0.076408
0.438733 0.239233 0.106233
0.535058 0.269058 0.136058
0.631383 0.298883 0.165883
0.727708 0.328708 0.195708
0.015660 0.215160 0.015660
0.111985 0.244985 0.045485
0.208310 0.274810 0.075310
0.304636 0.304636 0.105136
0.400961 0.334461 0.134961
0.497286 0.364286 0.164786
0.593611 0.394111 0.194611
0.689936 0.423936 0.224436
0.786262 0.453762 0.254262
0.074213 0.340213 0.074213
0.170538 0.370038 0.104038
0.266863 0.399864 0.133863
0.363189 0.429689 0.163689
0.459514 0.459514 0.193514
0.555839 0.489339 0.223339
0.652164 0.519164 0.253164
0.748490 0.548990 0.282990
0.844815 0.578815 0.312815
0.132766 0.465266 0.132766
0.229091 0.495091 0.162591
0.325417 0.524917 0.192417
0.421742 0.554742 0.222242
0.518067 0.584567 0.252067
0.614392 0.614392 0.281892
0.710718 0.644218 0.311718
0.807043 0.674043 0.341543
0.903368 0.703868 0.371368
0.191320 0.590320 0.191320
0.287645 0.620145 0.221145
0.383970 0.649970 0.250970
0.480295 0.679795 0.280795
0.576620 0.709621 0.310621
0.672946 0.739446 0.340446
0.769271 0.769271 0.370271
0.865596 0.799096 0.400096
0.961921 0.828921 0.429921
0.249873 0.715373 0.249873
0.346198 0.745198 0.279698
0.442523 0.775023 0.309523
0.538848 0.804849 0.339349
0.635174 0.834674 0.369174
0.731499 0.864499 0.398999
0.827824 0.894324 0.428824
0.924150 0.924150 0.458649
1.000000 0.953975 0.488475
0.308426 0.840426 0.308426
0.404751 0.870251 0.338251
0.501076 0.900076 0.368076
0.597402 0.929902 0.397902
0.693727 0.959727 0.427727
0.790052 0.989552 0.457552
0.886378 1.000000 0.487378
0.982703 1.000000 0.517203
1.000000 1.000000 0.547028
0.000000 0.000000 0.000000
0.000000 0.000000 0.000000
0.044022 0.000000 0.000000
0.140347 0.000000 0.007347
0.236673 0.000000 0.037172
0.332998 0.000498 0.066998
0.429323 0.030323 0.096823
0.525648 0.060148 0.126648
0.621973 0.089973 0.156474
0.000000 0.000000 0.000000
0.006250 0.006250 0.006250
0.102575 0.036075 0.036075
0.198901 0.065901 0.065901
0.295226 0.095726 0.095726
0.391551 0.125551 0.125551
0.487876 0.155376 0.155376
0.584201 0.185201 0.185201
0.680527 0.215027 0.215027
0.000000 0.101478 0.034978
0.064803 0.131303 0.064803
0.161129 0.161129 0.094629
0.257454 0.190954 0.124454
0.353779 0.220779 0.154279
0.450104 0.250604 0.184104
0.546430 0.280429 0.213929
0.642755 0.310255 0.243755
0.739080 0.340080 0.273580
0.027031 0.226531 0.093531
0.123357 0.256357 0.123357
0.219682 0.286182 0.153182
0.316007 0.316007 0.183007
0.412332 0.345832 0.212832
0.508657 0.375657 0.242657
0.604983 0.405483 0.272483
0.701308 0.435308 0.302308
0.797633 0.465133 0.332133
0.085585 0.351584 0.152084
0.181910 0.381410 0.181910
0.278235 0.411235 0.211735
0.374560 0.441060 0.241560
0.470885 0.470885 0.271385
0.567211 0.500711 0.301211
0.663536 0.530536 0.331036
0.759861 0.560361 0.360861
0.856186 0.590186 0.390686
0.144138 0.476638 0.210638
0.240463 0.506463 0.240463
0.336788 0.536288 0.270288
0.433114 0.566113 0.300113
0.529439 0.595939 0.329939
0.625764 0.625764 0.359764
0.722089 0.655589 0.389589
0.818414 0.685414 0.419414
0.914740 0.715240 0.449240
0.202691 0.601691 0.269191
0.299016 0.631516 0.299016
0.395341 0.661342 0.328842
0.491667 0.691167 0.358667
0.587992 0.720992 0.388492
0.684317 0.750817 0.418317
0.780642 0.780642 0.448142
0.876968 0.810468 0.477968
0.973293 0.840293 0.507793
0.261244 0.726744 0.327744
0.357569 0.756570 0.357569
0.453895 0.786395 0.387395
0.550220 0.816220 0.417220
0.646545 0.846045 0.447045
0.742870 0.875870 0.476870
0.839196 0.905696 0.506696
0.935521 0.935521 0.536521
1.000000 0.965346 0.566346
0.319797 0.851798 0.386297
0.416123 0.881623 0.416123
0.512448 0.911448 0.445948
0.608773 0.941273 0.475773
0.705098 0.971098 0.505598
0.801424 1.000000 0.535424
0.897749 1.000000 0.565249
0.994074 1.000000 0.595074
1.000000 1.000000 0.624899
0.000000 0.000000 0.000000
0.000000 0.000000 0.025568
0.055394 0.000000 0.055394
0.151719 0.000000 0.085219
0.248044 0.000000 0.115044
0.344369 0.011869 0.144869
0.440695 0.041695 0.174695
0.537020 0.071520 0.204520
0.633345 0.101345 0.234345
0.000000 0.000000 0.054296
0.017622 0.017622 0.084122
0.113947 0.047447 0.113947
0.210272 0.077272 0.143772
0.306597 0.107097 0.173597
0.402922 0.136923 0.203422
0.499248 0.166748 0.233248
0.595573 0.196573 0.263073
0.691898 0.226398 0.292898
0.000000 0.112850 0.112850
0.076175 0.142675 0.142675
0.172500 0.172500 0.172500
0.268825 0.202325 0.202325
0.365151 0.232151 0.232151
0.461476 0.261976 0.261976
0.557801 0.291801 0.291801
0.654126 0.321626 0.321626
0.750451 0.351451 0.351451
0.038403 0.237903 0.171403
0.134728 0.267728 0.201228
0.231053 0.297553 0.231053
0.327379 0.327379 0.260879
0.423704 0.357204 0.290704
0.520029 0.387029 0.320529
0.616354 0.416854 0.350354
0.712680 0.446680 0.380180
0.809005 0.476505 0.410005
0.096956 0.362956 0.229956
0.193281 0.392781 0.259781
0.289606 0.422606 0.289606
0.385932 0.452432 0.319432
0.482257 0.482257 0.349257
0.578582 0.512082 0.379082
0.674908 0.541907 0.408907
0.771233 0.571733 0.438733
0.867558 0.601558 0.468558
0.155509 0.488009 0.288509
0.251834 0.517834 0.318335
0.348160 0.547660 0.348160
0.444485 0.577485 0.377985
0.540810 0.607310 0.407810
0.637135 0.637135 0.437635
0.733461 0.666961 0.467461
0.829786 0.696786 0.497286
0.926111 0.726611 0.527111
0.214063 0.613063 0.347062
0.310388 0.642888 0.376888
0.406713 0.672713 0.406713
0.503038 0.702538 0.436538
0.599363 0.732363 0.466363
0.695689 0.762189 0.496189
0.792014 0.792014 0.526014
0.888339 0.821839 0.555839
0.984664 0.851665 0.585664
0.272616 0.738116 0.405616
0.368941 0.767941 0.435441
0.465266 0.797766 0.465266
0.561592 0.827592 0.495092
0.657917 0.857417 0.524917
0.754242 0.887242 0.554742
0.850567 0.917067 0.584567
0.946892 0.946892 0.614392
1.000000 0.976718 0.644218
0.331169 0.863169 0.464169
0.427494 0.892994 0.493994
0.523819 0.922819 0.523819
0.620145 0.952645 0.553645
0.716470 0.982470 0.583470
0.812795 1.000000 0.613295
0.909120 1.000000 0.643120
1.000000 1.000000 0.672946
1.000000 1.000000 0.702771
0.000000 0.000000 0.073615
0.000000 0.000000 0.103440
0.066765 0.000000 0.133265
0.163090 0.000000 0.163090
0.259416 0.000000 0.192916
0.355741 0.023241 0.222741
0.452066 0.053066 0.252566
0.548391 0.082891 0.282391
0.644716 0.112716 0.312216
0.000000 0.000000 0.132168
0.028993 0.028993 0.161993
0.125318 0.058818 0.191818
0.221644 0.088644 0.221644
0.317969 0.118469 0.251469
0.414294 0.148294 0.281294
0.510619 0.178119 0.311119
0.606944 0.207944 0.340944
0.703270 0.237770 0.370770
0.000000 0.124221 0.190721
0.087546 0.154046 0.220546
0.183871 0.183871 0.250371
0.280197 0.213697 0.280197
0.376522 0.243522 0.310022
0.472847 0.273347 0.339847
0.569172 0.303173 0.369673
0.665498 0.332998 0.399498
0.761823 0.362823 0.429323
0.049774 0.249274 0.249274
0.146100 0.279100 0.279100
0.242425 0.308925 0.308925
0.338750 0.338750 0.338750
0.435075 0.368575 0.368575
0.531400 0.398401 0.398401
0.627726 0.428226 0.428226
0.724051 0.458051 0.458051
0.820376 0.487876 0.487876
0.108328 0.374327 0.307827
0.204653 0.404153 0.337653
0.300978 0.433978 0.367478
0.397303 0.463803 0.397303
0.493629 0.493629 0.427129
0.589954 0.523454 0.456954
0.686279 0.553279 0.486779
0.782604 0.583104 0.516604
0.878930 0.612930 0.546430
0.166881 0.499381 0.366381
0.263206 0.529206 0.396206
0.359531 0.559031 0.426031
0.455856 0.588856 0.455856
0.552182 0.618682 0.485682
0.648507 0.648507 0.515507
0.744832 0.678332 0.545332
0.841158 0.708157 0.575157
0.937483 0.737983 0.604983
0.225434 0.624434 0.424934
0.321759 0.654259 0.454759
0.418084 0.684084 0.484584
0.514410 0.713910 0.514410
0.610735 0.743735 0.544235
0.707060 0.773560 0.574060
0.803385 0.803385 0.603885
0.899711 0.833211 0.633711
0.996036 0.863036 0.663536
0.283987 0.749487 0.483487
0.380313 0.779313 0.513313
0.476638 0.809138 0.543138
0.572963 0.838963 0.572963
0.669288 0.868788 0.602788
0.765613 0.898613 0.632613
0.861939 0.928439 0.662439
0.958264 0.958264 0.692264
1.000000 0.988089 0.722089
0.342540 0.874540 0.542040
0.438866 0.904366 0.571866
0.535191 0.934191 0.601691
0.631516 0.964016 0.631516
0.727841 0.993841 0.661341
0.824167 1.000000 0.691167
0.920492 1.000000 0.720992
1.000000 1.000000 0.750817
1.000000 1.000000 0.780642
0.000000 0.000000 0.151486
0.000000 0.000000 0.181311
0.078136 0.000000 0.211137
0.174462 0.000000 0.240962
0.270787 0.004787 0.270787
0.367112 0.034612 0.300612
0.463437 0.064437 0.330438
0.559763 0.094263 0.360263
0.656088 0.124088 0.390088
0.000000 0.010539 0.210039
0.040365 0.040365 0.239864
0.136690 0.070190 0.269690
0.233015 0.100015 0.299515
0.329340 0.129840 0.329340
0.425666 0.159666 0.359165
0.521991 0.189491 0.388991
0.618316 0.219316 0.418816
0.714641 0.249141 0.448641
0.002592 0.135593 0.268593
0.098918 0.165418 0.298418
0.195243 0.195243 0.328243
0.291568 0.225068 0.358068
0.387894 0.254894 0.387894
0.484219 0.284719 0.417719
0.580544 0.314544 0.447544
0.676869 0.344369 0.477369
0.773195 0.374195 0.507194
0.061146 0.260646 0.327146
0.157471 0.290471 0.356971
0.253796 0.320296 0.386796
0.350121 0.350121 0.416621
0.446447 0.379947 0.446447
0.542772 0.409772 0.476272
0.639097 0.439597 0.506097
0.735423 0.469423 0.535922
0.831748 0.499248 0.565748
0.119699 0.385699 0.385699
0.216024 0.415524 0.415524
0.312349 0.445349 0.445349
0.408675 0.475175 0.475175
0.505000 0.505000 0.505000
0.601325 0.534825 0.534825
0.697651 0.564651 0.564651
0.793976 0.594476 0.594476
0.890301 0.624301 0.624301
0.178252 0.510752 0.444252
0.274577 0.540577 0.474077
0.370903 0.570403 0.503903
0.467228 0.600228 0.533728
0.563553 0.630053 0.563553
0.659878 0.659878 0.593378
0.756204 0.689704 0.623204
0.852529 0.719529 0.653029
0.948854 0.749354 0.682854
0.236805 0.635805 0.502805
0.333131 0.665631 0.532631
0.429456 0.695456 0.562456
0.525781 0.725281 0.592281
0.622107 0.755107 0.622107
0.718432 0.784932 0.651932
0.814757 0.814757 0.681757
0.911082 0.844582 0.711582
1.000000 0.874408 0.741408
0.295359 0.760859 0.561359
0.391684 0.790684 0.591184
0.488009 0.820509 0.621009
0.584334 0.850334 0.650834
0.680660 0.880160 0.680660
0.776985 0.909985 0.710485
0.873310 0.939810 0.740310
0.969635 0.969635 0.770136
1.000000 0.999461 0.799961
0.353912 0.885912 0.619912
0.450237 0.915737 0.649737
0.546562 0.945563 0.679562
0.642888 0.975388 0.709388
0.739213 1.000000 0.739213
0.835538 1.000000 0.769038
0.931863 1.000000 0.798863
1.000000 1.000000 0.828689
1.000000 1.000000 0.858514
0.000000 0.000000 0.229358
0.000000 0.000000 0.259183
0.089508 0.000000 0.289008
0.185833 0.000000 0.318833
0.282159 0.016158 0.348658
0.378484 0.045984 0.378484
0.474809 0.075809 0.408309
0.571134 0.105634 0.438134
0.667459 0.135459 0.467959
0.000000 0.021911 0.287911
0.051736 0.051736 0.317736
0.148061 0.081561 0.347561
0.244387 0.111387 0.377387
0.340712 0.141212 0.407212
0.437037 0.171037 0.437037
0.533362 0.200862 0.466862
0.629687 0.230688 0.496687
0.726013 0.260513 0.526513
0.013964 0.146964 0.346464
0.110289 0.176789 0.376289
0.206614 0.206614 0.406114
0.302940 0.236440 0.435940
0.399265 0.266265 0.465765
0.495590 0.296090 0.495590
0.591916 0.325916 0.525416
0.688241 0.355741 0.555241
0.784566 0.385566 0.585066
0.072517 0.272017 0.405017
0.168843 0.301843 0.434842
0.265168 0.331668 0.464668
0.361493 0.361493 0.494493
0.457818 0.391318 0.524318
0.554144 0.421144 0.554144
0.650469 0.450969 0.583969
0.746794 0.480794 0.613794
0.843119 0.510619 0.643619
0.131070 0.397070 0.463570
0.227396 0.426896 0.493396
0.323721 0.456721 0.523221
0.420046 0.486546 0.553046
0.516371 0.516371 0.582871
0.612697 0.546197 0.612697
0.709022 0.576022 0.642522
0.805347 0.605847 0.672347
0.901673 0.635673 0.702172
0.189624 0.522124 0.522124
0.285949 0.551949 0.551949
0.382274 0.581774 0.581774
0.478599 0.611599 0.611599
0.574925 0.641425 0.641425
0.671250 0.671250 0.671250
0.767575 0.701075 0.701075
0.863901 0.730901 0.730901
0.960226 0.760726 0.760726
0.248177 0.647177 0.580677
0.344502 0.677002 0.610502
0.440827 0.706828 0.640327
0.537153 0.736653 0.670153
0.633478 0.766478 0.699978
0.729803 0.796303 0.729803
0.826129 0.826129 0.759628
0.922454 0.855954 0.789454
1.000000 0.885779 0.819279
0.306730 0.772230 0.639230
0.403056 0.802056 0.669056
0.499381 0.831881 0.698881
0.595706 0.861706 0.728706
0.692031 0.891531 0.758531
0.788356 0.921357 0.788356
0.884682 0.951182 0.818182
0.981007 0.981007 0.848007
1.000000 1.000000 0.877832
0.365283 0.897284 0.697783
0.461609 0.927109 0.727609
0.557934 0.956934 0.757434
0.654259 0.986759 0.787259
0.750584 1.000000 0.817085
0.846910 1.000000 0.846910
0.943235 1.000000 0.876735
1.000000 1.000000 0.906560
1.000000 1.000000 0.936385
0.000000 0.000000 0.307229
0.004554 0.000000 0.337054
0.100880 0.000000 0.366880
0.197205 0.000000 0.396705
0.293530 0.027530 0.426530
0.389855 0.057355 0.456355
0.486181 0.087181 0.486181
0.582506 0.117006 0.516006
0.678831 0.146831 0.545831
0.000000 0.033282 0.365782
0.063107 0.063107 0.395608
0.159433 0.092933 0.425433
0.255758 0.122758 0.455258
0.352083 0.152583 0.485083
0.448408 0.182409 0.514908
0.544734 0.212234 0.544734
0.641059 0.242059 0.574559
0.737384 0.271884 0.604384
0.025336 0.158336 0.424335
0.121661 0.188161 0.454161
0.217986 0.217986 0.483986
0.314311 0.247811 0.513811
0.410637 0.277637 0.543636
0.506962 0.307462 0.573462
0.603287 0.337287 0.603287
0.699612 0.367112 0.633112
0.795937 0.396937 0.662937
0.083889 0.283389 0.482889
0.180214 0.313214 0.512714
0.276539 0.343039 0.542539
0.372865 0.372865 0.572365
0.469190 0.402690 0.602190
0.565515 0.432515 0.632015
0.661840 0.462340 0.661840
0.758166 0.492166 0.691665
0.854491 0.521991 0.721491
0.142442 0.408442 0.541442
0.238767 0.438267 0.571267
0.335092 0.468093 0.601093
0.431418 0.497918 0.630918
0.527743 0.527743 0.660743
0.624068 0.557568 0.690568
0.720394 0.587394 0.720394
0.816719 0.617219 0.750219
0.913044 0.647044 0.780044
0.200995 0.533495 0.599995
0.297320 0.563321 0.629821
0.393646 0.593146 0.659646
0.489971 0.622971 0.689471
0.586296 0.652796 0.719296
0.682622 0.682622 0.749122
0.778947 0.712447 0.778947
0.875272 0.742272 0.808772
0.971597 0.772097 0.838597
0.259548 0.658549 0.658549
0.355874 0.688374 0.688374
0.452199 0.718199 0.718199
0.548524 0.748024 0.748024
0.644850 0.777850 0.777850
0.741175 0.807675 0.807675
0.837500 0.837500 0.837500
0.933825 0.867325 0.867325
1.000000 0.897150 0.897150
0.318102 0.783602 0.717102
0.414427 0.813427 0.746927
0.510752 0.843252 0.776752
0.607078 0.873078 0.806577
0.703403 0.902903 0.836403
0.799728 0.932728 0.866228
0.896053 0.962553 0.896053
0.992378 0.992378 0.925879
1.000000 1.000000 0.955704
0.376655 0.908655 0.775655
0.472980 0.938480 0.805480
0.569306 0.968305 0.835306
0.665631 0.998131 0.865131
0.761956 1.000000 0.894956
0.858281 1.000000 0.924781
0.954607 1.000000 0.954607
1.000000 1.000000 0.984432
1.000000 1.000000 1.000000
0.000000 0.000000 0.385101
0.015926 0.000000 0.414926
0.112251 0.000000 0.444751
0.208576 0.009076 0.474576
0.304902 0.038901 0.504402
0.401227 0.068727 0.534227
0.497552 0.098552 0.564052
0.593877 0.128377 0.593877
0.690202 0.158202 0.623703
0.000000 0.044654 0.443654
0.074479 0.074479 0.473479
0.170804 0.104304 0.503304
0.267130 0.134130 0.533130
0.363455 0.163955 0.562955
0.459780 0.193780 0.592780
0.556105 0.223605 0.622605
0.652430 0.253430 0.652430
0.748756 0.283256 0.682256
0.036707 0.169707 0.502207
0.133032 0.199532 0.532032
0.229357 0.229357 0.561858
0.325683 0.259183 0.591683
0.422008 0.289008 0.621508
0.518333 0.318833 0.651333
0.614658 0.348658 0.681159
0.710984 0.378484 0.710984
0.807309 0.408309 0.740809
0.095260 0.294760 0.560760
0.191586 0.324586 0.590585
0.287911 0.354411 0.620411
0.384236 0.384236 0.650236
0.480561 0.414061 0.680061
0.576886 0.443886 0.709886
0.673212 0.473712 0.739712
0.769537 0.503537 0.769537
0.865862 0.533362 0.799362
0.153813 0.419814 0.619313
0.250139 0.449639 0.649139
0.346464 0.479464 0.678964
0.442789 0.509289 0.708789
0.539114 0.539114 0.738614
0.635440 0.568940 0.768440
0.731765 0.598765 0.798265
0.828090 0.628590 0.828090
0.924415 0.658416 0.857915
0.212367 0.544867 0.677867
0.308692 0.574692 0.707692
0.405017 0.604517 0.737517
0.501343 0.634343 0.767343
0.597668 0.664168 0.797168
0.693993 0.693993 0.826993
0.790318 0.723818 0.856818
0.886644 0.753643 0.886644
0.982969 0.783469 0.916469
0.270920 0.669920 0.736420
0.367245 0.699745 0.766245
0.463570 0.729571 0.796070
0.559896 0.759396 0.825896
0.656221 0.789221 0.855721
0.752546 0.819046 0.885546
0.848872 0.848872 0.915372
0.945197 0.878697 0.945197
1.000000 0.908522 0.975022
0.329473 0.794973 0.794973
0.425798 0.824798 0.824798
0.522124 0.854624 0.854624
0.618449 0.884449 0.884449
0.714774 0.914274 0.914274
0.811099 0.944099 0.944099
0.907425 0.973925 0.973925
1.000000 1.000000 1.000000
1.000000 1.000000 1.000000
0.388026 0.920026 0.853526
0.484352 0.949852 0.883352
0.580677 0.979677 0.913177
0.677002 1.000000 0.943002
0.773327 1.000000 0.972828
0.869653 1.000000 1.000000
0.965978 1.000000 1.000000
1.000000 1.000000 1.000000
1.000000 1.000000 1.000000
0.000000 0.000000 0.462972
0.027297 0.000000 0.492797
0.123623 0.000000 0.522622
0.219948 0.020448 0.552448
0.316273 0.050273 0.582273
0.412598 0.080098 0.612098
0.508923 0.109923 0.641923
0.605249 0.139749 0.671749
0.701574 0.169574 0.701574
0.000000 0.056025 0.521525
0.085851 0.085851 0.551351
0.182176 0.115676 0.581176
0.278501 0.145501 0.611001
0.374826 0.175326 0.640826
0.471151 0.205151 0.670651
0.567477 0.234977 0.700477
0.663802 0.264802 0.730302
0.760127 0.294627 0.760127
0.048078 0.181078 0.580078
0.144404 0.210904 0.609904
0.240729 0.240729 0.639729
0.337054 0.270554 0.669554
0.433379 0.300379 0.699379
0.529705 0.330205 0.729205
0.626030 0.360030 0.759030
0.722355 0.389855 0.788855
0.818680 0.419680 0.818680
0.106632 0.306132 0.638632
0.202957 0.335957 0.668457
0.299282 0.365782 0.698282
0.395608 0.395608 0.728108
0.491933 0.425433 0.757933
0.588258 0.455258 0.787758
0.684583 0.485083 0.817583
0.780909 0.514908 0.847408
0.877234 0.544734 0.877234
0.165185 0.431185 0.697185
0.261510 0.461010 0.727010
0.357835 0.490835 0.756835
0.454161 0.520661 0.786661
0.550486 0.550486 0.816486
0.646811 0.580311 0.846311
0.743136 0.610136 0.876137
0.839462 0.639962 0.905962
0.935787 0.669787 0.935787
0.223738 0.556238 0.755738
0.320063 0.586064 0.785563
0.416389 0.615889 0.815389
0.512714 0.645714 0.845214
0.609039 0.675539 0.875039
0.705364 0.705364 0.904864
0.801690 0.735190 0.934690
0.898015 0.765015 0.964515
0.994340 0.794840 0.994340
0.282292 0.681292 0.814292
0.378617 0.711117 0.844117
0.474942 0.740942 0.873942
0.571267 0.770767 0.903767
0.667592 0.800593 0.933592
0.763918 0.830418 0.963418
0.860243 0.860243 0.993243
0.956568 0.890068 1.000000
1.000000 0.919893 1.000000
0.340845 0.806345 0.872845
0.437170 0.836170 0.902670
0.533495 0.865995 0.932495
0.629821 0.895821 0.962321
0.726146 0.925646 0.992146
0.822471 0.955471 1.000000
0.918796 0.985296 1.000000
1.000000 1.000000 1.000000
1.000000 1.000000 1.000000
0.399398 0.931398 0.931398
0.495723 0.961223 0.961223
0.592048 0.991048 0.991048
0.688374 1.000000 1.000000
0.784699 1.000000 1.000000
0.881024 1.000000 1.000000
0.977350 1.000000 1.000000
1.000000 1.000000 1.000000
1.000000 1.000000 1.000000
