assets/luts/bleach_bypass.cube
TITLE "Bleach Bypass"
LUT_3D_SIZE 33
0.000000 0.000000 0.000000
0.000000 0.000000 0.000000
0.000000 0.000000 0.000000
0.000000 0.000000 0.000000
0.000000 0.000000 0.000000
0.000000 0.000000 0.000000
0.000000 0.000000 0.000000
0.008569 0.000000 0.000000
0.032651 0.000000 0.000000
0.056732 0.000000 0.000000
0.080813 0.000000 0.000000
0.104894 0.000000 0.000000
0.128976 0.000000 0.000000
0.153057 0.000000 0.000000
0.177138 0.000000 0.000000
0.201220 0.000000 0.000000
0.225301 0.000000 0.000000
0.249382 0.000000 0.000000
0.273464 0.000000 0.000000
0.297545 0.000000 0.000000
0.321626 0.000000 0.000000
0.345708 0.000000 0.000000
0.369789 0.004039 0.004039
0.393870 0.011495 0.011495
0.417952 0.018952 0.018952
0.442033 0.026408 0.026408
0.466114 0.033864 0.033864
0.490195 0.041320 0.041320
0.514277 0.048777 0.048777
0.538358 0.056233 0.056233
0.562439 0.063689 0.063689
0.586521 0.071146 0.071146
0.610602 0.078602 0.078602
0.000000 0.000000 0.000000
0.000000 0.000000 0.000000
0.000000 0.000000 0.000000
0.000000 0.000000 0.000000
0.000000 0.000000 0.000000
0.000000 0.000000 0.000000
0.000000 0.000000 0.000000
0.023208 0.000000 0.000000
0.047289 0.000000 0.000000
0.071370 0.000000 0.000000
0.095451 0.000000 0.000000
0.119533 0.000000 0.000000
0.143614 0.000000 0.000000
0.167695 0.000000 0.000000
0.191777 0.000000 0.000000
0.215858 0.000000 0.000000
0.239939 0.000000 0.000000
0.264021 0.000000 0.000000
0.288102 0.005477 0.000000
0.312183 0.012933 0.000000
0.336265 0.020390 0.003765
0.360346 0.027846 0.011221
0.384427 0.035302 0.018677
0.408508 0.042758 0.026134
0.432590 0.050215 0.033590
0.456671 0.057671 0.041046
0.480752 0.065127 0.048502
0.504834 0.072584 0.055959
0.528915 0.080040 0.063415
0.552996 0.087496 0.070871
0.577078 0.094953 0.078328
0.601159 0.102409 0.085784
0.625240 0.109865 0.093240
0.000000 0.000000 0.000000
0.000000 0.000000 0.000000
0.000000 0.000000 0.000000
0.000000 0.000000 0.000000
0.000000 0.000000 0.000000
0.000000 0.000000 0.000000
0.013765 0.000000 0.000000
0.037846 0.000000 0.000000
0.061927 0.000000 0.000000
0.086008 0.000000 0.000000
0.110090 0.000000 0.000000
0.134171 0.000000 0.000000
0.158252 0.000000 0.000000
0.182334 0.000000 0.000000
0.206415 0.006915 0.000000
0.230496 0.014371 0.000000
0.254578 0.021828 0.000000
0.278659 0.029284 0.000000
0.302740 0.036740 0.003490
0.326822 0.044197 0.010947
0.350903 0.051653 0.018403
0.374984 0.059109 0.025859
0.399065 0.066566 0.033315
0.423147 0.074022 0.040772
0.447228 0.081478 0.048228
0.471309 0.088934 0.055684
0.495391 0.096391 0.063141
0.519472 0.103847 0.070597
0.543553 0.111303 0.078053
0.567635 0.118760 0.085510
0.591716 0.126216 0.092966
0.615797 0.133672 0.100422
0.639879 0.141129 0.107879
0.000000 0.000000 0.000000
0.000000 0.000000 0.000000
0.000000 0.000000 0.000000
0.000000 0.000000 0.000000
0.000000 0.000000 0.000000
0.004322 0.000000 0.000000
0.028403 0.000000 0.000000
0.052484 0.000000 0.000000
0.076565 0.000000 0.000000
0.100647 0.000897 0.000000
0.124728 0.008353 0.000000
0.148809 0.015809 0.000000
0.172891 0.023266 0.000000
0.196972 0.030722 0.000000
0.221053 0.038178 0.000000
0.245135 0.045635 0.000000
0.269216 0.053091 0.003216
0.293297 0.060547 0.010672
0.317379 0.068004 0.018129
0.341460 0.075460 0.025585
0.365541 0.082916 0.033041
0.389622 0.090372 0.040497
0.413704 0.097829 0.047954
0.437785 0.105285 0.055410
0.461866 0.112741 0.062866
0.485948 0.120198 0.070323
0.510029 0.127654 0.077779
0.534110 0.135110 0.085235
0.558192 0.142567 0.092692
0.582273 0.150023 0.100148
0.606354 0.157479 0.107604
0.630436 0.164936 0.115061
0.654517 0.172392 0.122517
0.000000 0.000000 0.000000
0.000000 0.000000 0.000000
0.000000 0.000000 0.000000
0.000000 0.000000 0.000000
0.000000 0.000000 0.000000
0.018960 0.002335 0.000000
0.043041 0.009791 0.000000
0.067122 0.017247 0.000000
0.091204 0.024704 0.000000
0.115285 0.032160 0.000000
0.139366 0.039616 0.000000
0.163448 0.047073 0.000000
0.187529 0.054529 0.000000
0.211610 0.061985 0.000000
0.235692 0.069442 0.002942
0.259773 0.076898 0.010398
0.283854 0.084354 0.017854
0.307936 0.091811 0.025311
0.332017 0.099267 0.032767
0.356098 0.106723 0.040223
0.380180 0.114180 0.047680
0.404261 0.121636 0.055136
0.428342 0.129092 0.062592
0.452423 0.136548 0.070048
0.476505 0.144005 0.077505
0.500586 0.151461 0.084961
0.524667 0.158917 0.092417
0.548749 0.166374 0.099874
0.572830 0.173830 0.107330
0.596911 0.181286 0.114786
0.620993 0.188743 0.122243
0.645074 0.196199 0.129699
0.669155 0.203655 0.137155
0.000000 0.000000 0.000000
0.000000 0.003773 0.000000
0.000000 0.011229 0.000000
0.000000 0.018686 0.000000
0.009517 0.026142 0.000000
0.033598 0.033598 0.000000
0.057679 0.041054 0.000000
0.081761 0.048511 0.000000
0.105842 0.055967 0.000000
0.129923 0.063423 0.000000
0.154005 0.070880 0.000000
0.178086 0.078336 0.000000
0.202167 0.085792 0.002667
0.226249 0.093249 0.010124
0.250330 0.100705 0.017580
0.274411 0.108161 0.025036
0.298493 0.115618 0.032493
0.322574 0.123074 0.039949
0.346655 0.130530 0.047405
0.370737 0.137986 0.054861
0.394818 0.145443 0.062318
0.418899 0.152899 0.069774
0.442980 0.160355 0.077230
0.467062 0.167812 0.084687
0.491143 0.175268 0.092143
0.515224 0.182724 0.099599
0.539306 0.190181 0.107056
0.563387 0.197637 0.114512
0.587468 0.205093 0.121968
0.611550 0.212550 0.129425
0.635631 0.220006 0.136881
0.659712 0.227462 0.144337
0.683794 0.234919 0.151794
0.000000 0.027580 0.000000
0.000000 0.035036 0.000000
0.000000 0.042493 0.000000
0.000074 0.049949 0.000000
0.024155 0.057405 0.000000
0.048236 0.064861 0.000000
0.072318 0.072318 0.000000
0.096399 0.079774 0.000000
0.120480 0.087230 0.000000
0.144562 0.094687 0.000000
0.168643 0.102143 0.002393
0.192724 0.109599 0.009849
0.216806 0.117056 0.017306
0.240887 0.124512 0.024762
0.264968 0.131968 0.032218
0.289050 0.139425 0.039675
0.313131 0.146881 0.047131
0.337212 0.154337 0.054587
0.361294 0.161794 0.062044
0.385375 0.169250 0.069500
0.409456 0.176706 0.076956
0.433537 0.184162 0.084412
0.457619 0.191619 0.091869
0.481700 0.199075 0.099325
0.505781 0.206531 0.106781
0.529863 0.213988 0.114238
0.553944 0.221444 0.121694
0.578025 0.228900 0.129150
0.602107 0.236357 0.136607
0.626188 0.243813 0.144063
0.650269 0.251269 0.151519
0.674351 0.258726 0.158976
0.698432 0.266182 0.166432
0.000000 0.058843 0.000000
0.000000 0.066300 0.000000
0.000000 0.073756 0.000000
0.014712 0.081212 0.000000
0.038793 0.088668 0.000000
0.062875 0.096125 0.000000
0.086956 0.103581 0.000000
0.111037 0.111037 0.000000
0.135119 0.118494 0.002119
0.159200 0.125950 0.009575
0.183281 0.133406 0.017031
0.207363 0.140863 0.024488
0.231444 0.148319 0.031944
0.255525 0.155775 0.039400
0.279607 0.163232 0.046857
0.303688 0.170688 0.054313
0.327769 0.178144 0.061769
0.351851 0.185601 0.069226
0.375932 0.193057 0.076682
0.400013 0.200513 0.084138
0.424094 0.207969 0.091594
0.448176 0.215426 0.099051
0.472257 0.222882 0.106507
0.496338 0.230338 0.113963
0.520420 0.237795 0.121420
0.544501 0.245251 0.128876
0.568582 0.252707 0.136332
0.592664 0.260164 0.143789
0.616745 0.267620 0.151245
0.640826 0.275076 0.158701
0.664908 0.282533 0.166158
0.688989 0.289989 0.173614
0.713070 0.297445 0.181070
0.000000 0.090106 0.000000
0.000000 0.097563 0.000000
0.005269 0.105019 0.000000
0.029350 0.112475 0.000000
0.053432 0.119932 0.000000
0.077513 0.127388 0.000000
0.101594 0.134844 0.001844
0.125676 0.142301 0.009301
0.149757 0.149757 0.016757
0.173838 0.157213 0.024213
0.197920 0.164670 0.031670
0.222001 0.172126 0.039126
0.246082 0.179582 0.046582
0.270164 0.187039 0.054039
0.294245 0.194495 0.061495
0.318326 0.201951 0.068951
0.342408 0.209407 0.076408
0.366489 0.216864 0.083864
0.390570 0.224320 0.091320
0.414651 0.231776 0.098776
0.438733 0.239233 0.106233
0.462814 0.246689 0.113689
0.486895 0.254145 0.121145
0.510977 0.261602 0.128602
0.535058 0.269058 0.136058
0.559139 0.276514 0.143514
0.583221 0.283971 0.150971
0.607302 0.291427 0.158427
0.631383 0.298883 0.165883
0.655465 0.306340 0.173340
0.679546 0.313796 0.180796
0.703627 0.321252 0.188252
0.727708 0.328708 0.195708
0.000000 0.121370 0.000000
0.000000 0.128826 0.000000
0.019907 0.136282 0.000000
0.043989 0.143739 0.000000
0.068070 0.151195 0.001570
0.092151 0.158651 0.009026
0.116233 0.166108 0.016483
0.140314 0.173564 0.023939
0.164395 0.181020 0.031395
0.188477 0.188477 0.038852
0.212558 0.195933 0.046308
0.236639 0.203389 0.053764
0.260721 0.210846 0.061221
0.284802 0.218302 0.068677
0.308883 0.225758 0.076133
0.332964 0.233214 0.083590
0.357046 0.240671 0.091046
0.381127 0.248127 0.098502
0.405208 0.255583 0.105958
0.429290 0.263040 0.113415
0.453371 0.270496 0.120871
0.477452 0.277952 0.128327
0.501534 0.285409 0.135784
0.525615 0.292865 0.143240
0.549696 0.300321 0.150696
0.573778 0.307778 0.158153
0.597859 0.315234 0.165609
0.621940 0.322690 0.173065
0.646022 0.330147 0.180522
0.670103 0.337603 0.187978
0.694184 0.345059 0.195434
0.718266 0.352515 0.202890
0.742347 0.359972 0.210347
0.000000 0.152633 0.000000
0.010464 0.160089 0.000000
0.034546 0.167546 0.001296
0.058627 0.175002 0.008752
0.082708 0.182458 0.016208
0.106790 0.189915 0.023665
0.130871 0.197371 0.031121
0.154952 0.204827 0.038577
0.179034 0.212284 0.046034
0.203115 0.219740 0.053490
0.227196 0.227196 0.060946
0.251278 0.234653 0.068403
0.275359 0.242109 0.075859
0.299440 0.249565 0.083315
0.323521 0.257022 0.090772
0.347603 0.264478 0.098228
0.371684 0.271934 0.105684
0.395765 0.279390 0.113140
0.419847 0.286847 0.120597
0.443928 0.294303 0.128053
0.468009 0.301759 0.135509
0.492091 0.309216 0.142966
0.516172 0.316672 0.150422
0.540253 0.324128 0.157878
0.564335 0.331585 0.165335
0.588416 0.339041 0.172791
0.612497 0.346497 0.180247
0.636579 0.353954 0.187704
0.660660 0.361410 0.195160
0.684741 0.368866 0.202616
0.708822 0.376322 0.210072
0.732904 0.383779 0.217529
0.756985 0.391235 0.224985
0.001021 0.183896 0.001021
0.025103 0.191353 0.008478
0.049184 0.198809 0.015934
0.073265 0.206265 0.023390
0.097347 0.213722 0.030847
0.121428 0.221178 0.038303
0.145509 0.228634 0.045759
0.169591 0.236091 0.053216
0.193672 0.243547 0.060672
0.217753 0.251003 0.068128
0.241835 0.258460 0.075585
0.265916 0.265916 0.083041
0.289997 0.273372 0.090497
0.314079 0.280829 0.097953
0.338160 0.288285 0.105410
0.362241 0.295741 0.112866
0.386322 0.303197 0.120322
0.410404 0.310654 0.127779
0.434485 0.318110 0.135235
0.458566 0.325566 0.142691
0.482648 0.333023 0.150148
0.506729 0.340479 0.157604
0.530810 0.347935 0.165060
0.554892 0.355392 0.172517
0.578973 0.362848 0.179973
0.603054 0.370304 0.187429
0.627136 0.377761 0.194886
0.651217 0.385217 0.202342
0.675298 0.392673 0.209798
0.699379 0.400130 0.217255
0.723461 0.407586 0.224711
0.747542 0.415042 0.232167
0.771623 0.422498 0.239623
0.015660 0.215160 0.015660
0.039741 0.222616 0.023116
0.063822 0.230072 0.030572
0.087904 0.237529 0.038029
0.111985 0.244985 0.045485
0.136066 0.252441 0.052941
0.160148 0.259898 0.060398
0.184229 0.267354 0.067854
0.208310 0.274810 0.075310
0.232392 0.282267 0.082767
0.256473 0.289723 0.090223
0.280554 0.297179 0.097679
0.304636 0.304636 0.105136
0.328717 0.312092 0.112592
0.352798 0.319548 0.120048
0.376879 0.327004 0.127504
0.400961 0.334461 0.134961
0.425042 0.341917 0.142417
0.449123 0.349373 0.149873
0.473205 0.356830 0.157330
0.497286 0.364286 0.164786
0.521367 0.371742 0.172242
0.545449 0.379199 0.179699
0.569530 0.386655 0.187155
0.593611 0.394111 0.194611
0.617693 0.401568 0.202068
0.641774 0.409024 0.209524
0.665855 0.416480 0.216980
0.689936 0.423936 0.224436
0.714018 0.431393 0.231893
0.738099 0.438849 0.239349
0.762180 0.446305 0.246805
0.786262 0.453762 0.254262
0.030298 0.246423 0.030298
0.054379 0.253879 0.037754
0.078461 0.261336 0.045211
0.102542 0.268792 0.052667
0.126623 0.276248 0.060123
0.150705 0.283705 0.067580
0.174786 0.291161 0.075036
0.198867 0.298617 0.082492
0.222949 0.306074 0.089949
0.247030 0.313530 0.097405
0.271111 0.320986 0.104861
0.295192 0.328442 0.112318
0.319274 0.335899 0.119774
0.343355 0.343355 0.127230
0.367436 0.350811 0.134686
0.391518 0.358268 0.142143
0.415599 0.365724 0.149599
0.439680 0.373180 0.157055
0.463762 0.380637 0.164512
0.487843 0.388093 0.171968
0.511924 0.395549 0.179424
0.536006 0.403006 0.186881
0.560087 0.410462 0.194337
0.584168 0.417918 0.201793
0.608250 0.425375 0.209250
0.632331 0.432831 0.216706
0.656412 0.440287 0.224162
0.680494 0.447743 0.231619
0.704575 0.455200 0.239075
0.728656 0.462656 0.246531
0.752737 0.470112 0.253987
0.776819 0.477569 0.261444
0.800900 0.485025 0.268900
0.044936 0.277686 0.044936
0.069018 0.285143 0.052393
0.093099 0.292599 0.059849
0.117180 0.300055 0.067305
0.141262 0.307512 0.074762
0.165343 0.314968 0.082218
0.189424 0.322424 0.089674
0.213506 0.329881 0.097131
0.237587 0.337337 0.104587
0.261668 0.344793 0.112043
0.285749 0.352249 0.119500
0.309831 0.359706 0.126956
0.333912 0.367162 0.134412
0.357993 0.374618 0.141868
0.382075 0.382075 0.149325
0.406156 0.389531 0.156781
0.430237 0.396987 0.164237
0.454319 0.404444 0.171694
0.478400 0.411900 0.179150
0.502481 0.419356 0.186606
0.526563 0.426813 0.194063
0.550644 0.434269 0.201519
0.574725 0.441725 0.208975
0.598807 0.449182 0.216432
0.622888 0.456638 0.223888
0.646969 0.464094 0.231344
0.671050 0.471550 0.238801
0.695132 0.479007 0.246257
0.719213 0.486463 0.253713
0.743294 0.493919 0.261169
0.767376 0.501376 0.268626
0.791457 0.508832 0.276082
0.815538 0.516288 0.283538
0.059575 0.308950 0.059575
0.083656 0.316406 0.067031
0.107737 0.323862 0.074487
0.131819 0.331319 0.081944
0.155900 0.338775 0.089400
0.179981 0.346231 0.096856
0.204063 0.353688 0.104313
0.228144 0.361144 0.111769
0.252225 0.368600 0.119225
0.276306 0.376057 0.126681
0.300388 0.383513 0.134138
0.324469 0.390969 0.141594
0.348550 0.398425 0.149050
0.372632 0.405882 0.156507
0.396713 0.413338 0.163963
0.420794 0.420794 0.171419
0.444876 0.428251 0.178876
0.468957 0.435707 0.186332
0.493038 0.443163 0.193788
0.517120 0.450620 0.201245
0.541201 0.458076 0.208701
0.565282 0.465532 0.216157
0.589364 0.472989 0.223614
0.613445 0.480445 0.231070
0.637526 0.487901 0.238526
0.661608 0.495358 0.245983
0.685689 0.502814 0.253439
0.709770 0.510270 0.260895
0.733851 0.517726 0.268351
0.757933 0.525183 0.275808
0.782014 0.532639 0.283264
0.806095 0.540095 0.290720
0.830177 0.547552 0.298177
0.074213 0.340213 0.074213
0.098294 0.347669 0.081669
0.122376 0.355126 0.089126
0.146457 0.362582 0.096582
0.170538 0.370038 0.104038
0.194620 0.377495 0.111495
0.218701 0.384951 0.118951
0.242782 0.392407 0.126407
0.266863 0.399864 0.133863
0.290945 0.407320 0.141320
0.315026 0.414776 0.148776
0.339107 0.422232 0.156232
0.363189 0.429689 0.163689
0.387270 0.437145 0.171145
0.411351 0.444601 0.178601
0.435433 0.452058 0.186058
0.459514 0.459514 0.193514
0.483595 0.466970 0.200970
0.507677 0.474427 0.208427
0.531758 0.481883 0.215883
0.555839 0.489339 0.223339
0.579921 0.496796 0.230796
0.604002 0.504252 0.238252
0.628083 0.511708 0.245708
0.652164 0.519164 0.253164
0.676246 0.526621 0.260621
0.700327 0.534077 0.268077
0.724408 0.541533 0.275533
0.748490 0.548990 0.282990
0.772571 0.556446 0.290446
0.796652 0.563902 0.297902
0.820734 0.571359 0.305359
0.844815 0.578815 0.312815
0.088851 0.371476 0.088851
0.112933 0.378933 0.096308
0.137014 0.386389 0.103764
0.161095 0.393845 0.111220
0.185177 0.401302 0.118677
0.209258 0.408758 0.126133
0.233339 0.416214 0.133589
0.257420 0.423670 0.141045
0.281502 0.431127 0.148502
0.305583 0.438583 0.155958
0.329664 0.446039 0.163414
0.353746 0.453496 0.170871
0.377827 0.460952 0.178327
0.401908 0.468408 0.185783
0.425990 0.475865 0.193240
0.450071 0.483321 0.200696
0.474152 0.490777 0.208152
0.498234 0.498234 0.215609
0.522315 0.505690 0.223065
0.546396 0.513146 0.230521
0.570478 0.520603 0.237978
0.594559 0.528059 0.245434
0.618640 0.535515 0.252890
0.642722 0.542971 0.260346
0.666803 0.550428 0.267803
0.690884 0.557884 0.275259
0.714965 0.565340 0.282715
0.739047 0.572797 0.290172
0.763128 0.580253 0.297628
0.787209 0.587709 0.305084
0.811291 0.595166 0.312541
0.835372 0.602622 0.319997
0.859453 0.610078 0.327453
0.103490 0.402740 0.103490
0.127571 0.410196 0.110946
0.151652 0.417652 0.118402
0.175734 0.425109 0.125859
0.199815 0.432565 0.133315
0.223896 0.440021 0.140771
0.247977 0.447477 0.148228
0.272059 0.454934 0.155684
0.296140 0.462390 0.163140
0.320221 0.469846 0.170596
0.344303 0.477303 0.178053
0.368384 0.484759 0.185509
0.392465 0.492215 0.192965
0.416547 0.499672 0.200422
0.440628 0.507128 0.207878
0.464709 0.514584 0.215334
0.488791 0.522041 0.222791
0.512872 0.529497 0.230247
0.536953 0.536953 0.237703
0.561035 0.544410 0.245160
0.585116 0.551866 0.252616
0.609197 0.559322 0.260072
0.633278 0.566779 0.267528
0.657360 0.574235 0.274985
0.681441 0.581691 0.282441
0.705522 0.589147 0.289897
0.729604 0.596604 0.297354
0.753685 0.604060 0.304810
0.777766 0.611516 0.312266
0.801848 0.618973 0.319723
0.825929 0.626429 0.327179
0.850010 0.633885 0.334635
0.874092 0.641342 0.342092
0.118128 0.434003 0.118128
0.142209 0.441459 0.125584
0.166291 0.448916 0.133041
0.190372 0.456372 0.140497
0.214453 0.463828 0.147953
0.238534 0.471284 0.155409
0.262616 0.478741 0.162866
0.286697 0.486197 0.170322
0.310778 0.493653 0.177778
0.334860 0.501110 0.185235
0.358941 0.508566 0.192691
0.383022 0.516022 0.200147
0.407104 0.523479 0.207604
0.431185 0.530935 0.215060
0.455266 0.538391 0.222516
0.479348 0.545848 0.229973
0.503429 0.553304 0.237429
0.527510 0.560760 0.244885
0.551592 0.568217 0.252342
0.575673 0.575673 0.259798
0.599754 0.583129 0.267254
0.623835 0.590585 0.274710
0.647917 0.598042 0.282167
0.671998 0.605498 0.289623
0.696079 0.612954 0.297079
0.720161 0.620411 0.304536
0.744242 0.627867 0.311992
0.768323 0.635323 0.319448
0.792405 0.642780 0.326905
0.816486 0.650236 0.334361
0.840567 0.657692 0.341817
0.864649 0.665149 0.349274
0.888730 0.672605 0.356730
0.132766 0.465266 0.132766
0.156848 0.472723 0.140223
0.180929 0.480179 0.147679
0.205010 0.487635 0.155135
0.229091 0.495091 0.162591
0.253173 0.502548 0.170048
0.277254 0.510004 0.177504
0.301335 0.517460 0.184960
0.325417 0.524917 0.192417
0.349498 0.532373 0.199873
0.373579 0.539829 0.207329
0.397661 0.547286 0.214786
0.421742 0.554742 0.222242
0.445823 0.562198 0.229698
0.469905 0.569655 0.237155
0.493986 0.577111 0.244611
0.518067 0.584567 0.252067
0.542149 0.592024 0.259524
0.566230 0.599480 0.266980
0.590311 0.606936 0.274436
0.614392 0.614392 0.281892
0.638474 0.621849 0.289349
0.662555 0.629305 0.296805
0.686636 0.636761 0.304261
0.710718 0.644218 0.311718
0.734799 0.651674 0.319174
0.758880 0.659130 0.326630
0.782962 0.666587 0.334087
0.807043 0.674043 0.341543
0.831124 0.681499 0.348999
0.855206 0.688956 0.356456
0.879287 0.696412 0.363912
0.903368 0.703868 0.371368
0.147405 0.496530 0.147405
0.171486 0.503986 0.154861
0.195567 0.511442 0.162317
0.219648 0.518899 0.169774
0.243730 0.526355 0.177230
0.267811 0.533811 0.184686
0.291892 0.541267 0.192142
0.315974 0.548724 0.199599
0.340055 0.556180 0.207055
0.364136 0.563636 0.214511
0.388218 0.571093 0.221968
0.412299 0.578549 0.229424
0.436380 0.586005 0.236880
0.460462 0.593462 0.244337
0.484543 0.600918 0.251793
0.508624 0.608374 0.259249
0.532706 0.615831 0.266706
0.556787 0.623287 0.274162
0.580868 0.630743 0.281618
0.604949 0.638199 0.289074
0.629031 0.645656 0.296531
0.653112 0.653112 0.303987
0.677193 0.660568 0.311443
0.701275 0.668025 0.318900
0.725356 0.675481 0.326356
0.749437 0.682937 0.333812
0.773519 0.690394 0.341269
0.797600 0.697850 0.348725
0.821681 0.705306 0.356181
0.845763 0.712763 0.363638
0.869844 0.720219 0.371094
0.893925 0.727675 0.378550
0.918007 0.735132 0.386007
0.162043 0.527793 0.162043
0.186124 0.535249 0.169499
0.210206 0.542706 0.176956
0.234287 0.550162 0.184412
0.258368 0.557618 0.191868
0.282449 0.565074 0.199324
0.306531 0.572531 0.206781
0.330612 0.579987 0.214237
0.354693 0.587443 0.221693
0.378775 0.594900 0.229150
0.402856 0.602356 0.236606
0.426937 0.609812 0.244062
0.451019 0.617269 0.251519
0.475100 0.624725 0.258975
0.499181 0.632181 0.266431
0.523263 0.639638 0.273888
0.547344 0.647094 0.281344
0.571425 0.654550 0.288800
0.595506 0.662007 0.296256
0.619588 0.669463 0.303713
0.643669 0.676919 0.311169
0.667750 0.684375 0.318625
0.691832 0.691832 0.326082
0.715913 0.699288 0.333538
0.739994 0.706744 0.340994
0.764076 0.714201 0.348451
0.788157 0.721657 0.355907
0.812238 0.729113 0.363363
0.836320 0.736570 0.370820
0.860401 0.744026 0.378276
0.884482 0.751482 0.385732
0.908564 0.758939 0.393189
0.932645 0.766395 0.400645
0.176681 0.559056 0.176681
0.200763 0.566512 0.184138
0.224844 0.573969 0.191594
0.248925 0.581425 0.199050
0.273006 0.588881 0.206506
0.297088 0.596338 0.213963
0.321169 0.603794 0.221419
0.345250 0.611250 0.228875
0.369332 0.618707 0.236332
0.393413 0.626163 0.243788
0.417494 0.633619 0.251244
0.441576 0.641076 0.258701
0.465657 0.648532 0.266157
0.489738 0.655988 0.273613
0.513820 0.663445 0.281070
0.537901 0.670901 0.288526
0.561982 0.678357 0.295982
0.586064 0.685813 0.303438
0.610145 0.693270 0.310895
0.634226 0.700726 0.318351
0.658307 0.708182 0.325807
0.682389 0.715639 0.333264
0.706470 0.723095 0.340720
0.730551 0.730551 0.348176
0.754633 0.738008 0.355633
0.778714 0.745464 0.363089
0.802795 0.752920 0.370545
0.826877 0.760377 0.378002
0.850958 0.767833 0.385458
0.875039 0.775289 0.392914
0.899121 0.782746 0.400371
0.923202 0.790202 0.407827
0.947283 0.797658 0.415283
0.191320 0.590320 0.191320
0.215401 0.597776 0.198776
0.239482 0.605232 0.206232
0.263563 0.612688 0.213688
0.287645 0.620145 0.221145
0.311726 0.627601 0.228601
0.335807 0.635057 0.236057
0.359889 0.642514 0.243514
0.383970 0.649970 0.250970
0.408051 0.657426 0.258426
0.432133 0.664883 0.265883
0.456214 0.672339 0.273339
0.480295 0.679795 0.280795
0.504377 0.687252 0.288252
0.528458 0.694708 0.295708
0.552539 0.702164 0.303164
0.576620 0.709621 0.310621
0.600702 0.717077 0.318077
0.624783 0.724533 0.325533
0.648864 0.731989 0.332989
0.672946 0.739446 0.340446
0.697027 0.746902 0.347902
0.721108 0.754358 0.355358
0.745190 0.761815 0.362815
0.769271 0.769271 0.370271
0.793352 0.776727 0.377727
0.817434 0.784184 0.385184
0.841515 0.791640 0.392640
0.865596 0.799096 0.400096
0.889678 0.806553 0.407553
0.913759 0.814009 0.415009
0.937840 0.821465 0.422465
0.961921 0.828921 0.429921
0.205958 0.621583 0.205958
0.230039 0.629039 0.213414
0.254120 0.636495 0.220870
0.278202 0.643952 0.228327
0.302283 0.651408 0.235783
0.326364 0.658864 0.243239
0.350446 0.666321 0.250696
0.374527 0.673777 0.258152
0.398608 0.681233 0.265608
0.422690 0.688690 0.273065
0.446771 0.696146 0.280521
0.470852 0.703602 0.287977
0.494934 0.711059 0.295434
0.519015 0.718515 0.302890
0.543096 0.725971 0.310346
0.567177 0.733427 0.317802
0.591259 0.740884 0.325259
0.615340 0.748340 0.332715
0.639421 0.755796 0.340171
0.663503 0.763253 0.347628
0.687584 0.770709 0.355084
0.711665 0.778165 0.362540
0.735747 0.785622 0.369997
0.759828 0.793078 0.377453
0.783909 0.800534 0.384909
0.807991 0.807991 0.392366
0.832072 0.815447 0.399822
0.856153 0.822903 0.407278
0.880235 0.830360 0.414735
0.904316 0.837816 0.422191
0.928397 0.845272 0.429647
0.952478 0.852728 0.437103
0.976560 0.860185 0.444560
0.220596 0.652846 0.220596
0.244677 0.660302 0.228052
0.268759 0.667759 0.235509
0.292840 0.675215 0.242965
0.316921 0.682671 0.250421
0.341003 0.690128 0.257878
0.365084 0.697584 0.265334
0.389165 0.705040 0.272790
0.413247 0.712497 0.280247
0.437328 0.719953 0.287703
0.461409 0.727409 0.295159
0.485491 0.734866 0.302616
0.509572 0.742322 0.310072
0.533653 0.749778 0.317528
0.557734 0.757234 0.324984
0.581816 0.764691 0.332441
0.605897 0.772147 0.339897
0.629978 0.779603 0.347353
0.654060 0.787060 0.354810
0.678141 0.794516 0.362266
0.702222 0.801972 0.369722
0.726304 0.809429 0.377179
0.750385 0.816885 0.384635
0.774466 0.824341 0.392091
0.798548 0.831798 0.399548
0.822629 0.839254 0.407004
0.846710 0.846710 0.414460
0.870792 0.854167 0.421917
0.894873 0.861623 0.429373
