assets/luts/bleach_bypass.cube
TITLE "Bleach Bypass"
LUT_3D_SIZE 5
0.000000 0.000000 0.000000
0.032651 0.000000 0.000000
0.225301 0.000000 0.000000
0.417952 0.018952 0.018952
0.610602 0.078602 0.078602
0.000000 0.090106 0.000000
0.149757 0.149757 0.016757
0.342408 0.209407 0.076408
0.535058 0.269058 0.136058
0.727708 0.328708 0.195708
0.074213 0.340213 0.074213
0.266863 0.399864 0.133863
0.459514 0.459514 0.193514
0.652164 0.519164 0.253164
0.844815 0.578815 0.312815
0.191320 0.590320 0.191320
0.383970 0.649970 0.250970
0.576620 0.709621 0.310621
0.769271 0.769271 0.370271
0.961921 0.828921 0.429921
0.308426 0.840426 0.308426
0.501076 0.900076 0.368076
0.693727 0.959727 0.427727
0.886378 1.000000 0.487378
1.000000 1.000000 0.547028
0.000000 0.000000 0.000000
0.055394 0.000000 0.055394
0.248044 0.000000 0.115044
0.440695 0.041695 0.174695
0.633345 0.101345 0.234345
0.000000 0.112850 0.112850
0.172500 0.172500 0.172500
0.365151 0.232151 0.232151
0.557801 0.291801 0.291801
0.750451 0.351451 0.351451
0.096956 0.362956 0.229956
0.289606 0.422606 0.289606
0.482257 0.482257 0.349257
0.674908 0.541907 0.408907
0.867558 0.601558 0.468558
0.214063 0.613063 0.347062
0.406713 0.672713 0.406713
0.599363 0.732363 0.466363
0.792014 0.792014 0.526014
0.984664 0.851665 0.585664
0.331169 0.863169 0.464169
0.523819 0.922819 0.523819
0.716470 0.982470 0.583470
0.909120 1.000000 0.643120
1.000000 1.000000 0.702771
0.000000 0.000000 0.151486
0.078136 0.000000 0.211137
0.270787 0.004787 0.270787
0.463437 0.064437 0.330438
0.656088 0.124088 0.390088
0.002592 0.135593 0.268593
0.195243 0.195243 0.328243
0.387894 0.254894 0.387894
0.580544 0.314544 0.447544
0.773195 0.374195 0.507194
0.119699 0.385699 0.385699
0.312349 0.445349 0.445349
0.505000 0.505000 0.505000
0.697651 0.564651 0.564651
0.890301 0.624301 0.624301
0.236805 0.635805 0.502805
0.429456 0.695456 0.562456
0.622107 0.755107 0.622107
0.814757 0.814757 0.681757
1.000000 0.874408 0.741408
0.353912 0.885912 0.619912
0.546562 0.945563 0.679562
0.739213 1.000000 0.739213
0.931863 1.000000 0.798863
1.000000 1.000000 0.858514
0.000000 0.000000 0.307229
0.100880 0.000000 0.366880
0.293530 0.027530 0.426530
0.486181 0.087181 0.486181
0.678831 0.146831 0.545831
0.025336 0.158336 0.424335
0.217986 0.217986 0.483986
0.410637 0.277637 0.543636
0.603287 0.337287 0.603287
0.795937 0.396937 0.662937
0.142442 0.408442 0.541442
0.335092 0.468093 0.601093
0.527743 0.527743 0.660743
0.720394 0.587394 0.720394
0.913044 0.647044 0.780044
0.259548 0.658549 0.658549
0.452199 0.718199 0.718199
0.644850 0.777850 0.777850
0.837500 0.837500 0.837500
1.000000 0.897150 0.897150
0.376655 0.908655 0.775655
0.569306 0.968305 0.835306
0.761956 1.000000 0.894956
0.954607 1.000000 0.954607
1.000000 1.000000 1.000000
0.000000 0.000000 0.462972
0.123623 0.000000 0.522622
0.316273 0.050273 0.582273
0.508923 0.109923 0.641923
0.701574 0.169574 0.701574
0.048078 0.181078 0.580078
0.240729 0.240729 0.639729
0.433379 0.300379 0.699379
0.626030 0.360030 0.759030
0.818680 0.419680 0.818680
0.165185 0.431185 0.697185
0.357835 0.490835 0.756835
0.550486 0.550486 0.816486
0.743136 0.610136 0.876137
0.935787 0.669787 0.935787
0.282292 0.681292 0.814292
0.474942 0.740942 0.873942
0.667592 0.800593 0.933592
0.860243 0.860243 0.993243
1.000000 0.919893 1.000000
0.399398 0.931398 0.931398
0.592048 0.991048 0.991048
0.784699 1.000000 1.000000
0.977350 1.000000 1.000000
1.000000 1.000000 1.000000
