assets/luts/cold_chrome.cube
TITLE "Cold Chrome"
LUT_3D_SIZE 5
0.000000 0.000000 0.000000
0.082039 0.000000 0.000000
0.309077 0.000000 0.002126
0.536116 0.000000 0.031188
0.763155 0.000000 0.060251
0.000000 0.125092 0.001056
0.132667 0.151722 0.030119
0.359706 0.178352 0.059182
0.586745 0.204981 0.088245
0.813784 0.231611 0.117308
0.000000 0.385184 0.058113
0.183296 0.411814 0.087176
0.410335 0.438444 0.116238
0.637374 0.465073 0.145301
0.864412 0.491703 0.174364
0.006886 0.645277 0.115169
0.233925 0.671906 0.144232
0.460964 0.698536 0.173295
0.688002 0.725166 0.202358
0.915041 0.751795 0.231420
0.057515 0.905369 0.172226
0.284554 0.931998 0.201288
0.511593 0.958628 0.230351
0.738631 0.985258 0.259414
0.965670 1.000000 0.288477
0.000000 0.000000 0.181881
0.091871 0.000000 0.210944
0.318910 0.000000 0.240006
0.545949 0.000000 0.269069
0.772987 0.000000 0.298132
0.000000 0.135245 0.238937
0.142500 0.161875 0.268000
0.369539 0.188505 0.297063
0.596577 0.215134 0.326126
0.823616 0.241764 0.355188
0.000000 0.395337 0.295994
0.193129 0.421967 0.325056
0.420167 0.448597 0.354119
0.647206 0.475227 0.383182
0.874245 0.501856 0.412245
0.016719 0.655430 0.353050
0.243757 0.682059 0.382113
0.470796 0.708689 0.411176
0.697835 0.735319 0.440238
0.924874 0.761948 0.469301
0.067347 0.915522 0.410106
0.294386 0.942152 0.439169
0.521425 0.968781 0.468232
0.748464 0.995411 0.497295
0.975502 1.000000 0.526358
0.000000 0.000000 0.419762
0.101704 0.000000 0.448824
0.328742 0.000000 0.477887
0.555781 0.000000 0.506950
0.782820 0.000000 0.536013
0.000000 0.145398 0.476818
0.152332 0.172028 0.505881
0.379371 0.198658 0.534944
0.606410 0.225287 0.564006
0.833449 0.251917 0.593069
0.000000 0.405491 0.533874
0.202961 0.432120 0.562937
0.430000 0.458750 0.592000
0.657039 0.485380 0.621063
0.884077 0.512009 0.650126
0.026551 0.665583 0.590931
0.253590 0.692212 0.619994
0.480629 0.718842 0.649056
0.707668 0.745472 0.678119
0.934706 0.772102 0.707182
0.077180 0.925675 0.647987
0.304219 0.952305 0.677050
0.531257 0.978934 0.706113
0.758296 1.000000 0.735176
0.985335 1.000000 0.764238
0.000000 0.000000 0.657642
0.111536 0.000000 0.686705
0.338575 0.000000 0.715768
0.565614 0.000000 0.744831
0.792652 0.001978 0.773894
0.000000 0.155552 0.714699
0.162165 0.182181 0.743762
0.389204 0.208811 0.772824
0.616242 0.235441 0.801887
0.843281 0.262070 0.830950
0.000000 0.415644 0.771755
0.212794 0.442273 0.800818
0.439832 0.468903 0.829881
0.666871 0.495533 0.858944
0.893910 0.522163 0.888006
0.036384 0.675736 0.828812
0.263422 0.702366 0.857874
0.490461 0.728995 0.886937
0.717500 0.755625 0.916000
0.944539 0.782255 0.945063
0.087012 0.935828 0.885868
0.314051 0.962458 0.914931
0.541090 0.989087 0.943994
0.768129 1.000000 0.973056
0.995167 1.000000 1.000000
0.000000 0.000000 0.895523
0.121369 0.000000 0.924586
0.348407 0.000000 0.953649
0.575446 0.000000 0.982712
0.802485 0.012131 1.000000
0.000000 0.165705 0.952580
0.171997 0.192334 0.981642
0.399036 0.218964 1.000000
0.626075 0.245594 1.000000
0.853114 0.272223 1.000000
0.000000 0.425797 1.000000
0.222626 0.452427 1.000000
0.449665 0.479056 1.000000
0.676704 0.505686 1.000000
0.903743 0.532316 1.000000
0.046216 0.685889 1.000000
0.273255 0.712519 1.000000
0.500294 0.739148 1.000000
0.727332 0.765778 1.000000
0.954371 0.792408 1.000000
0.096845 0.945981 1.000000
0.323884 0.972611 1.000000
0.550922 0.999241 1.000000
0.777961 1.000000 1.000000
1.000000 1.000000 1.000000
