assets/luts/cold_chrome.cube
TITLE "Cold Chrome"
LUT_3D_SIZE 33
0.000000 0.000000 0.000000
0.000000 0.000000 0.000000
0.000000 0.000000 0.000000
0.000000 0.000000 0.000000
0.000000 0.000000 0.000000
0.000000 0.000000 0.000000
0.025279 0.000000 0.000000
0.053659 0.000000 0.000000
0.082039 0.000000 0.000000
0.110419 0.000000 0.000000
0.138798 0.000000 0.000000
0.167178 0.000000 0.000000
0.195558 0.000000 0.000000
0.223938 0.000000 0.000000
0.252318 0.000000 0.000000
0.280698 0.000000 0.000000
0.309077 0.000000 0.002126
0.337457 0.000000 0.005758
0.365837 0.000000 0.009391
0.394217 0.000000 0.013024
0.422597 0.000000 0.016657
0.450977 0.000000 0.020290
0.479357 0.000000 0.023923
0.507736 0.000000 0.027556
0.536116 0.000000 0.031188
0.564496 0.000000 0.034821
0.592876 0.000000 0.038454
0.621256 0.000000 0.042087
0.649636 0.000000 0.045720
0.678015 0.000000 0.049353
0.706395 0.000000 0.052986
0.734775 0.000000 0.056618
0.763155 0.000000 0.060251
0.000000 0.000000 0.000000
0.000000 0.000000 0.000000
0.000000 0.000000 0.000000
0.000000 0.000000 0.000000
0.000000 0.000000 0.000000
0.003228 0.000000 0.000000
0.031608 0.000000 0.000000
0.059987 0.000000 0.000000
0.088367 0.000000 0.000000
0.116747 0.000000 0.000000
0.145127 0.000000 0.000000
0.173507 0.000000 0.000000
0.201887 0.000000 0.000000
0.230267 0.000000 0.000000
0.258646 0.000000 0.001992
0.287026 0.000000 0.005625
0.315406 0.000000 0.009258
0.343786 0.000000 0.012891
0.372166 0.000000 0.016523
0.400546 0.000000 0.020156
0.428925 0.000000 0.023789
0.457305 0.000000 0.027422
0.485685 0.000000 0.031055
0.514065 0.000000 0.034688
0.542445 0.000000 0.038320
0.570825 0.000000 0.041953
0.599205 0.000000 0.045586
0.627584 0.000000 0.049219
0.655964 0.000000 0.052852
0.684344 0.000000 0.056485
0.712724 0.000000 0.060118
0.741104 0.000702 0.063750
0.769484 0.004030 0.067383
0.000000 0.000000 0.000000
0.000000 0.000000 0.000000
0.000000 0.000000 0.000000
0.000000 0.000000 0.000000
0.000000 0.000000 0.000000
0.009556 0.000000 0.000000
0.037936 0.000000 0.000000
0.066316 0.000000 0.000000
0.094696 0.000000 0.000000
0.123076 0.000000 0.000000
0.151456 0.000000 0.000000
0.179835 0.000000 0.000000
0.208215 0.000000 0.001858
0.236595 0.000000 0.005491
0.264975 0.000000 0.009124
0.293355 0.000000 0.012757
0.321735 0.000000 0.016390
0.350115 0.000000 0.020023
0.378494 0.000000 0.023655
0.406874 0.000000 0.027288
0.435254 0.000000 0.030921
0.463634 0.000000 0.034554
0.492014 0.003255 0.038187
0.520394 0.006583 0.041820
0.548773 0.009912 0.045453
0.577153 0.013241 0.049085
0.605533 0.016570 0.052718
0.633913 0.019898 0.056351
0.662293 0.023227 0.059984
0.690673 0.026556 0.063617
0.719052 0.029884 0.067250
0.747432 0.033213 0.070882
0.775812 0.036542 0.074515
0.000000 0.000000 0.000000
0.000000 0.000000 0.000000
0.000000 0.000000 0.000000
0.000000 0.000000 0.000000
0.000000 0.000000 0.000000
0.015885 0.000000 0.000000
0.044265 0.000000 0.000000
0.072645 0.000000 0.000000
0.101025 0.000000 0.000000
0.129404 0.000000 0.000000
0.157784 0.000000 0.001725
0.186164 0.000000 0.005358
0.214544 0.002479 0.008990
0.242924 0.005808 0.012623
0.271304 0.009137 0.016256
0.299683 0.012465 0.019889
0.328063 0.015794 0.023522
0.356443 0.019123 0.027155
0.384823 0.022451 0.030787
0.413203 0.025780 0.034420
0.441583 0.029109 0.038053
0.469962 0.032437 0.041686
0.498342 0.035766 0.045319
0.526722 0.039095 0.048952
0.555102 0.042424 0.052585
0.583482 0.045752 0.056217
0.611862 0.049081 0.059850
0.640242 0.052410 0.063483
0.668621 0.055738 0.067116
0.697001 0.059067 0.070749
0.725381 0.062396 0.074382
0.753761 0.065725 0.078014
0.782141 0.069053 0.081647
0.000000 0.000000 0.000000
0.000000 0.000000 0.000000
0.000000 0.001704 0.000000
0.000000 0.005032 0.000000
0.000000 0.008361 0.000000
0.022214 0.011690 0.000000
0.050593 0.015018 0.000000
0.078973 0.018347 0.000000
0.107353 0.021676 0.001591
0.135733 0.025004 0.005224
0.164113 0.028333 0.008857
0.192493 0.031662 0.012490
0.220872 0.034991 0.016122
0.249252 0.038319 0.019755
0.277632 0.041648 0.023388
0.306012 0.044977 0.027021
0.334392 0.048305 0.030654
0.362772 0.051634 0.034287
0.391152 0.054963 0.037920
0.419531 0.058292 0.041552
0.447911 0.061620 0.045185
0.476291 0.064949 0.048818
0.504671 0.068278 0.052451
0.533051 0.071606 0.056084
0.561431 0.074935 0.059717
0.589810 0.078264 0.063349
0.618190 0.081593 0.066982
0.646570 0.084921 0.070615
0.674950 0.088250 0.074248
0.703330 0.091579 0.077881
0.731710 0.094907 0.081514
0.760090 0.098236 0.085147
0.788469 0.101565 0.088779
0.000000 0.027558 0.000000
0.000000 0.030886 0.000000
0.000000 0.034215 0.000000
0.000000 0.037544 0.000000
0.000162 0.040872 0.000000
0.028542 0.044201 0.000000
0.056922 0.047530 0.001457
0.085302 0.050859 0.005090
0.113682 0.054187 0.008723
0.142062 0.057516 0.012356
0.170441 0.060845 0.015989
0.198821 0.064173 0.019622
0.227201 0.067502 0.023254
0.255581 0.070831 0.026887
0.283961 0.074160 0.030520
0.312341 0.077488 0.034153
0.340720 0.080817 0.037786
0.369100 0.084146 0.041419
0.397480 0.087474 0.045052
0.425860 0.090803 0.048684
0.454240 0.094132 0.052317
0.482620 0.097461 0.055950
0.511000 0.100789 0.059583
0.539379 0.104118 0.063216
0.567759 0.107447 0.066849
0.596139 0.110775 0.070482
0.624519 0.114104 0.074114
0.652899 0.117433 0.077747
0.681279 0.120762 0.081380
0.709658 0.124090 0.085013
0.738038 0.127419 0.088646
0.766418 0.130748 0.092279
0.794798 0.134076 0.095911
0.000000 0.060069 0.000000
0.000000 0.063398 0.000000
0.000000 0.066727 0.000000
0.000000 0.070055 0.000000
0.006491 0.073384 0.001324
0.034871 0.076713 0.004957
0.063251 0.080041 0.008589
0.091630 0.083370 0.012222
0.120010 0.086699 0.015855
0.148390 0.090028 0.019488
0.176770 0.093356 0.023121
0.205150 0.096685 0.026754
0.233530 0.100014 0.030387
0.261910 0.103342 0.034019
0.290289 0.106671 0.037652
0.318669 0.110000 0.041285
0.347049 0.113329 0.044918
0.375429 0.116657 0.048551
0.403809 0.119986 0.052184
0.432189 0.123315 0.055816
0.460568 0.126643 0.059449
0.488948 0.129972 0.063082
0.517328 0.133301 0.066715
0.545708 0.136629 0.070348
0.574088 0.139958 0.073981
0.602468 0.143287 0.077614
0.630847 0.146616 0.081246
0.659227 0.149944 0.084879
0.687607 0.153273 0.088512
0.715987 0.156602 0.092145
0.744367 0.159930 0.095778
0.772747 0.163259 0.099411
0.801127 0.166588 0.103044
0.000000 0.092581 0.000000
0.000000 0.095909 0.000000
0.000000 0.099238 0.001190
0.000000 0.102567 0.004823
0.012820 0.105896 0.008456
0.041199 0.109224 0.012089
0.069579 0.112553 0.015721
0.097959 0.115882 0.019354
0.126339 0.119210 0.022987
0.154719 0.122539 0.026620
0.183099 0.125868 0.030253
0.211478 0.129196 0.033886
0.239858 0.132525 0.037519
0.268238 0.135854 0.041151
0.296618 0.139183 0.044784
0.324998 0.142511 0.048417
0.353378 0.145840 0.052050
0.381757 0.149169 0.055683
0.410137 0.152497 0.059316
0.438517 0.155826 0.062949
0.466897 0.159155 0.066581
0.495277 0.162484 0.070214
0.523657 0.165812 0.073847
0.552037 0.169141 0.077480
0.580416 0.172470 0.081113
0.608796 0.175798 0.084746
0.637176 0.179127 0.088378
0.665556 0.182456 0.092011
0.693936 0.185785 0.095644
0.722316 0.189113 0.099277
0.750695 0.192442 0.102910
0.779075 0.195771 0.106543
0.807455 0.199099 0.110176
0.000000 0.125092 0.001056
0.000000 0.128421 0.004689
0.000000 0.131750 0.008322
0.000000 0.135078 0.011955
0.019148 0.138407 0.015588
0.047528 0.141736 0.019221
0.075908 0.145064 0.022854
0.104288 0.148393 0.026486
0.132667 0.151722 0.030119
0.161047 0.155051 0.033752
0.189427 0.158379 0.037385
0.217807 0.161708 0.041018
0.246187 0.165037 0.044651
0.274567 0.168365 0.048283
0.302947 0.171694 0.051916
0.331326 0.175023 0.055549
0.359706 0.178352 0.059182
0.388086 0.181680 0.062815
0.416466 0.185009 0.066448
0.444846 0.188338 0.070081
0.473226 0.191666 0.073713
0.501605 0.194995 0.077346
0.529985 0.198324 0.080979
0.558365 0.201653 0.084612
0.586745 0.204981 0.088245
0.615125 0.208310 0.091878
0.643505 0.211639 0.095510
0.671885 0.214967 0.099143
0.700264 0.218296 0.102776
0.728644 0.221625 0.106409
0.757024 0.224954 0.110042
0.785404 0.228282 0.113675
0.813784 0.231611 0.117308
0.000000 0.157604 0.008188
0.000000 0.160932 0.011821
0.000000 0.164261 0.015454
0.000000 0.167590 0.019087
0.025477 0.170919 0.022720
0.053857 0.174247 0.026353
0.082236 0.177576 0.029986
0.110616 0.180905 0.033618
0.138996 0.184233 0.037251
0.167376 0.187562 0.040884
0.195756 0.190891 0.044517
0.224136 0.194220 0.048150
0.252515 0.197548 0.051783
0.280895 0.200877 0.055416
0.309275 0.204206 0.059048
0.337655 0.207534 0.062681
0.366035 0.210863 0.066314
0.394415 0.214192 0.069947
0.422795 0.217521 0.073580
0.451174 0.220849 0.077213
0.479554 0.224178 0.080845
0.507934 0.227507 0.084478
0.536314 0.230835 0.088111
0.564694 0.234164 0.091744
0.593074 0.237493 0.095377
0.621453 0.240821 0.099010
0.649833 0.244150 0.102643
0.678213 0.247479 0.106275
0.706593 0.250808 0.109908
0.734973 0.254136 0.113541
0.763353 0.257465 0.117174
0.791732 0.260794 0.120807
0.820112 0.264122 0.124440
0.000000 0.190115 0.015320
0.000000 0.193444 0.018953
0.000000 0.196773 0.022586
0.003425 0.200101 0.026219
0.031805 0.203430 0.029852
0.060185 0.206759 0.033485
0.088565 0.210087 0.037118
0.116945 0.213416 0.040750
0.145325 0.216745 0.044383
0.173705 0.220074 0.048016
0.202084 0.223402 0.051649
0.230464 0.226731 0.055282
0.258844 0.230060 0.058915
0.287224 0.233388 0.062548
0.315604 0.236717 0.066180
0.343984 0.240046 0.069813
0.372363 0.243375 0.073446
0.400743 0.246703 0.077079
0.429123 0.250032 0.080712
0.457503 0.253361 0.084345
0.485883 0.256689 0.087977
0.514263 0.260018 0.091610
0.542642 0.263347 0.095243
0.571022 0.266676 0.098876
0.599402 0.270004 0.102509
0.627782 0.273333 0.106142
0.656162 0.276662 0.109775
0.684542 0.279990 0.113407
0.712922 0.283319 0.117040
0.741301 0.286648 0.120673
0.769681 0.289977 0.124306
0.798061 0.293305 0.127939
0.826441 0.296634 0.131572
0.000000 0.222627 0.022453
0.000000 0.225955 0.026085
0.000000 0.229284 0.029718
0.009754 0.232613 0.033351
0.038134 0.235942 0.036984
0.066514 0.239270 0.040617
0.094894 0.242599 0.044250
0.123273 0.245928 0.047883
0.151653 0.249256 0.051515
0.180033 0.252585 0.055148
0.208413 0.255914 0.058781
0.236793 0.259243 0.062414
0.265173 0.262571 0.066047
0.293552 0.265900 0.069680
0.321932 0.269229 0.073312
0.350312 0.272557 0.076945
0.378692 0.275886 0.080578
0.407072 0.279215 0.084211
0.435452 0.282544 0.087844
0.463832 0.285872 0.091477
0.492211 0.289201 0.095110
0.520591 0.292530 0.098742
0.548971 0.295858 0.102375
0.577351 0.299187 0.106008
0.605731 0.302516 0.109641
0.634111 0.305845 0.113274
0.662490 0.309173 0.116907
0.690870 0.312502 0.120539
0.719250 0.315831 0.124172
0.747630 0.319159 0.127805
0.776010 0.322488 0.131438
0.804390 0.325817 0.135071
0.832770 0.329146 0.138704
0.000000 0.255138 0.029585
0.000000 0.258467 0.033217
0.000000 0.261796 0.036850
0.016083 0.265124 0.040483
0.044462 0.268453 0.044116
0.072842 0.271782 0.047749
0.101222 0.275111 0.051382
0.129602 0.278439 0.055015
0.157982 0.281768 0.058647
0.186362 0.285097 0.062280
0.214742 0.288425 0.065913
0.243121 0.291754 0.069546
0.271501 0.295083 0.073179
0.299881 0.298412 0.076812
0.328261 0.301740 0.080445
0.356641 0.305069 0.084077
0.385021 0.308398 0.087710
0.413400 0.311726 0.091343
0.441780 0.315055 0.094976
0.470160 0.318384 0.098609
0.498540 0.321712 0.102242
0.526920 0.325041 0.105874
0.555300 0.328370 0.109507
0.583680 0.331699 0.113140
0.612059 0.335027 0.116773
0.640439 0.338356 0.120406
0.668819 0.341685 0.124039
0.697199 0.345013 0.127672
0.725579 0.348342 0.131304
0.753959 0.351671 0.134937
0.782338 0.355000 0.138570
0.810718 0.358328 0.142203
0.839098 0.361657 0.145836
0.000000 0.287650 0.036717
0.000000 0.290979 0.040350
0.000000 0.294307 0.043982
0.022411 0.297636 0.047615
0.050791 0.300965 0.051248
0.079171 0.304293 0.054881
0.107551 0.307622 0.058514
0.135931 0.310951 0.062147
0.164310 0.314279 0.065779
0.192690 0.317608 0.069412
0.221070 0.320937 0.073045
0.249450 0.324266 0.076678
0.277830 0.327594 0.080311
0.306210 0.330923 0.083944
0.334590 0.334252 0.087577
0.362969 0.337580 0.091209
0.391349 0.340909 0.094842
0.419729 0.344238 0.098475
0.448109 0.347567 0.102108
0.476489 0.350895 0.105741
0.504869 0.354224 0.109374
0.533248 0.357553 0.113007
0.561628 0.360881 0.116639
0.590008 0.364210 0.120272
0.618388 0.367539 0.123905
0.646768 0.370868 0.127538
0.675148 0.374196 0.131171
0.703527 0.377525 0.134804
0.731907 0.380854 0.138436
0.760287 0.384182 0.142069
0.788667 0.387511 0.145702
0.817047 0.390840 0.149335
0.845427 0.394169 0.152968
0.000000 0.320161 0.043849
0.000000 0.323490 0.047482
0.000360 0.326819 0.051114
0.028740 0.330147 0.054747
0.057120 0.333476 0.058380
0.085500 0.336805 0.062013
0.113879 0.340134 0.065646
0.142259 0.343462 0.069279
0.170639 0.346791 0.072911
0.199019 0.350120 0.076544
0.227399 0.353448 0.080177
0.255779 0.356777 0.083810
0.284158 0.360106 0.087443
0.312538 0.363435 0.091076
0.340918 0.366763 0.094709
0.369298 0.370092 0.098341
0.397678 0.373421 0.101974
0.426058 0.376749 0.105607
0.454438 0.380078 0.109240
0.482817 0.383407 0.112873
0.511197 0.386736 0.116506
0.539577 0.390064 0.120139
0.567957 0.393393 0.123771
0.596337 0.396722 0.127404
0.624717 0.400050 0.131037
0.653096 0.403379 0.134670
0.681476 0.406708 0.138303
0.709856 0.410037 0.141936
0.738236 0.413365 0.145569
0.766616 0.416694 0.149201
0.794996 0.420023 0.152834
0.823375 0.423351 0.156467
0.851755 0.426680 0.160100
0.000000 0.352673 0.050981
0.000000 0.356002 0.054614
0.006689 0.359330 0.058246
0.035068 0.362659 0.061879
0.063448 0.365988 0.065512
0.091828 0.369316 0.069145
0.120208 0.372645 0.072778
0.148588 0.375974 0.076411
0.176968 0.379303 0.080044
0.205347 0.382631 0.083676
0.233727 0.385960 0.087309
0.262107 0.389289 0.090942
0.290487 0.392617 0.094575
0.318867 0.395946 0.098208
0.347247 0.399275 0.101841
0.375627 0.402604 0.105473
0.404006 0.405932 0.109106
0.432386 0.409261 0.112739
0.460766 0.412590 0.116372
0.489146 0.415918 0.120005
0.517526 0.419247 0.123638
0.545906 0.422576 0.127271
0.574285 0.425904 0.130903
0.602665 0.429233 0.134536
0.631045 0.432562 0.138169
0.659425 0.435891 0.141802
0.687805 0.439219 0.145435
0.716185 0.442548 0.149068
0.744565 0.445877 0.152701
0.772944 0.449205 0.156333
0.801324 0.452534 0.159966
0.829704 0.455863 0.163599
0.858084 0.459192 0.167232
0.000000 0.385184 0.058113
0.000000 0.388513 0.061746
0.013017 0.391842 0.065379
0.041397 0.395171 0.069011
0.069777 0.398499 0.072644
0.098157 0.401828 0.076277
0.126537 0.405157 0.079910
0.154916 0.408485 0.083543
0.183296 0.411814 0.087176
0.211676 0.415143 0.090808
0.240056 0.418471 0.094441
0.268436 0.421800 0.098074
0.296816 0.425129 0.101707
0.325195 0.428458 0.105340
0.353575 0.431786 0.108973
0.381955 0.435115 0.112606
0.410335 0.438444 0.116238
0.438715 0.441772 0.119871
0.467095 0.445101 0.123504
0.495475 0.448430 0.127137
0.523854 0.451759 0.130770
0.552234 0.455087 0.134403
0.580614 0.458416 0.138036
0.608994 0.461745 0.141668
0.637374 0.465073 0.145301
0.665754 0.468402 0.148934
0.694133 0.471731 0.152567
0.722513 0.475060 0.156200
0.750893 0.478388 0.159833
0.779273 0.481717 0.163465
0.807653 0.485046 0.167098
0.836033 0.488374 0.170731
0.864412 0.491703 0.174364
0.000000 0.417696 0.065245
0.000000 0.421025 0.068878
0.019346 0.424353 0.072511
0.047726 0.427682 0.076143
0.076105 0.431011 0.079776
0.104485 0.434339 0.083409
0.132865 0.437668 0.087042
0.161245 0.440997 0.090675
0.189625 0.444326 0.094308
0.218005 0.447654 0.097940
0.246385 0.450983 0.101573
0.274764 0.454312 0.105206
0.303144 0.457640 0.108839
0.331524 0.460969 0.112472
0.359904 0.464298 0.116105
0.388284 0.467627 0.119738
0.416664 0.470955 0.123370
0.445043 0.474284 0.127003
0.473423 0.477613 0.130636
0.501803 0.480941 0.134269
0.530183 0.484270 0.137902
0.558563 0.487599 0.141535
0.586943 0.490928 0.145168
0.615322 0.494256 0.148800
0.643702 0.497585 0.152433
0.672082 0.500914 0.156066
0.700462 0.504242 0.159699
0.728842 0.507571 0.163332
0.757222 0.510900 0.166965
0.785602 0.514229 0.170598
0.813981 0.517557 0.174230
0.842361 0.520886 0.177863
0.870741 0.524215 0.181496
0.000000 0.450207 0.072377
0.000000 0.453536 0.076010
0.025674 0.456865 0.079643
0.054054 0.460194 0.083275
0.082434 0.463522 0.086908
0.110814 0.466851 0.090541
0.139194 0.470180 0.094174
0.167574 0.473508 0.097807
0.195953 0.476837 0.101440
0.224333 0.480166 0.105073
0.252713 0.483495 0.108705
0.281093 0.486823 0.112338
0.309473 0.490152 0.115971
0.337853 0.493481 0.119604
0.366232 0.496809 0.123237
0.394612 0.500138 0.126870
0.422992 0.503467 0.130502
0.451372 0.506796 0.134135
0.479752 0.510124 0.137768
0.508132 0.513453 0.141401
0.536512 0.516782 0.145034
0.564891 0.520110 0.148667
0.593271 0.523439 0.152300
0.621651 0.526768 0.155932
0.650031 0.530096 0.159565
0.678411 0.533425 0.163198
0.706791 0.536754 0.166831
0.735170 0.540083 0.170464
0.763550 0.543411 0.174097
0.791930 0.546740 0.177730
0.820310 0.550069 0.181362
0.848690 0.553397 0.184995
0.877070 0.556726 0.188628
0.000000 0.482719 0.079509
0.003623 0.486048 0.083142
0.032003 0.489376 0.086775
0.060383 0.492705 0.090408
0.088763 0.496034 0.094040
0.117142 0.499362 0.097673
0.145522 0.502691 0.101306
0.173902 0.506020 0.104939
0.202282 0.509349 0.108572
0.230662 0.512677 0.112205
0.259042 0.516006 0.115837
0.287422 0.519335 0.119470
0.315801 0.522663 0.123103
0.344181 0.525992 0.126736
0.372561 0.529321 0.130369
0.400941 0.532650 0.134002
0.429321 0.535978 0.137635
0.457701 0.539307 0.141267
0.486080 0.542636 0.144900
0.514460 0.545964 0.148533
0.542840 0.549293 0.152166
0.571220 0.552622 0.155799
0.599600 0.555951 0.159432
0.627980 0.559279 0.163065
0.656360 0.562608 0.166697
0.684739 0.565937 0.170330
0.713119 0.569265 0.173963
0.741499 0.572594 0.177596
0.769879 0.575923 0.181229
0.798259 0.579252 0.184862
0.826639 0.582580 0.188494
0.855018 0.585909 0.192127
0.883398 0.589238 0.195760
0.000000 0.515230 0.086641
0.009952 0.518559 0.090274
0.038332 0.521888 0.093907
0.066711 0.525217 0.097540
0.095091 0.528545 0.101172
0.123471 0.531874 0.104805
0.151851 0.535203 0.108438
0.180231 0.538531 0.112071
0.208611 0.541860 0.115704
0.236990 0.545189 0.119337
0.265370 0.548518 0.122970
0.293750 0.551846 0.126602
0.322130 0.555175 0.130235
0.350510 0.558504 0.133868
0.378890 0.561832 0.137501
0.407270 0.565161 0.141134
0.435649 0.568490 0.144767
0.464029 0.571819 0.148399
0.492409 0.575147 0.152032
0.520789 0.578476 0.155665
0.549169 0.581805 0.159298
0.577549 0.585133 0.162931
0.605928 0.588462 0.166564
0.634308 0.591791 0.170197
0.662688 0.595120 0.173829
0.691068 0.598448 0.177462
0.719448 0.601777 0.181095
0.747828 0.605106 0.184728
0.776207 0.608434 0.188361
0.804587 0.611763 0.191994
0.832967 0.615092 0.195627
0.861347 0.618421 0.199259
0.889727 0.621749 0.202892
0.000000 0.547742 0.093773
0.016280 0.551071 0.097406
0.044660 0.554399 0.101039
0.073040 0.557728 0.104672
0.101420 0.561057 0.108304
0.129800 0.564386 0.111937
0.158180 0.567714 0.115570
0.186559 0.571043 0.119203
0.214939 0.574372 0.122836
0.243319 0.577700 0.126469
0.271699 0.581029 0.130102
0.300079 0.584358 0.133734
0.328459 0.587687 0.137367
0.356838 0.591015 0.141000
0.385218 0.594344 0.144633
0.413598 0.597673 0.148266
0.441978 0.601001 0.151899
0.470358 0.604330 0.155531
0.498738 0.607659 0.159164
0.527117 0.610987 0.162797
0.555497 0.614316 0.166430
0.583877 0.617645 0.170063
0.612257 0.620974 0.173696
0.640637 0.624302 0.177329
0.669017 0.627631 0.180961
0.697397 0.630960 0.184594
0.725776 0.634288 0.188227
0.754156 0.637617 0.191860
0.782536 0.640946 0.195493
0.810916 0.644275 0.199126
0.839296 0.647603 0.202759
0.867676 0.650932 0.206391
0.896055 0.654261 0.210024
0.000000 0.580254 0.100905
0.022609 0.583582 0.104538
0.050989 0.586911 0.108171
0.079369 0.590240 0.111804
0.107748 0.593568 0.115436
0.136128 0.596897 0.119069
0.164508 0.600226 0.122702
0.192888 0.603554 0.126335
0.221268 0.606883 0.129968
0.249648 0.610212 0.133601
0.278027 0.613541 0.137234
0.306407 0.616869 0.140866
0.334787 0.620198 0.144499
0.363167 0.623527 0.148132
0.391547 0.626855 0.151765
0.419927 0.630184 0.155398
0.448307 0.633513 0.159031
0.476686 0.636842 0.162664
0.505066 0.640170 0.166296
0.533446 0.643499 0.169929
0.561826 0.646828 0.173562
0.590206 0.650156 0.177195
0.618586 0.653485 0.180828
0.646965 0.656814 0.184461
0.675345 0.660143 0.188094
0.703725 0.663471 0.191726
0.732105 0.666800 0.195359
0.760485 0.670129 0.198992
0.788865 0.673457 0.202625
0.817245 0.676786 0.206258
0.845624 0.680115 0.209891
0.874004 0.683444 0.213523
0.902384 0.686772 0.217156
0.000558 0.612765 0.108037
0.028937 0.616094 0.111670
0.057317 0.619422 0.115303
0.085697 0.622751 0.118936
0.114077 0.626080 0.122569
0.142457 0.629409 0.126201
0.170837 0.632737 0.129834
0.199217 0.636066 0.133467
0.227596 0.639395 0.137100
0.255976 0.642723 0.140733
0.284356 0.646052 0.144366
0.312736 0.649381 0.147999
0.341116 0.652710 0.151631
0.369496 0.656038 0.155264
0.397875 0.659367 0.158897
0.426255 0.662696 0.162530
0.454635 0.666024 0.166163
0.483015 0.669353 0.169796
0.511395 0.672682 0.173428
0.539775 0.676011 0.177061
0.568155 0.679339 0.180694
0.596534 0.682668 0.184327
0.624914 0.685997 0.187960
0.653294 0.689325 0.191593
0.681674 0.692654 0.195226
0.710054 0.695983 0.198858
0.738434 0.699312 0.202491
0.766813 0.702640 0.206124
0.795193 0.705969 0.209757
0.823573 0.709298 0.213390
0.851953 0.712626 0.217023
0.880333 0.715955 0.220656
0.908713 0.719284 0.224288
0.006886 0.645277 0.115169
0.035266 0.648605 0.118802
0.063646 0.651934 0.122435
0.092026 0.655263 0.126068
0.120406 0.658591 0.129701
0.148785 0.661920 0.133333
0.177165 0.665249 0.136966
0.205545 0.668578 0.140599
0.233925 0.671906 0.144232
0.262305 0.675235 0.147865
0.290685 0.678564 0.151498
0.319065 0.681892 0.155131
0.347444 0.685221 0.158763
0.375824 0.688550 0.162396
0.404204 0.691879 0.166029
0.432584 0.695207 0.169662
0.460964 0.698536 0.173295
0.489344 0.701865 0.176928
0.517723 0.705193 0.180561
0.546103 0.708522 0.184193
0.574483 0.711851 0.187826
0.602863 0.715179 0.191459
0.631243 0.718508 0.195092
0.659623 0.721837 0.198725
0.688002 0.725166 0.202358
0.716382 0.728494 0.205990
0.744762 0.731823 0.209623
0.773142 0.735152 0.213256
0.801522 0.738480 0.216889
0.829902 0.741809 0.220522
0.858282 0.745138 0.224155
0.886661 0.748467 0.227788
0.915041 0.751795 0.231420
0.013215 0.677788 0.122301
0.041595 0.681117 0.125934
0.069975 0.684446 0.129567
0.098354 0.687774 0.133200
0.126734 0.691103 0.136833
0.155114 0.694432 0.140465
0.183494 0.697760 0.144098
0.211874 0.701089 0.147731
0.240254 0.704418 0.151364
0.268633 0.707746 0.154997
0.297013 0.711075 0.158630
0.325393 0.714404 0.162263
0.353773 0.717733 0.165895
0.382153 0.721061 0.169528
0.410533 0.724390 0.173161
0.438912 0.727719 0.176794
0.467292 0.731047 0.180427
0.495672 0.734376 0.184060
0.524052 0.737705 0.187693
0.552432 0.741034 0.191325
0.580812 0.744362 0.194958
0.609192 0.747691 0.198591
0.637571 0.751020 0.202224
0.665951 0.754348 0.205857
0.694331 0.757677 0.209490
0.722711 0.761006 0.213122
0.751091 0.764335 0.216755
0.779471 0.767663 0.220388
0.807850 0.770992 0.224021
0.836230 0.774321 0.227654
0.864610 0.777649 0.231287
0.892990 0.780978 0.234920
0.921370 0.784307 0.238552
0.019543 0.710300 0.129433
0.047923 0.713628 0.133066
0.076303 0.716957 0.136699
0.104683 0.720286 0.140332
0.133063 0.723614 0.143965
0.161443 0.726943 0.147598
0.189822 0.730272 0.151230
0.218202 0.733601 0.154863
0.246582 0.736929 0.158496
0.274962 0.740258 0.162129
0.303342 0.743587 0.165762
0.331722 0.746915 0.169395
0.360102 0.750244 0.173028
0.388481 0.753573 0.176660
0.416861 0.756902 0.180293
0.445241 0.760230 0.183926
0.473621 0.763559 0.187559
0.502001 0.766888 0.191192
0.530381 0.770216 0.194825
0.558760 0.773545 0.198457
0.587140 0.776874 0.202090
0.615520 0.780203 0.205723
0.643900 0.783531 0.209356
0.672280 0.786860 0.212989
0.700660 0.790189 0.216622
0.729040 0.793517 0.220255
0.757419 0.796846 0.223887
0.785799 0.800175 0.227520
0.814179 0.803504 0.231153
