assets/luts/cold_chrome.cube
TITLE "Cold Chrome"
LUT_3D_SIZE 9
0.000000 0.000000 0.000000
0.000000 0.000000 0.000000
0.082039 0.000000 0.000000
0.195558 0.000000 0.000000
0.309077 0.000000 0.002126
0.422597 0.000000 0.016657
0.536116 0.000000 0.031188
0.649636 0.000000 0.045720
0.763155 0.000000 0.060251
0.000000 0.000000 0.000000
0.000000 0.008361 0.000000
0.107353 0.021676 0.001591
0.220872 0.034991 0.016122
0.334392 0.048305 0.030654
0.447911 0.061620 0.045185
0.561431 0.074935 0.059717
0.674950 0.088250 0.074248
0.788469 0.101565 0.088779
0.000000 0.125092 0.001056
0.019148 0.138407 0.015588
0.132667 0.151722 0.030119
0.246187 0.165037 0.044651
0.359706 0.178352 0.059182
0.473226 0.191666 0.073713
0.586745 0.204981 0.088245
0.700264 0.218296 0.102776
0.813784 0.231611 0.117308
0.000000 0.255138 0.029585
0.044462 0.268453 0.044116
0.157982 0.281768 0.058647
0.271501 0.295083 0.073179
0.385021 0.308398 0.087710
0.498540 0.321712 0.102242
0.612059 0.335027 0.116773
0.725579 0.348342 0.131304
0.839098 0.361657 0.145836
0.000000 0.385184 0.058113
0.069777 0.398499 0.072644
0.183296 0.411814 0.087176
0.296816 0.425129 0.101707
0.410335 0.438444 0.116238
0.523854 0.451759 0.130770
0.637374 0.465073 0.145301
0.750893 0.478388 0.159833
0.864412 0.491703 0.174364
0.000000 0.515230 0.086641
0.095091 0.528545 0.101172
0.208611 0.541860 0.115704
0.322130 0.555175 0.130235
0.435649 0.568490 0.144767
0.549169 0.581805 0.159298
0.662688 0.595120 0.173829
0.776207 0.608434 0.188361
0.889727 0.621749 0.202892
0.006886 0.645277 0.115169
0.120406 0.658591 0.129701
0.233925 0.671906 0.144232
0.347444 0.685221 0.158763
0.460964 0.698536 0.173295
0.574483 0.711851 0.187826
0.688002 0.725166 0.202358
0.801522 0.738480 0.216889
0.915041 0.751795 0.231420
0.032201 0.775323 0.143697
0.145720 0.788637 0.158229
0.259239 0.801952 0.172760
0.372759 0.815267 0.187292
0.486278 0.828582 0.201823
0.599798 0.841897 0.216354
0.713317 0.855212 0.230886
0.826836 0.868527 0.245417
0.940356 0.881841 0.259949
0.057515 0.905369 0.172226
0.171034 0.918684 0.186757
0.284554 0.931998 0.201288
0.398073 0.945313 0.215820
0.511593 0.958628 0.230351
0.625112 0.971943 0.244883
0.738631 0.985258 0.259414
0.852151 0.998573 0.273945
0.965670 1.000000 0.288477
0.000000 0.000000 0.062940
0.000000 0.000000 0.077472
0.086955 0.000000 0.092003
0.200474 0.000000 0.106535
0.313994 0.000000 0.121066
0.427513 0.000000 0.135597
0.541032 0.000000 0.150129
0.654552 0.000000 0.164660
0.768071 0.000000 0.179192
0.000000 0.000123 0.091469
0.000000 0.013437 0.106000
0.112269 0.026752 0.120531
0.225789 0.040067 0.135063
0.339308 0.053382 0.149594
0.452828 0.066697 0.164126
0.566347 0.080012 0.178657
0.679866 0.093327 0.193188
0.793386 0.106641 0.207720
0.000000 0.130169 0.119997
0.024064 0.143484 0.134528
0.137584 0.156798 0.149060
0.251103 0.170113 0.163591
0.364622 0.183428 0.178122
0.478142 0.196743 0.192654
0.591661 0.210058 0.207185
0.705181 0.223373 0.221717
0.818700 0.236687 0.236248
0.000000 0.260215 0.148525
0.049379 0.273530 0.163056
0.162898 0.286845 0.177588
0.276417 0.300159 0.192119
0.389937 0.313474 0.206651
0.503456 0.326789 0.221182
0.616976 0.340104 0.235713
0.730495 0.353419 0.250245
0.844014 0.366734 0.264776
0.000000 0.390261 0.177053
0.074693 0.403576 0.191585
0.188212 0.416891 0.206116
0.301732 0.430205 0.220647
0.415251 0.443520 0.235179
0.528771 0.456835 0.249710
0.642290 0.470150 0.264242
0.755809 0.483465 0.278773
0.869329 0.496780 0.293304
0.000000 0.520307 0.205581
0.100008 0.533622 0.220113
0.213527 0.546937 0.234644
0.327046 0.560252 0.249176
0.440566 0.573566 0.263707
0.554085 0.586881 0.278238
0.667604 0.600196 0.292770
0.781124 0.613511 0.307301
0.894643 0.626826 0.321833
0.011802 0.650353 0.234110
0.125322 0.663668 0.248641
0.238841 0.676983 0.263172
0.352361 0.690298 0.277704
0.465880 0.703612 0.292235
0.579399 0.716927 0.306767
0.692919 0.730242 0.321298
0.806438 0.743557 0.335829
0.919957 0.756872 0.350361
0.037117 0.780399 0.262638
0.150636 0.793714 0.277169
0.264156 0.807029 0.291701
0.377675 0.820344 0.306232
0.491194 0.833659 0.320763
0.604714 0.846973 0.335295
0.718233 0.860288 0.349826
0.831752 0.873603 0.364358
0.945272 0.886918 0.378889
0.062431 0.910445 0.291166
0.175951 0.923760 0.305697
0.289470 0.937075 0.320229
0.402989 0.950390 0.334760
0.516509 0.963705 0.349292
0.630028 0.977020 0.363823
0.743547 0.990334 0.378354
0.857067 1.000000 0.392886
0.970586 1.000000 0.407417
0.000000 0.000000 0.181881
0.000000 0.000000 0.196412
0.091871 0.000000 0.210944
0.205391 0.000000 0.225475
0.318910 0.000000 0.240006
0.432429 0.000000 0.254538
0.545949 0.000000 0.269069
0.659468 0.000000 0.283601
0.772987 0.000000 0.298132
0.000000 0.005199 0.210409
0.003666 0.018514 0.224940
0.117186 0.031829 0.239472
0.230705 0.045144 0.254003
0.344224 0.058459 0.268535
0.457744 0.071773 0.283066
0.571263 0.085088 0.297597
0.684782 0.098403 0.312129
0.798302 0.111718 0.326660
0.000000 0.135245 0.238937
0.028981 0.148560 0.253469
0.142500 0.161875 0.268000
0.256019 0.175190 0.282531
0.369539 0.188505 0.297063
0.483058 0.201820 0.311594
0.596577 0.215134 0.326126
0.710097 0.228449 0.340657
0.823616 0.241764 0.355188
0.000000 0.265291 0.267465
0.054295 0.278606 0.281997
0.167814 0.291921 0.296528
0.281334 0.305236 0.311060
0.394853 0.318551 0.325591
0.508373 0.331866 0.340122
0.621892 0.345180 0.354654
0.735411 0.358495 0.369185
0.848931 0.371810 0.383717
0.000000 0.395337 0.295994
0.079609 0.408652 0.310525
0.193129 0.421967 0.325056
0.306648 0.435282 0.339588
0.420167 0.448597 0.354119
0.533687 0.461912 0.368651
0.647206 0.475227 0.383182
0.760726 0.488541 0.397713
0.874245 0.501856 0.412245
0.000000 0.525384 0.324522
0.104924 0.538698 0.339053
0.218443 0.552013 0.353585
0.331962 0.565328 0.368116
0.445482 0.578643 0.382647
0.559001 0.591958 0.397179
0.672521 0.605273 0.411710
0.786040 0.618587 0.426242
0.899559 0.631902 0.440773
0.016719 0.655430 0.353050
0.130238 0.668745 0.367581
0.243757 0.682059 0.382113
0.357277 0.695374 0.396644
0.470796 0.708689 0.411176
0.584316 0.722004 0.425707
0.697835 0.735319 0.440238
0.811354 0.748634 0.454770
0.924874 0.761948 0.469301
0.042033 0.785476 0.381578
0.155552 0.798791 0.396110
0.269072 0.812105 0.410641
0.382591 0.825420 0.425172
0.496111 0.838735 0.439704
0.609630 0.852050 0.454235
0.723149 0.865365 0.468767
0.836669 0.878680 0.483298
0.950188 0.891995 0.497829
0.067347 0.915522 0.410106
0.180867 0.928837 0.424638
0.294386 0.942152 0.439169
0.407906 0.955466 0.453701
0.521425 0.968781 0.468232
0.634944 0.982096 0.482763
0.748464 0.995411 0.497295
0.861983 1.000000 0.511826
0.975502 1.000000 0.526358
0.000000 0.000000 0.300821
0.000000 0.000000 0.315353
0.096787 0.000000 0.329884
0.210307 0.000000 0.344415
0.323826 0.000000 0.358947
0.437346 0.000000 0.373478
0.550865 0.000000 0.388010
0.664384 0.000000 0.402541
0.777904 0.000000 0.417072
0.000000 0.010276 0.329349
0.008583 0.023591 0.343881
0.122102 0.036905 0.358412
0.235621 0.050220 0.372944
0.349141 0.063535 0.387475
0.462660 0.076850 0.402006
0.576179 0.090165 0.416538
0.689699 0.103480 0.431069
0.803218 0.116795 0.445601
0.000000 0.140322 0.357878
0.033897 0.153637 0.372409
0.147416 0.166952 0.386940
0.260936 0.180266 0.401472
0.374455 0.193581 0.416003
0.487974 0.206896 0.430535
0.601494 0.220211 0.445066
0.715013 0.233526 0.459597
0.828532 0.246841 0.474129
0.000000 0.270368 0.386406
0.059211 0.283683 0.400937
0.172731 0.296998 0.415469
0.286250 0.310312 0.430000
0.399769 0.323627 0.444531
0.513289 0.336942 0.459063
0.626808 0.350257 0.473594
0.740327 0.363572 0.488126
0.853847 0.376887 0.502657
0.000000 0.400414 0.414934
0.084526 0.413729 0.429465
0.198045 0.427044 0.443997
0.311564 0.440359 0.458528
0.425084 0.453673 0.473060
0.538603 0.466988 0.487591
0.652122 0.480303 0.502122
0.765642 0.493618 0.516654
0.879161 0.506933 0.531185
0.000000 0.530460 0.443462
0.109840 0.543775 0.457994
0.223359 0.557090 0.472525
0.336879 0.570405 0.487056
0.450398 0.583720 0.501588
0.563918 0.597034 0.516119
0.677437 0.610349 0.530651
0.790956 0.623664 0.545182
0.904476 0.636979 0.559713
0.021635 0.660506 0.471990
0.135154 0.673821 0.486522
0.248674 0.687136 0.501053
0.362193 0.700451 0.515585
0.475712 0.713766 0.530116
0.589232 0.727080 0.544647
0.702751 0.740395 0.559179
0.816271 0.753710 0.573710
0.929790 0.767025 0.588242
0.046949 0.790552 0.500519
0.160469 0.803867 0.515050
0.273988 0.817182 0.529581
0.387508 0.830497 0.544113
0.501027 0.843812 0.558644
0.614546 0.857127 0.573176
0.728066 0.870441 0.587707
0.841585 0.883756 0.602238
0.955104 0.897071 0.616770
0.072264 0.920598 0.529047
0.185783 0.933913 0.543578
0.299302 0.947228 0.558110
0.412822 0.960543 0.572641
0.526341 0.973858 0.587172
0.639861 0.987173 0.601704
0.753380 1.000000 0.616235
0.866899 1.000000 0.630767
0.980419 1.000000 0.645298
0.000000 0.000000 0.419762
0.000000 0.000000 0.434293
0.101704 0.000000 0.448824
0.215223 0.000000 0.463356
0.328742 0.000000 0.477887
0.442262 0.000000 0.492419
0.555781 0.000000 0.506950
0.669301 0.000000 0.521481
0.782820 0.000000 0.536013
0.000000 0.015352 0.448290
0.013499 0.028667 0.462821
0.127018 0.041982 0.477353
0.240537 0.055297 0.491884
0.354057 0.068612 0.506415
0.467576 0.081927 0.520947
0.581096 0.095241 0.535478
0.694615 0.108556 0.550010
0.808134 0.121871 0.564541
0.000000 0.145398 0.476818
0.038813 0.158713 0.491349
0.152332 0.172028 0.505881
0.265852 0.185343 0.520412
0.379371 0.198658 0.534944
0.492891 0.211973 0.549475
0.606410 0.225287 0.564006
0.719929 0.238602 0.578538
0.833449 0.251917 0.593069
0.000000 0.275445 0.505346
0.064128 0.288759 0.519878
0.177647 0.302074 0.534409
0.291166 0.315389 0.548940
0.404686 0.328704 0.563472
0.518205 0.342019 0.578003
0.631724 0.355334 0.592535
0.745244 0.368648 0.607066
0.858763 0.381963 0.621597
0.000000 0.405491 0.533874
0.089442 0.418805 0.548406
0.202961 0.432120 0.562937
0.316481 0.445435 0.577469
0.430000 0.458750 0.592000
0.543519 0.472065 0.606531
0.657039 0.485380 0.621063
0.770558 0.498695 0.635594
0.884077 0.512009 0.650126
0.001237 0.535537 0.562403
0.114756 0.548852 0.576934
0.228276 0.562166 0.591465
0.341795 0.575481 0.605997
0.455314 0.588796 0.620528
0.568834 0.602111 0.635060
0.682353 0.615426 0.649591
0.795872 0.628741 0.664122
0.909392 0.642055 0.678654
0.026551 0.665583 0.590931
0.140071 0.678898 0.605462
0.253590 0.692212 0.619994
0.367109 0.705527 0.634525
0.480629 0.718842 0.649056
0.594148 0.732157 0.663588
0.707668 0.745472 0.678119
0.821187 0.758787 0.692651
0.934706 0.772102 0.707182
0.051866 0.795629 0.619459
0.165385 0.808944 0.633990
0.278904 0.822259 0.648522
0.392424 0.835573 0.663053
0.505943 0.848888 0.677585
0.619462 0.862203 0.692116
0.732982 0.875518 0.706647
0.846501 0.888833 0.721179
0.960021 0.902148 0.735710
0.077180 0.925675 0.647987
0.190699 0.938990 0.662519
0.304219 0.952305 0.677050
0.417738 0.965620 0.691581
0.531257 0.978934 0.706113
0.644777 0.992249 0.720644
0.758296 1.000000 0.735176
0.871816 1.000000 0.749707
0.985335 1.000000 0.764238
0.000000 0.000000 0.538702
0.000000 0.000000 0.553233
0.106620 0.000000 0.567765
0.220139 0.000000 0.582296
0.333659 0.000000 0.596828
0.447178 0.000000 0.611359
0.560697 0.000000 0.625890
0.674217 0.000000 0.640422
0.787736 0.000000 0.654953
0.000000 0.020429 0.567230
0.018415 0.033744 0.581762
0.131934 0.047059 0.596293
0.245454 0.060373 0.610824
0.358973 0.073688 0.625356
0.472493 0.087003 0.639887
0.586012 0.100318 0.654419
0.699531 0.113633 0.668950
0.813051 0.126948 0.683481
0.000000 0.150475 0.595758
0.043729 0.163790 0.610290
0.157249 0.177105 0.624821
0.270768 0.190420 0.639353
0.384288 0.203734 0.653884
0.497807 0.217049 0.668415
0.611326 0.230364 0.682947
0.724846 0.243679 0.697478
0.838365 0.256994 0.712010
0.000000 0.280521 0.624287
0.069044 0.293836 0.638818
0.182563 0.307151 0.653349
0.296082 0.320466 0.667881
0.409602 0.333780 0.682412
0.523121 0.347095 0.696944
0.636641 0.360410 0.711475
0.750160 0.373725 0.726006
0.863679 0.387040 0.740538
0.000000 0.410567 0.652815
0.094358 0.423882 0.667346
0.207877 0.437197 0.681878
0.321397 0.450512 0.696409
0.434916 0.463827 0.710940
0.548436 0.477141 0.725472
0.661955 0.490456 0.740003
0.775474 0.503771 0.754535
0.888994 0.517086 0.769066
0.006153 0.540613 0.681343
0.119672 0.553928 0.695874
0.233192 0.567243 0.710406
0.346711 0.580558 0.724937
0.460231 0.593873 0.739469
0.573750 0.607187 0.754000
0.687269 0.620502 0.768531
0.800789 0.633817 0.783063
0.914308 0.647132 0.797594
0.031467 0.670659 0.709871
0.144987 0.683974 0.724403
0.258506 0.697289 0.738934
0.372026 0.710604 0.753465
0.485545 0.723919 0.767997
0.599064 0.737234 0.782528
0.712584 0.750548 0.797060
0.826103 0.763863 0.811591
0.939622 0.777178 0.826122
0.056782 0.800705 0.738399
0.170301 0.814020 0.752931
0.283821 0.827335 0.767462
0.397340 0.840650 0.781994
0.510859 0.853965 0.796525
0.624379 0.867280 0.811056
0.737898 0.880595 0.825588
0.851417 0.893909 0.840119
0.964937 0.907224 0.854651
0.082096 0.930752 0.766928
0.195616 0.944066 0.781459
0.309135 0.957381 0.795990
0.422654 0.970696 0.810522
0.536174 0.984011 0.825053
0.649693 0.997326 0.839585
0.763212 1.000000 0.854116
0.876732 1.000000 0.868647
0.990251 1.000000 0.883179
0.000000 0.000000 0.657642
0.000000 0.000000 0.672174
0.111536 0.000000 0.686705
0.225056 0.000000 0.701237
0.338575 0.000000 0.715768
0.452094 0.000000 0.730299
0.565614 0.000000 0.744831
0.679133 0.000000 0.759362
0.792652 0.001978 0.773894
0.000000 0.025505 0.686171
0.023331 0.038820 0.700702
0.136851 0.052135 0.715233
0.250370 0.065450 0.729765
0.363889 0.078765 0.744296
0.477409 0.092080 0.758828
0.590928 0.105395 0.773359
0.704448 0.118709 0.787890
0.817967 0.132024 0.802422
0.000000 0.155552 0.714699
0.048646 0.168866 0.729230
0.162165 0.182181 0.743762
0.275684 0.195496 0.758293
0.389204 0.208811 0.772824
0.502723 0.222126 0.787356
0.616242 0.235441 0.801887
0.729762 0.248755 0.816419
0.843281 0.262070 0.830950
0.000000 0.285598 0.743227
0.073960 0.298912 0.757758
0.187479 0.312227 0.772290
0.300999 0.325542 0.786821
0.414518 0.338857 0.801353
0.528038 0.352172 0.815884
0.641557 0.365487 0.830415
0.755076 0.378802 0.844947
0.868596 0.392116 0.859478
0.000000 0.415644 0.771755
0.099274 0.428959 0.786287
0.212794 0.442273 0.800818
0.326313 0.455588 0.815349
0.439832 0.468903 0.829881
0.553352 0.482218 0.844412
0.666871 0.495533 0.858944
0.780391 0.508848 0.873475
0.893910 0.522163 0.888006
0.011069 0.545690 0.800283
0.124589 0.559005 0.814815
0.238108 0.572320 0.829346
0.351627 0.585634 0.843878
0.465147 0.598949 0.858409
0.578666 0.612264 0.872940
0.692186 0.625579 0.887472
0.805705 0.638894 0.902003
0.919224 0.652209 0.916535
0.036384 0.675736 0.828812
0.149903 0.689051 0.843343
0.263422 0.702366 0.857874
0.376942 0.715680 0.872406
0.490461 0.728995 0.886937
0.603981 0.742310 0.901469
0.717500 0.755625 0.916000
0.831019 0.768940 0.930531
0.944539 0.782255 0.945063
0.061698 0.805782 0.857340
0.175218 0.819097 0.871871
0.288737 0.832412 0.886403
0.402256 0.845727 0.900934
0.515776 0.859041 0.915465
0.629295 0.872356 0.929997
0.742814 0.885671 0.944528
0.856334 0.898986 0.959060
0.969853 0.912301 0.973591
0.087012 0.935828 0.885868
0.200532 0.949143 0.900399
0.314051 0.962458 0.914931
0.427571 0.975773 0.929462
0.541090 0.989087 0.943994
0.654609 1.000000 0.958525
0.768129 1.000000 0.973056
0.881648 1.000000 0.987588
0.995167 1.000000 1.000000
0.000000 0.000000 0.776583
0.002933 0.000000 0.791114
0.116453 0.000000 0.805646
0.229972 0.000000 0.820177
0.343491 0.000000 0.834708
0.457011 0.000000 0.849240
0.570530 0.000000 0.863771
0.684049 0.000000 0.878303
0.797569 0.007055 0.892834
0.000000 0.030582 0.805111
0.028247 0.043897 0.819642
0.141767 0.057212 0.834174
0.255286 0.070527 0.848705
0.368806 0.083841 0.863237
0.482325 0.097156 0.877768
0.595844 0.110471 0.892299
0.709364 0.123786 0.906831
0.822883 0.137101 0.921362
0.000000 0.160628 0.833639
0.053562 0.173943 0.848171
0.167081 0.187258 0.862702
0.280601 0.200573 0.877233
0.394120 0.213887 0.891765
0.507639 0.227202 0.906296
0.621159 0.240517 0.920828
0.734678 0.253832 0.935359
0.848197 0.267147 0.949890
0.000000 0.290674 0.862167
0.078876 0.303989 0.876699
0.192396 0.317304 0.891230
0.305915 0.330619 0.905762
0.419434 0.343934 0.920293
0.532954 0.357248 0.934824
0.646473 0.370563 0.949356
0.759992 0.383878 0.963887
0.873512 0.397193 0.978419
0.000000 0.420720 0.890696
0.104191 0.434035 0.905227
0.217710 0.447350 0.919758
0.331229 0.460665 0.934290
0.444749 0.473980 0.948821
0.558268 0.487295 0.963353
0.671787 0.500609 0.977884
0.785307 0.513924 0.992415
0.898826 0.527239 1.000000
0.015986 0.550766 0.919224
0.129505 0.564081 0.933755
0.243024 0.577396 0.948287
0.356544 0.590711 0.962818
0.470063 0.604026 0.977349
0.583583 0.617341 0.991881
0.697102 0.630655 1.000000
0.810621 0.643970 1.000000
0.924141 0.657285 1.000000
0.041300 0.680812 0.947752
0.154819 0.694127 0.962283
0.268339 0.707442 0.976815
0.381858 0.720757 0.991346
0.495378 0.734072 1.000000
0.608897 0.747387 1.000000
0.722416 0.760702 1.000000
0.835936 0.774016 1.000000
0.949455 0.787331 1.000000
0.066614 0.810859 0.976280
0.180134 0.824173 0.990812
0.293653 0.837488 1.000000
0.407172 0.850803 1.000000
0.520692 0.864118 1.000000
0.634211 0.877433 1.000000
0.747731 0.890748 1.000000
0.861250 0.904062 1.000000
0.974769 0.917377 1.000000
0.091929 0.940905 1.000000
0.205448 0.954220 1.000000
0.318967 0.967534 1.000000
0.432487 0.980849 1.000000
0.546006 0.994164 1.000000
0.659526 1.000000 1.000000
0.773045 1.000000 1.000000
0.886564 1.000000 1.000000
1.000000 1.000000 1.000000
0.000000 0.000000 0.895523
0.007849 0.000000 0.910055
0.121369 0.000000 0.924586
0.234888 0.000000 0.939117
0.348407 0.000000 0.953649
0.461927 0.000000 0.968180
0.575446 0.000000 0.982712
0.688966 0.000000 0.997243
0.802485 0.012131 1.000000
0.000000 0.035659 0.924051
0.033164 0.048973 0.938583
0.146683 0.062288 0.953114
0.260202 0.075603 0.967646
0.373722 0.088918 0.982177
0.487241 0.102233 0.996708
0.600761 0.115548 1.000000
0.714280 0.128862 1.000000
0.827799 0.142177 1.000000
0.000000 0.165705 0.952580
0.058478 0.179020 0.967111
0.171997 0.192334 0.981642
0.285517 0.205649 0.996174
0.399036 0.218964 1.000000
0.512556 0.232279 1.000000
0.626075 0.245594 1.000000
0.739594 0.258909 1.000000
0.853114 0.272223 1.000000
0.000000 0.295751 0.981108
0.083793 0.309066 0.995639
0.197312 0.322380 1.000000
0.310831 0.335695 1.000000
0.424351 0.349010 1.000000
0.537870 0.362325 1.000000
0.651389 0.375640 1.000000
0.764909 0.388955 1.000000
0.878428 0.402270 1.000000
0.000000 0.425797 1.000000
0.109107 0.439112 1.000000
0.222626 0.452427 1.000000
0.336146 0.465741 1.000000
0.449665 0.479056 1.000000
0.563184 0.492371 1.000000
0.676704 0.505686 1.000000
0.790223 0.519001 1.000000
0.903743 0.532316 1.000000
0.020902 0.555843 1.000000
0.134421 0.569158 1.000000
0.247941 0.582473 1.000000
0.361460 0.595787 1.000000
0.474979 0.609102 1.000000
0.588499 0.622417 1.000000
0.702018 0.635732 1.000000
0.815537 0.649047 1.000000
0.929057 0.662362 1.000000
0.046216 0.685889 1.000000
0.159736 0.699204 1.000000
0.273255 0.712519 1.000000
0.386774 0.725834 1.000000
0.500294 0.739148 1.000000
0.613813 0.752463 1.000000
0.727332 0.765778 1.000000
0.840852 0.779093 1.000000
0.954371 0.792408 1.000000
0.071531 0.815935 1.000000
0.185050 0.829250 1.000000
0.298569 0.842565 1.000000
0.412089 0.855880 1.000000
0.525608 0.869195 1.000000
0.639128 0.882509 1.000000
0.752647 0.895824 1.000000
0.866166 0.909139 1.000000
0.979686 0.922454 1.000000
0.096845 0.945981 1.000000
0.210364 0.959296 1.000000
0.323884 0.972611 1.000000
0.437403 0.985926 1.000000
0.550922 0.999241 1.000000
0.664442 1.000000 1.000000
0.777961 1.000000 1.000000
0.891481 1.000000 1.000000
1.000000 1.000000 1.000000
