assets/luts/cross_process.cube
TITLE "Cross Process"
LUT_3D_SIZE 9
0.000000 0.000000 0.000000
0.124906 0.000000 0.000000
0.289343 0.000000 0.000000
0.441324 0.000000 0.000000
0.585742 0.000000 0.000000
0.724784 0.000000 0.000000
0.859687 0.000000 0.000000
0.991243 0.000000 0.000000
1.000000 0.000000 0.000000
0.000000 0.117053 0.000000
0.124906 0.117053 0.000000
0.289343 0.117053 0.000000
0.441324 0.117053 0.000000
0.585742 0.117053 0.000000
0.724784 0.117053 0.000000
0.859687 0.117053 0.000000
0.991243 0.117053 0.000000
1.000000 0.117053 0.000000
0.000000 0.257542 0.000000
0.124906 0.257542 0.000000
0.289343 0.257542 0.000000
0.441324 0.257542 0.000000
0.585742 0.257542 0.000000
0.724784 0.257542 0.000000
0.859687 0.257542 0.000000
0.991243 0.257542 0.000000
1.000000 0.257542 0.000000
0.000000 0.405558 0.000000
0.124906 0.405558 0.000000
0.289343 0.405558 0.000000
0.441324 0.405558 0.000000
0.585742 0.405558 0.000000
0.724784 0.405558 0.000000
0.859687 0.405558 0.000000
0.991243 0.405558 0.000000
1.000000 0.405558 0.000000
0.000000 0.558685 0.000000
0.124906 0.558685 0.000000
0.289343 0.558685 0.000000
0.441324 0.558685 0.000000
0.585742 0.558685 0.000000
0.724784 0.558685 0.000000
0.859687 0.558685 0.000000
0.991243 0.558685 0.000000
1.000000 0.558685 0.000000
0.000000 0.690141 0.000000
0.124906 0.690141 0.000000
0.289343 0.690141 0.000000
0.441324 0.690141 0.000000
0.585742 0.690141 0.000000
0.724784 0.690141 0.000000
0.859687 0.690141 0.000000
0.991243 0.690141 0.000000
1.000000 0.690141 0.000000
0.000000 0.821244 0.000000
0.124906 0.821244 0.000000
0.289343 0.821244 0.000000
0.441324 0.821244 0.000000
0.585742 0.821244 0.000000
0.724784 0.821244 0.000000
0.859687 0.821244 0.000000
0.991243 0.821244 0.000000
1.000000 0.821244 0.000000
0.000000 0.954560 0.000000
0.124906 0.954560 0.000000
0.289343 0.954560 0.000000
0.441324 0.954560 0.000000
0.585742 0.954560 0.000000
0.724784 0.954560 0.000000
0.859687 0.954560 0.000000
0.991243 0.954560 0.000000
1.000000 0.954560 0.000000
0.000000 1.000000 0.000000
0.124906 1.000000 0.000000
0.289343 1.000000 0.000000
0.441324 1.000000 0.000000
0.585742 1.000000 0.000000
0.724784 1.000000 0.000000
0.859687 1.000000 0.000000
0.991243 1.000000 0.000000
1.000000 1.000000 0.000000
0.000000 0.000000 0.000000
0.124906 0.000000 0.000000
0.289343 0.000000 0.000000
0.441324 0.000000 0.000000
0.585742 0.000000 0.000000
0.724784 0.000000 0.000000
0.859687 0.000000 0.000000
0.991243 0.000000 0.000000
1.000000 0.000000 0.000000
0.000000 0.117053 0.000000
0.124906 0.117053 0.000000
0.289343 0.117053 0.000000
0.441324 0.117053 0.000000
0.585742 0.117053 0.000000
0.724784 0.117053 0.000000
0.859687 0.117053 0.000000
0.991243 0.117053 0.000000
1.000000 0.117053 0.000000
0.000000 0.257542 0.000000
0.124906 0.257542 0.000000
0.289343 0.257542 0.000000
0.441324 0.257542 0.000000
0.585742 0.257542 0.000000
0.724784 0.257542 0.000000
0.859687 0.257542 0.000000
0.991243 0.257542 0.000000
1.000000 0.257542 0.000000
0.000000 0.405558 0.000000
0.124906 0.405558 0.000000
0.289343 0.405558 0.000000
0.441324 0.405558 0.000000
0.585742 0.405558 0.000000
0.724784 0.405558 0.000000
0.859687 0.405558 0.000000
0.991243 0.405558 0.000000
1.000000 0.405558 0.000000
0.000000 0.558685 0.000000
0.124906 0.558685 0.000000
0.289343 0.558685 0.000000
0.441324 0.558685 0.000000
0.585742 0.558685 0.000000
0.724784 0.558685 0.000000
0.859687 0.558685 0.000000
0.991243 0.558685 0.000000
1.000000 0.558685 0.000000
0.000000 0.690141 0.000000
0.124906 0.690141 0.000000
0.289343 0.690141 0.000000
0.441324 0.690141 0.000000
0.585742 0.690141 0.000000
0.724784 0.690141 0.000000
0.859687 0.690141 0.000000
0.991243 0.690141 0.000000
1.000000 0.690141 0.000000
0.000000 0.821244 0.000000
0.124906 0.821244 0.000000
0.289343 0.821244 0.000000
0.441324 0.821244 0.000000
0.585742 0.821244 0.000000
0.724784 0.821244 0.000000
0.859687 0.821244 0.000000
0.991243 0.821244 0.000000
1.000000 0.821244 0.000000
0.000000 0.954560 0.000000
0.124906 0.954560 0.000000
0.289343 0.954560 0.000000
0.441324 0.954560 0.000000
0.585742 0.954560 0.000000
0.724784 0.954560 0.000000
0.859687 0.954560 0.000000
0.991243 0.954560 0.000000
1.000000 0.954560 0.000000
0.000000 1.000000 0.000000
0.124906 1.000000 0.000000
0.289343 1.000000 0.000000
0.441324 1.000000 0.000000
0.585742 1.000000 0.000000
0.724784 1.000000 0.000000
0.859687 1.000000 0.000000
0.991243 1.000000 0.000000
1.000000 1.000000 0.000000
0.000000 0.000000 0.037179
0.124906 0.000000 0.037179
0.289343 0.000000 0.037179
0.441324 0.000000 0.037179
0.585742 0.000000 0.037179
0.724784 0.000000 0.037179
0.859687 0.000000 0.037179
0.991243 0.000000 0.037179
1.000000 0.000000 0.037179
0.000000 0.117053 0.037179
0.124906 0.117053 0.037179
0.289343 0.117053 0.037179
0.441324 0.117053 0.037179
0.585742 0.117053 0.037179
0.724784 0.117053 0.037179
0.859687 0.117053 0.037179
0.991243 0.117053 0.037179
1.000000 0.117053 0.037179
0.000000 0.257542 0.037179
0.124906 0.257542 0.037179
0.289343 0.257542 0.037179
0.441324 0.257542 0.037179
0.585742 0.257542 0.037179
0.724784 0.257542 0.037179
0.859687 0.257542 0.037179
0.991243 0.257542 0.037179
1.000000 0.257542 0.037179
0.000000 0.405558 0.037179
0.124906 0.405558 0.037179
0.289343 0.405558 0.037179
0.441324 0.405558 0.037179
0.585742 0.405558 0.037179
0.724784 0.405558 0.037179
0.859687 0.405558 0.037179
0.991243 0.405558 0.037179
1.000000 0.405558 0.037179
0.000000 0.558685 0.037179
0.124906 0.558685 0.037179
0.289343 0.558685 0.037179
0.441324 0.558685 0.037179
0.585742 0.558685 0.037179
0.724784 0.558685 0.037179
0.859687 0.558685 0.037179
0.991243 0.558685 0.037179
1.000000 0.558685 0.037179
0.000000 0.690141 0.037179
0.124906 0.690141 0.037179
0.289343 0.690141 0.037179
0.441324 0.690141 0.037179
0.585742 0.690141 0.037179
0.724784 0.690141 0.037179
0.859687 0.690141 0.037179
0.991243 0.690141 0.037179
1.000000 0.690141 0.037179
0.000000 0.821244 0.037179
0.124906 0.821244 0.037179
0.289343 0.821244 0.037179
0.441324 0.821244 0.037179
0.585742 0.821244 0.037179
0.724784 0.821244 0.037179
0.859687 0.821244 0.037179
0.991243 0.821244 0.037179
1.000000 0.821244 0.037179
0.000000 0.954560 0.037179
0.124906 0.954560 0.037179
0.289343 0.954560 0.037179
0.441324 0.954560 0.037179
0.585742 0.954560 0.037179
0.724784 0.954560 0.037179
0.859687 0.954560 0.037179
0.991243 0.954560 0.037179
1.000000 0.954560 0.037179
0.000000 1.000000 0.037179
0.124906 1.000000 0.037179
0.289343 1.000000 0.037179
0.441324 1.000000 0.037179
0.585742 1.000000 0.037179
0.724784 1.000000 0.037179
0.859687 1.000000 0.037179
0.991243 1.000000 0.037179
1.000000 1.000000 0.037179
0.000000 0.000000 0.168821
0.124906 0.000000 0.168821
0.289343 0.000000 0.168821
0.441324 0.000000 0.168821
0.585742 0.000000 0.168821
0.724784 0.000000 0.168821
0.859687 0.000000 0.168821
0.991243 0.000000 0.168821
1.000000 0.000000 0.168821
0.000000 0.117053 0.168821
0.124906 0.117053 0.168821
0.289343 0.117053 0.168821
0.441324 0.117053 0.168821
0.585742 0.117053 0.168821
0.724784 0.117053 0.168821
0.859687 0.117053 0.168821
0.991243 0.117053 0.168821
1.000000 0.117053 0.168821
0.000000 0.257542 0.168821
0.124906 0.257542 0.168821
0.289343 0.257542 0.168821
0.441324 0.257542 0.168821
0.585742 0.257542 0.168821
0.724784 0.257542 0.168821
0.859687 0.257542 0.168821
0.991243 0.257542 0.168821
1.000000 0.257542 0.168821
0.000000 0.405558 0.168821
0.124906 0.405558 0.168821
0.289343 0.405558 0.168821
0.441324 0.405558 0.168821
0.585742 0.405558 0.168821
0.724784 0.405558 0.168821
0.859687 0.405558 0.168821
0.991243 0.405558 0.168821
1.000000 0.405558 0.168821
0.000000 0.558685 0.168821
0.124906 0.558685 0.168821
0.289343 0.558685 0.168821
0.441324 0.558685 0.168821
0.585742 0.558685 0.168821
0.724784 0.558685 0.168821
0.859687 0.558685 0.168821
0.991243 0.558685 0.168821
1.000000 0.558685 0.168821
0.000000 0.690141 0.168821
0.124906 0.690141 0.168821
0.289343 0.690141 0.168821
0.441324 0.690141 0.168821
0.585742 0.690141 0.168821
0.724784 0.690141 0.168821
0.859687 0.690141 0.168821
0.991243 0.690141 0.168821
1.000000 0.690141 0.168821
0.000000 0.821244 0.168821
0.124906 0.821244 0.168821
0.289343 0.821244 0.168821
0.441324 0.821244 0.168821
0.585742 0.821244 0.168821
0.724784 0.821244 0.168821
0.859687 0.821244 0.168821
0.991243 0.821244 0.168821
1.000000 0.821244 0.168821
0.000000 0.954560 0.168821
0.124906 0.954560 0.168821
0.289343 0.954560 0.168821
0.441324 0.954560 0.168821
0.585742 0.954560 0.168821
0.724784 0.954560 0.168821
0.859687 0.954560 0.168821
0.991243 0.954560 0.168821
1.000000 0.954560 0.168821
0.000000 1.000000 0.168821
0.124906 1.000000 0.168821
0.289343 1.000000 0.168821
0.441324 1.000000 0.168821
0.585742 1.000000 0.168821
0.724784 1.000000 0.168821
0.859687 1.000000 0.168821
0.991243 1.000000 0.168821
1.000000 1.000000 0.168821
0.000000 0.000000 0.314545
0.124906 0.000000 0.314545
0.289343 0.000000 0.314545
0.441324 0.000000 0.314545
0.585742 0.000000 0.314545
0.724784 0.000000 0.314545
0.859687 0.000000 0.314545
0.991243 0.000000 0.314545
1.000000 0.000000 0.314545
0.000000 0.117053 0.314545
0.124906 0.117053 0.314545
0.289343 0.117053 0.314545
0.441324 0.117053 0.314545
0.585742 0.117053 0.314545
0.724784 0.117053 0.314545
0.859687 0.117053 0.314545
0.991243 0.117053 0.314545
1.000000 0.117053 0.314545
0.000000 0.257542 0.314545
0.124906 0.257542 0.314545
0.289343 0.257542 0.314545
0.441324 0.257542 0.314545
0.585742 0.257542 0.314545
0.724784 0.257542 0.314545
0.859687 0.257542 0.314545
0.991243 0.257542 0.314545
1.000000 0.257542 0.314545
0.000000 0.405558 0.314545
0.124906 0.405558 0.314545
0.289343 0.405558 0.314545
0.441324 0.405558 0.314545
0.585742 0.405558 0.314545
0.724784 0.405558 0.314545
0.859687 0.405558 0.314545
0.991243 0.405558 0.314545
1.000000 0.405558 0.314545
0.000000 0.558685 0.314545
0.124906 0.558685 0.314545
0.289343 0.558685 0.314545
0.441324 0.558685 0.314545
0.585742 0.558685 0.314545
0.724784 0.558685 0.314545
0.859687 0.558685 0.314545
0.991243 0.558685 0.314545
1.000000 0.558685 0.314545
0.000000 0.690141 0.314545
0.124906 0.690141 0.314545
0.289343 0.690141 0.314545
0.441324 0.690141 0.314545
0.585742 0.690141 0.314545
0.724784 0.690141 0.314545
0.859687 0.690141 0.314545
0.991243 0.690141 0.314545
1.000000 0.690141 0.314545
0.000000 0.821244 0.314545
0.124906 0.821244 0.314545
0.289343 0.821244 0.314545
0.441324 0.821244 0.314545
0.585742 0.821244 0.314545
0.724784 0.821244 0.314545
0.859687 0.821244 0.314545
0.991243 0.821244 0.314545
1.000000 0.821244 0.314545
0.000000 0.954560 0.314545
0.124906 0.954560 0.314545
0.289343 0.954560 0.314545
0.441324 0.954560 0.314545
0.585742 0.954560 0.314545
0.724784 0.954560 0.314545
0.859687 0.954560 0.314545
0.991243 0.954560 0.314545
1.000000 0.954560 0.314545
0.000000 1.000000 0.314545
0.124906 1.000000 0.314545
0.289343 1.000000 0.314545
0.441324 1.000000 0.314545
0.585742 1.000000 0.314545
0.724784 1.000000 0.314545
0.859687 1.000000 0.314545
0.991243 1.000000 0.314545
1.000000 1.000000 0.314545
0.000000 0.000000 0.471726
0.124906 0.000000 0.471726
0.289343 0.000000 0.471726
0.441324 0.000000 0.471726
0.585742 0.000000 0.471726
0.724784 0.000000 0.471726
0.859687 0.000000 0.471726
0.991243 0.000000 0.471726
1.000000 0.000000 0.471726
0.000000 0.117053 0.471726
0.124906 0.117053 0.471726
0.289343 0.117053 0.471726
0.441324 0.117053 0.471726
0.585742 0.117053 0.471726
0.724784 0.117053 0.471726
0.859687 0.117053 0.471726
0.991243 0.117053 0.471726
1.000000 0.117053 0.471726
0.000000 0.257542 0.471726
0.124906 0.257542 0.471726
0.289343 0.257542 0.471726
0.441324 0.257542 0.471726
0.585742 0.257542 0.471726
0.724784 0.257542 0.471726
0.859687 0.257542 0.471726
0.991243 0.257542 0.471726
1.000000 0.257542 0.471726
0.000000 0.405558 0.471726
0.124906 0.405558 0.471726
0.289343 0.405558 0.471726
0.441324 0.405558 0.471726
0.585742 0.405558 0.471726
0.724784 0.405558 0.471726
0.859687 0.405558 0.471726
0.991243 0.405558 0.471726
1.000000 0.405558 0.471726
0.000000 0.558685 0.471726
0.124906 0.558685 0.471726
0.289343 0.558685 0.471726
0.441324 0.558685 0.471726
0.585742 0.558685 0.471726
0.724784 0.558685 0.471726
0.859687 0.558685 0.471726
0.991243 0.558685 0.471726
1.000000 0.558685 0.471726
0.000000 0.690141 0.471726
0.124906 0.690141 0.471726
0.289343 0.690141 0.471726
0.441324 0.690141 0.471726
0.585742 0.690141 0.471726
0.724784 0.690141 0.471726
0.859687 0.690141 0.471726
0.991243 0.690141 0.471726
1.000000 0.690141 0.471726
0.000000 0.821244 0.471726
0.124906 0.821244 0.471726
0.289343 0.821244 0.471726
0.441324 0.821244 0.471726
0.585742 0.821244 0.471726
0.724784 0.821244 0.471726
0.859687 0.821244 0.471726
0.991243 0.821244 0.471726
1.000000 0.821244 0.471726
0.000000 0.954560 0.471726
0.124906 0.954560 0.471726
0.289343 0.954560 0.471726
0.441324 0.954560 0.471726
0.585742 0.954560 0.471726
0.724784 0.954560 0.471726
0.859687 0.954560 0.471726
0.991243 0.954560 0.471726
1.000000 0.954560 0.471726
0.000000 1.000000 0.471726
0.124906 1.000000 0.471726
0.289343 1.000000 0.471726
0.441324 1.000000 0.471726
0.585742 1.000000 0.471726
0.724784 1.000000 0.471726
0.859687 1.000000 0.471726
0.991243 1.000000 0.471726
1.000000 1.000000 0.471726
0.000000 0.000000 0.638684
0.124906 0.000000 0.638684
0.289343 0.000000 0.638684
0.441324 0.000000 0.638684
0.585742 0.000000 0.638684
0.724784 0.000000 0.638684
0.859687 0.000000 0.638684
0.991243 0.000000 0.638684
1.000000 0.000000 0.638684
0.000000 0.117053 0.638684
0.124906 0.117053 0.638684
0.289343 0.117053 0.638684
0.441324 0.117053 0.638684
0.585742 0.117053 0.638684
0.724784 0.117053 0.638684
0.859687 0.117053 0.638684
0.991243 0.117053 0.638684
1.000000 0.117053 0.638684
0.000000 0.257542 0.638684
0.124906 0.257542 0.638684
0.289343 0.257542 0.638684
0.441324 0.257542 0.638684
0.585742 0.257542 0.638684
0.724784 0.257542 0.638684
0.859687 0.257542 0.638684
0.991243 0.257542 0.638684
1.000000 0.257542 0.638684
0.000000 0.405558 0.638684
0.124906 0.405558 0.638684
0.289343 0.405558 0.638684
0.441324 0.405558 0.638684
0.585742 0.405558 0.638684
0.724784 0.405558 0.638684
0.859687 0.405558 0.638684
0.991243 0.405558 0.638684
1.000000 0.405558 0.638684
0.000000 0.558685 0.638684
0.124906 0.558685 0.638684
0.289343 0.558685 0.638684
0.441324 0.558685 0.638684
0.585742 0.558685 0.638684
0.724784 0.558685 0.638684
0.859687 0.558685 0.638684
0.991243 0.558685 0.638684
1.000000 0.558685 0.638684
0.000000 0.690141 0.638684
0.124906 0.690141 0.638684
0.289343 0.690141 0.638684
0.441324 0.690141 0.638684
0.585742 0.690141 0.638684
0.724784 0.690141 0.638684
0.859687 0.690141 0.638684
0.991243 0.690141 0.638684
1.000000 0.690141 0.638684
0.000000 0.821244 0.638684
0.124906 0.821244 0.638684
0.289343 0.821244 0.638684
0.441324 0.821244 0.638684
0.585742 0.821244 0.638684
0.724784 0.821244 0.638684
0.859687 0.821244 0.638684
0.991243 0.821244 0.638684
1.000000 0.821244 0.638684
0.000000 0.954560 0.638684
0.124906 0.954560 0.638684
0.289343 0.954560 0.638684
0.441324 0.954560 0.638684
0.585742 0.954560 0.638684
0.724784 0.954560 0.638684
0.859687 0.954560 0.638684
0.991243 0.954560 0.638684
1.000000 0.954560 0.638684
0.000000 1.000000 0.638684
0.124906 1.000000 0.638684
0.289343 1.000000 0.638684
0.441324 1.000000 0.638684
0.585742 1.000000 0.638684
0.724784 1.000000 0.638684
0.859687 1.000000 0.638684
0.991243 1.000000 0.638684
1.000000 1.000000 0.638684
0.000000 0.000000 0.814237
0.124906 0.000000 0.814237
0.289343 0.000000 0.814237
0.441324 0.000000 0.814237
0.585742 0.000000 0.814237
0.724784 0.000000 0.814237
0.859687 0.000000 0.814237
0.991243 0.000000 0.814237
1.000000 0.000000 0.814237
0.000000 0.117053 0.814237
0.124906 0.117053 0.814237
0.289343 0.117053 0.814237
0.441324 0.117053 0.814237
0.585742 0.117053 0.814237
0.724784 0.117053 0.814237
0.859687 0.117053 0.814237
0.991243 0.117053 0.814237
1.000000 0.117053 0.814237
0.000000 0.257542 0.814237
0.124906 0.257542 0.814237
0.289343 0.257542 0.814237
0.441324 0.257542 0.814237
0.585742 0.257542 0.814237
0.724784 0.257542 0.814237
0.859687 0.257542 0.814237
0.991243 0.257542 0.814237
1.000000 0.257542 0.814237
0.000000 0.405558 0.814237
0.124906 0.405558 0.814237
0.289343 0.405558 0.814237
0.441324 0.405558 0.814237
0.585742 0.405558 0.814237
0.724784 0.405558 0.814237
0.859687 0.405558 0.814237
0.991243 0.405558 0.814237
1.000000 0.405558 0.814237
0.000000 0.558685 0.814237
0.124906 0.558685 0.814237
0.289343 0.558685 0.814237
0.441324 0.558685 0.814237
0.585742 0.558685 0.814237
0.724784 0.558685 0.814237
0.859687 0.558685 0.814237
0.991243 0.558685 0.814237
1.000000 0.558685 0.814237
0.000000 0.690141 0.814237
0.124906 0.690141 0.814237
0.289343 0.690141 0.814237
0.441324 0.690141 0.814237
0.585742 0.690141 0.814237
0.724784 0.690141 0.814237
0.859687 0.690141 0.814237
0.991243 0.690141 0.814237
1.000000 0.690141 0.814237
0.000000 0.821244 0.814237
0.124906 0.821244 0.814237
0.289343 0.821244 0.814237
0.441324 0.821244 0.814237
0.585742 0.821244 0.814237
0.724784 0.821244 0.814237
0.859687 0.821244 0.814237
0.991243 0.821244 0.814237
1.000000 0.821244 0.814237
0.000000 0.954560 0.814237
0.124906 0.954560 0.814237
0.289343 0.954560 0.814237
0.441324 0.954560 0.814237
0.585742 0.954560 0.814237
0.724784 0.954560 0.814237
0.859687 0.954560 0.814237
0.991243 0.954560 0.814237
1.000000 0.954560 0.814237
0.000000 1.000000 0.814237
0.124906 1.000000 0.814237
0.289343 1.000000 0.814237
0.441324 1.000000 0.814237
0.585742 1.000000 0.814237
0.724784 1.000000 0.814237
0.859687 1.000000 0.814237
0.991243 1.000000 0.814237
1.000000 1.000000 0.814237
0.000000 0.000000 0.997500
0.124906 0.000000 0.997500
0.289343 0.000000 0.997500
0.441324 0.000000 0.997500
0.585742 0.000000 0.997500
0.724784 0.000000 0.997500
0.859687 0.000000 0.997500
0.991243 0.000000 0.997500
1.000000 0.000000 0.997500
0.000000 0.117053 0.997500
0.124906 0.117053 0.997500
0.289343 0.117053 0.997500
0.441324 0.117053 0.997500
0.585742 0.117053 0.997500
0.724784 0.117053 0.997500
0.859687 0.117053 0.997500
0.991243 0.117053 0.997500
1.000000 0.117053 0.997500
0.000000 0.257542 0.997500
0.124906 0.257542 0.997500
0.289343 0.257542 0.997500
0.441324 0.257542 0.997500
0.585742 0.257542 0.997500
0.724784 0.257542 0.997500
0.859687 0.257542 0.997500
0.991243 0.257542 0.997500
1.000000 0.257542 0.997500
0.000000 0.405558 0.997500
0.124906 0.405558 0.997500
0.289343 0.405558 0.997500
0.441324 0.405558 0.997500
0.585742 0.405558 0.997500
0.724784 0.405558 0.997500
0.859687 0.405558 0.997500
0.991243 0.405558 0.997500
1.000000 0.405558 0.997500
0.000000 0.558685 0.997500
0.124906 0.558685 0.997500
0.289343 0.558685 0.997500
0.441324 0.558685 0.997500
0.585742 0.558685 0.997500
0.724784 0.558685 0.997500
0.859687 0.558685 0.997500
0.991243 0.558685 0.997500
1.000000 0.558685 0.997500
0.000000 0.690141 0.997500
0.124906 0.690141 0.997500
0.289343 0.690141 0.997500
0.441324 0.690141 0.997500
0.585742 0.690141 0.997500
0.724784 0.690141 0.997500
0.859687 0.690141 0.997500
0.991243 0.690141 0.997500
1.000000 0.690141 0.997500
0.000000 0.821244 0.997500
0.124906 0.821244 0.997500
0.289343 0.821244 0.997500
0.441324 0.821244 0.997500
0.585742 0.821244 0.997500
0.724784 0.821244 0.997500
0.859687 0.821244 0.997500
0.991243 0.821244 0.997500
1.000000 0.821244 0.997500
0.000000 0.954560 0.997500
0.124906 0.954560 0.997500
0.289343 0.954560 0.997500
0.441324 0.954560 0.997500
0.585742 0.954560 0.997500
0.724784 0.954560 0.997500
0.859687 0.954560 0.997500
0.991243 0.954560 0.997500
1.000000 0.954560 0.997500
0.000000 1.000000 0.997500
0.124906 1.000000 0.997500
0.289343 1.000000 0.997500
0.441324 1.000000 0.997500
0.585742 1.000000 0.997500
0.724784 1.000000 0.997500
0.859687 1.000000 0.997500
0.991243 1.000000 0.997500
1.000000 1.000000 0.997500
