assets/luts/cross_process.cube
TITLE "Cross Process"
LUT_3D_SIZE 33
0.000000 0.000000 0.000000
0.000000 0.000000 0.000000
0.033679 0.000000 0.000000
0.080456 0.000000 0.000000
0.124906 0.000000 0.000000
0.167701 0.000000 0.000000
0.209223 0.000000 0.000000
0.249714 0.000000 0.000000
0.289343 0.000000 0.000000
0.328235 0.000000 0.000000
0.366482 0.000000 0.000000
0.404158 0.000000 0.000000
0.441324 0.000000 0.000000
0.478028 0.000000 0.000000
0.514309 0.000000 0.000000
0.550204 0.000000 0.000000
0.585742 0.000000 0.000000
0.620947 0.000000 0.000000
0.655843 0.000000 0.000000
0.690450 0.000000 0.000000
0.724784 0.000000 0.000000
0.758861 0.000000 0.000000
0.792696 0.000000 0.000000
0.826301 0.000000 0.000000
0.859687 0.000000 0.000000
0.892865 0.000000 0.000000
0.925845 0.000000 0.000000
0.958635 0.000000 0.000000
0.991243 0.000000 0.000000
1.000000 0.000000 0.000000
1.000000 0.000000 0.000000
1.000000 0.000000 0.000000
1.000000 0.000000 0.000000
0.000000 0.020937 0.000000
0.000000 0.020937 0.000000
0.033679 0.020937 0.000000
0.080456 0.020937 0.000000
0.124906 0.020937 0.000000
0.167701 0.020937 0.000000
0.209223 0.020937 0.000000
0.249714 0.020937 0.000000
0.289343 0.020937 0.000000
0.328235 0.020937 0.000000
0.366482 0.020937 0.000000
0.404158 0.020937 0.000000
0.441324 0.020937 0.000000
0.478028 0.020937 0.000000
0.514309 0.020937 0.000000
0.550204 0.020937 0.000000
0.585742 0.020937 0.000000
0.620947 0.020937 0.000000
0.655843 0.020937 0.000000
0.690450 0.020937 0.000000
0.724784 0.020937 0.000000
0.758861 0.020937 0.000000
0.792696 0.020937 0.000000
0.826301 0.020937 0.000000
0.859687 0.020937 0.000000
0.892865 0.020937 0.000000
0.925845 0.020937 0.000000
0.958635 0.020937 0.000000
0.991243 0.020937 0.000000
1.000000 0.020937 0.000000
1.000000 0.020937 0.000000
1.000000 0.020937 0.000000
1.000000 0.020937 0.000000
0.000000 0.051513 0.000000
0.000000 0.051513 0.000000
0.033679 0.051513 0.000000
0.080456 0.051513 0.000000
0.124906 0.051513 0.000000
0.167701 0.051513 0.000000
0.209223 0.051513 0.000000
0.249714 0.051513 0.000000
0.289343 0.051513 0.000000
0.328235 0.051513 0.000000
0.366482 0.051513 0.000000
0.404158 0.051513 0.000000
0.441324 0.051513 0.000000
0.478028 0.051513 0.000000
0.514309 0.051513 0.000000
0.550204 0.051513 0.000000
0.585742 0.051513 0.000000
0.620947 0.051513 0.000000
0.655843 0.051513 0.000000
0.690450 0.051513 0.000000
0.724784 0.051513 0.000000
0.758861 0.051513 0.000000
0.792696 0.051513 0.000000
0.826301 0.051513 0.000000
0.859687 0.051513 0.000000
0.892865 0.051513 0.000000
0.925845 0.051513 0.000000
0.958635 0.051513 0.000000
0.991243 0.051513 0.000000
1.000000 0.051513 0.000000
1.000000 0.051513 0.000000
1.000000 0.051513 0.000000
1.000000 0.051513 0.000000
0.000000 0.083727 0.000000
0.000000 0.083727 0.000000
0.033679 0.083727 0.000000
0.080456 0.083727 0.000000
0.124906 0.083727 0.000000
0.167701 0.083727 0.000000
0.209223 0.083727 0.000000
0.249714 0.083727 0.000000
0.289343 0.083727 0.000000
0.328235 0.083727 0.000000
0.366482 0.083727 0.000000
0.404158 0.083727 0.000000
0.441324 0.083727 0.000000
0.478028 0.083727 0.000000
0.514309 0.083727 0.000000
0.550204 0.083727 0.000000
0.585742 0.083727 0.000000
0.620947 0.083727 0.000000
0.655843 0.083727 0.000000
0.690450 0.083727 0.000000
0.724784 0.083727 0.000000
0.758861 0.083727 0.000000
0.792696 0.083727 0.000000
0.826301 0.083727 0.000000
0.859687 0.083727 0.000000
0.892865 0.083727 0.000000
0.925845 0.083727 0.000000
0.958635 0.083727 0.000000
0.991243 0.083727 0.000000
1.000000 0.083727 0.000000
1.000000 0.083727 0.000000
1.000000 0.083727 0.000000
1.000000 0.083727 0.000000
0.000000 0.117053 0.000000
0.000000 0.117053 0.000000
0.033679 0.117053 0.000000
0.080456 0.117053 0.000000
0.124906 0.117053 0.000000
0.167701 0.117053 0.000000
0.209223 0.117053 0.000000
0.249714 0.117053 0.000000
0.289343 0.117053 0.000000
0.328235 0.117053 0.000000
0.366482 0.117053 0.000000
0.404158 0.117053 0.000000
0.441324 0.117053 0.000000
0.478028 0.117053 0.000000
0.514309 0.117053 0.000000
0.550204 0.117053 0.000000
0.585742 0.117053 0.000000
0.620947 0.117053 0.000000
0.655843 0.117053 0.000000
0.690450 0.117053 0.000000
0.724784 0.117053 0.000000
0.758861 0.117053 0.000000
0.792696 0.117053 0.000000
0.826301 0.117053 0.000000
0.859687 0.117053 0.000000
0.892865 0.117053 0.000000
0.925845 0.117053 0.000000
0.958635 0.117053 0.000000
0.991243 0.117053 0.000000
1.000000 0.117053 0.000000
1.000000 0.117053 0.000000
1.000000 0.117053 0.000000
1.000000 0.117053 0.000000
0.000000 0.151232 0.000000
0.000000 0.151232 0.000000
0.033679 0.151232 0.000000
0.080456 0.151232 0.000000
0.124906 0.151232 0.000000
0.167701 0.151232 0.000000
0.209223 0.151232 0.000000
0.249714 0.151232 0.000000
0.289343 0.151232 0.000000
0.328235 0.151232 0.000000
0.366482 0.151232 0.000000
0.404158 0.151232 0.000000
0.441324 0.151232 0.000000
0.478028 0.151232 0.000000
0.514309 0.151232 0.000000
0.550204 0.151232 0.000000
0.585742 0.151232 0.000000
0.620947 0.151232 0.000000
0.655843 0.151232 0.000000
0.690450 0.151232 0.000000
0.724784 0.151232 0.000000
0.758861 0.151232 0.000000
0.792696 0.151232 0.000000
0.826301 0.151232 0.000000
0.859687 0.151232 0.000000
0.892865 0.151232 0.000000
0.925845 0.151232 0.000000
0.958635 0.151232 0.000000
0.991243 0.151232 0.000000
1.000000 0.151232 0.000000
1.000000 0.151232 0.000000
1.000000 0.151232 0.000000
1.000000 0.151232 0.000000
0.000000 0.186105 0.000000
0.000000 0.186105 0.000000
0.033679 0.186105 0.000000
0.080456 0.186105 0.000000
0.124906 0.186105 0.000000
0.167701 0.186105 0.000000
0.209223 0.186105 0.000000
0.249714 0.186105 0.000000
0.289343 0.186105 0.000000
0.328235 0.186105 0.000000
0.366482 0.186105 0.000000
0.404158 0.186105 0.000000
0.441324 0.186105 0.000000
0.478028 0.186105 0.000000
0.514309 0.186105 0.000000
0.550204 0.186105 0.000000
0.585742 0.186105 0.000000
0.620947 0.186105 0.000000
0.655843 0.186105 0.000000
0.690450 0.186105 0.000000
0.724784 0.186105 0.000000
0.758861 0.186105 0.000000
0.792696 0.186105 0.000000
0.826301 0.186105 0.000000
0.859687 0.186105 0.000000
0.892865 0.186105 0.000000
0.925845 0.186105 0.000000
0.958635 0.186105 0.000000
0.991243 0.186105 0.000000
1.000000 0.186105 0.000000
1.000000 0.186105 0.000000
1.000000 0.186105 0.000000
1.000000 0.186105 0.000000
0.000000 0.221567 0.000000
0.000000 0.221567 0.000000
0.033679 0.221567 0.000000
0.080456 0.221567 0.000000
0.124906 0.221567 0.000000
0.167701 0.221567 0.000000
0.209223 0.221567 0.000000
0.249714 0.221567 0.000000
0.289343 0.221567 0.000000
0.328235 0.221567 0.000000
0.366482 0.221567 0.000000
0.404158 0.221567 0.000000
0.441324 0.221567 0.000000
0.478028 0.221567 0.000000
0.514309 0.221567 0.000000
0.550204 0.221567 0.000000
0.585742 0.221567 0.000000
0.620947 0.221567 0.000000
0.655843 0.221567 0.000000
0.690450 0.221567 0.000000
0.724784 0.221567 0.000000
0.758861 0.221567 0.000000
0.792696 0.221567 0.000000
0.826301 0.221567 0.000000
0.859687 0.221567 0.000000
0.892865 0.221567 0.000000
0.925845 0.221567 0.000000
0.958635 0.221567 0.000000
0.991243 0.221567 0.000000
1.000000 0.221567 0.000000
1.000000 0.221567 0.000000
1.000000 0.221567 0.000000
1.000000 0.221567 0.000000
0.000000 0.257542 0.000000
0.000000 0.257542 0.000000
0.033679 0.257542 0.000000
0.080456 0.257542 0.000000
0.124906 0.257542 0.000000
0.167701 0.257542 0.000000
0.209223 0.257542 0.000000
0.249714 0.257542 0.000000
0.289343 0.257542 0.000000
0.328235 0.257542 0.000000
0.366482 0.257542 0.000000
0.404158 0.257542 0.000000
0.441324 0.257542 0.000000
0.478028 0.257542 0.000000
0.514309 0.257542 0.000000
0.550204 0.257542 0.000000
0.585742 0.257542 0.000000
0.620947 0.257542 0.000000
0.655843 0.257542 0.000000
0.690450 0.257542 0.000000
0.724784 0.257542 0.000000
0.758861 0.257542 0.000000
0.792696 0.257542 0.000000
0.826301 0.257542 0.000000
0.859687 0.257542 0.000000
0.892865 0.257542 0.000000
0.925845 0.257542 0.000000
0.958635 0.257542 0.000000
0.991243 0.257542 0.000000
1.000000 0.257542 0.000000
1.000000 0.257542 0.000000
1.000000 0.257542 0.000000
1.000000 0.257542 0.000000
0.000000 0.293969 0.000000
0.000000 0.293969 0.000000
0.033679 0.293969 0.000000
0.080456 0.293969 0.000000
0.124906 0.293969 0.000000
0.167701 0.293969 0.000000
0.209223 0.293969 0.000000
0.249714 0.293969 0.000000
0.289343 0.293969 0.000000
0.328235 0.293969 0.000000
0.366482 0.293969 0.000000
0.404158 0.293969 0.000000
0.441324 0.293969 0.000000
0.478028 0.293969 0.000000
0.514309 0.293969 0.000000
0.550204 0.293969 0.000000
0.585742 0.293969 0.000000
0.620947 0.293969 0.000000
0.655843 0.293969 0.000000
0.690450 0.293969 0.000000
0.724784 0.293969 0.000000
0.758861 0.293969 0.000000
0.792696 0.293969 0.000000
0.826301 0.293969 0.000000
0.859687 0.293969 0.000000
0.892865 0.293969 0.000000
0.925845 0.293969 0.000000
0.958635 0.293969 0.000000
0.991243 0.293969 0.000000
1.000000 0.293969 0.000000
1.000000 0.293969 0.000000
1.000000 0.293969 0.000000
1.000000 0.293969 0.000000
0.000000 0.330805 0.000000
0.000000 0.330805 0.000000
0.033679 0.330805 0.000000
0.080456 0.330805 0.000000
0.124906 0.330805 0.000000
0.167701 0.330805 0.000000
0.209223 0.330805 0.000000
0.249714 0.330805 0.000000
0.289343 0.330805 0.000000
0.328235 0.330805 0.000000
0.366482 0.330805 0.000000
0.404158 0.330805 0.000000
0.441324 0.330805 0.000000
0.478028 0.330805 0.000000
0.514309 0.330805 0.000000
0.550204 0.330805 0.000000
0.585742 0.330805 0.000000
0.620947 0.330805 0.000000
0.655843 0.330805 0.000000
0.690450 0.330805 0.000000
0.724784 0.330805 0.000000
0.758861 0.330805 0.000000
0.792696 0.330805 0.000000
0.826301 0.330805 0.000000
0.859687 0.330805 0.000000
0.892865 0.330805 0.000000
0.925845 0.330805 0.000000
0.958635 0.330805 0.000000
0.991243 0.330805 0.000000
1.000000 0.330805 0.000000
1.000000 0.330805 0.000000
1.000000 0.330805 0.000000
1.000000 0.330805 0.000000
0.000000 0.368011 0.000000
0.000000 0.368011 0.000000
0.033679 0.368011 0.000000
0.080456 0.368011 0.000000
0.124906 0.368011 0.000000
0.167701 0.368011 0.000000
0.209223 0.368011 0.000000
0.249714 0.368011 0.000000
0.289343 0.368011 0.000000
0.328235 0.368011 0.000000
0.366482 0.368011 0.000000
0.404158 0.368011 0.000000
0.441324 0.368011 0.000000
0.478028 0.368011 0.000000
0.514309 0.368011 0.000000
0.550204 0.368011 0.000000
0.585742 0.368011 0.000000
0.620947 0.368011 0.000000
0.655843 0.368011 0.000000
0.690450 0.368011 0.000000
0.724784 0.368011 0.000000
0.758861 0.368011 0.000000
0.792696 0.368011 0.000000
0.826301 0.368011 0.000000
0.859687 0.368011 0.000000
0.892865 0.368011 0.000000
0.925845 0.368011 0.000000
0.958635 0.368011 0.000000
0.991243 0.368011 0.000000
1.000000 0.368011 0.000000
1.000000 0.368011 0.000000
1.000000 0.368011 0.000000
1.000000 0.368011 0.000000
0.000000 0.405558 0.000000
0.000000 0.405558 0.000000
0.033679 0.405558 0.000000
0.080456 0.405558 0.000000
0.124906 0.405558 0.000000
0.167701 0.405558 0.000000
0.209223 0.405558 0.000000
0.249714 0.405558 0.000000
0.289343 0.405558 0.000000
0.328235 0.405558 0.000000
0.366482 0.405558 0.000000
0.404158 0.405558 0.000000
0.441324 0.405558 0.000000
0.478028 0.405558 0.000000
0.514309 0.405558 0.000000
0.550204 0.405558 0.000000
0.585742 0.405558 0.000000
0.620947 0.405558 0.000000
0.655843 0.405558 0.000000
0.690450 0.405558 0.000000
0.724784 0.405558 0.000000
0.758861 0.405558 0.000000
0.792696 0.405558 0.000000
0.826301 0.405558 0.000000
0.859687 0.405558 0.000000
0.892865 0.405558 0.000000
0.925845 0.405558 0.000000
0.958635 0.405558 0.000000
0.991243 0.405558 0.000000
1.000000 0.405558 0.000000
1.000000 0.405558 0.000000
1.000000 0.405558 0.000000
1.000000 0.405558 0.000000
0.000000 0.443419 0.000000
0.000000 0.443419 0.000000
0.033679 0.443419 0.000000
0.080456 0.443419 0.000000
0.124906 0.443419 0.000000
0.167701 0.443419 0.000000
0.209223 0.443419 0.000000
0.249714 0.443419 0.000000
0.289343 0.443419 0.000000
0.328235 0.443419 0.000000
0.366482 0.443419 0.000000
0.404158 0.443419 0.000000
0.441324 0.443419 0.000000
0.478028 0.443419 0.000000
0.514309 0.443419 0.000000
0.550204 0.443419 0.000000
0.585742 0.443419 0.000000
0.620947 0.443419 0.000000
0.655843 0.443419 0.000000
0.690450 0.443419 0.000000
0.724784 0.443419 0.000000
0.758861 0.443419 0.000000
0.792696 0.443419 0.000000
0.826301 0.443419 0.000000
0.859687 0.443419 0.000000
0.892865 0.443419 0.000000
0.925845 0.443419 0.000000
0.958635 0.443419 0.000000
0.991243 0.443419 0.000000
1.000000 0.443419 0.000000
1.000000 0.443419 0.000000
1.000000 0.443419 0.000000
1.000000 0.443419 0.000000
0.000000 0.481573 0.000000
0.000000 0.481573 0.000000
0.033679 0.481573 0.000000
0.080456 0.481573 0.000000
0.124906 0.481573 0.000000
0.167701 0.481573 0.000000
0.209223 0.481573 0.000000
0.249714 0.481573 0.000000
0.289343 0.481573 0.000000
0.328235 0.481573 0.000000
0.366482 0.481573 0.000000
0.404158 0.481573 0.000000
0.441324 0.481573 0.000000
0.478028 0.481573 0.000000
0.514309 0.481573 0.000000
0.550204 0.481573 0.000000
0.585742 0.481573 0.000000
0.620947 0.481573 0.000000
0.655843 0.481573 0.000000
0.690450 0.481573 0.000000
0.724784 0.481573 0.000000
0.758861 0.481573 0.000000
0.792696 0.481573 0.000000
0.826301 0.481573 0.000000
0.859687 0.481573 0.000000
0.892865 0.481573 0.000000
0.925845 0.481573 0.000000
0.958635 0.481573 0.000000
0.991243 0.481573 0.000000
1.000000 0.481573 0.000000
1.000000 0.481573 0.000000
1.000000 0.481573 0.000000
1.000000 0.481573 0.000000
0.000000 0.520000 0.000000
0.000000 0.520000 0.000000
0.033679 0.520000 0.000000
0.080456 0.520000 0.000000
0.124906 0.520000 0.000000
0.167701 0.520000 0.000000
0.209223 0.520000 0.000000
0.249714 0.520000 0.000000
0.289343 0.520000 0.000000
0.328235 0.520000 0.000000
0.366482 0.520000 0.000000
0.404158 0.520000 0.000000
0.441324 0.520000 0.000000
0.478028 0.520000 0.000000
0.514309 0.520000 0.000000
0.550204 0.520000 0.000000
0.585742 0.520000 0.000000
0.620947 0.520000 0.000000
0.655843 0.520000 0.000000
0.690450 0.520000 0.000000
0.724784 0.520000 0.000000
0.758861 0.520000 0.000000
0.792696 0.520000 0.000000
0.826301 0.520000 0.000000
0.859687 0.520000 0.000000
0.892865 0.520000 0.000000
0.925845 0.520000 0.000000
0.958635 0.520000 0.000000
0.991243 0.520000 0.000000
1.000000 0.520000 0.000000
1.000000 0.520000 0.000000
1.000000 0.520000 0.000000
1.000000 0.520000 0.000000
0.000000 0.558685 0.000000
0.000000 0.558685 0.000000
0.033679 0.558685 0.000000
0.080456 0.558685 0.000000
0.124906 0.558685 0.000000
0.167701 0.558685 0.000000
0.209223 0.558685 0.000000
0.249714 0.558685 0.000000
0.289343 0.558685 0.000000
0.328235 0.558685 0.000000
0.366482 0.558685 0.000000
0.404158 0.558685 0.000000
0.441324 0.558685 0.000000
0.478028 0.558685 0.000000
0.514309 0.558685 0.000000
0.550204 0.558685 0.000000
0.585742 0.558685 0.000000
0.620947 0.558685 0.000000
0.655843 0.558685 0.000000
0.690450 0.558685 0.000000
0.724784 0.558685 0.000000
0.758861 0.558685 0.000000
0.792696 0.558685 0.000000
0.826301 0.558685 0.000000
0.859687 0.558685 0.000000
0.892865 0.558685 0.000000
0.925845 0.558685 0.000000
0.958635 0.558685 0.000000
0.991243 0.558685 0.000000
1.000000 0.558685 0.000000
1.000000 0.558685 0.000000
1.000000 0.558685 0.000000
1.000000 0.558685 0.000000
0.000000 0.593501 0.000000
0.000000 0.593501 0.000000
0.033679 0.593501 0.000000
0.080456 0.593501 0.000000
0.124906 0.593501 0.000000
0.167701 0.593501 0.000000
0.209223 0.593501 0.000000
0.249714 0.593501 0.000000
0.289343 0.593501 0.000000
0.328235 0.593501 0.000000
0.366482 0.593501 0.000000
0.404158 0.593501 0.000000
0.441324 0.593501 0.000000
0.478028 0.593501 0.000000
0.514309 0.593501 0.000000
0.550204 0.593501 0.000000
0.585742 0.593501 0.000000
0.620947 0.593501 0.000000
0.655843 0.593501 0.000000
0.690450 0.593501 0.000000
0.724784 0.593501 0.000000
0.758861 0.593501 0.000000
0.792696 0.593501 0.000000
0.826301 0.593501 0.000000
0.859687 0.593501 0.000000
0.892865 0.593501 0.000000
0.925845 0.593501 0.000000
0.958635 0.593501 0.000000
0.991243 0.593501 0.000000
1.000000 0.593501 0.000000
1.000000 0.593501 0.000000
1.000000 0.593501 0.000000
1.000000 0.593501 0.000000
0.000000 0.625539 0.000000
0.000000 0.625539 0.000000
0.033679 0.625539 0.000000
0.080456 0.625539 0.000000
0.124906 0.625539 0.000000
0.167701 0.625539 0.000000
0.209223 0.625539 0.000000
0.249714 0.625539 0.000000
0.289343 0.625539 0.000000
0.328235 0.625539 0.000000
0.366482 0.625539 0.000000
0.404158 0.625539 0.000000
0.441324 0.625539 0.000000
0.478028 0.625539 0.000000
0.514309 0.625539 0.000000
0.550204 0.625539 0.000000
0.585742 0.625539 0.000000
0.620947 0.625539 0.000000
0.655843 0.625539 0.000000
0.690450 0.625539 0.000000
0.724784 0.625539 0.000000
0.758861 0.625539 0.000000
0.792696 0.625539 0.000000
0.826301 0.625539 0.000000
0.859687 0.625539 0.000000
0.892865 0.625539 0.000000
0.925845 0.625539 0.000000
0.958635 0.625539 0.000000
0.991243 0.625539 0.000000
1.000000 0.625539 0.000000
1.000000 0.625539 0.000000
1.000000 0.625539 0.000000
1.000000 0.625539 0.000000
0.000000 0.657755 0.000000
0.000000 0.657755 0.000000
0.033679 0.657755 0.000000
0.080456 0.657755 0.000000
0.124906 0.657755 0.000000
0.167701 0.657755 0.000000
0.209223 0.657755 0.000000
0.249714 0.657755 0.000000
0.289343 0.657755 0.000000
0.328235 0.657755 0.000000
0.366482 0.657755 0.000000
0.404158 0.657755 0.000000
0.441324 0.657755 0.000000
0.478028 0.657755 0.000000
0.514309 0.657755 0.000000
0.550204 0.657755 0.000000
0.585742 0.657755 0.000000
0.620947 0.657755 0.000000
0.655843 0.657755 0.000000
0.690450 0.657755 0.000000
0.724784 0.657755 0.000000
0.758861 0.657755 0.000000
0.792696 0.657755 0.000000
0.826301 0.657755 0.000000
0.859687 0.657755 0.000000
0.892865 0.657755 0.000000
0.925845 0.657755 0.000000
0.958635 0.657755 0.000000
0.991243 0.657755 0.000000
1.000000 0.657755 0.000000
1.000000 0.657755 0.000000
1.000000 0.657755 0.000000
1.000000 0.657755 0.000000
0.000000 0.690141 0.000000
0.000000 0.690141 0.000000
0.033679 0.690141 0.000000
0.080456 0.690141 0.000000
0.124906 0.690141 0.000000
0.167701 0.690141 0.000000
0.209223 0.690141 0.000000
0.249714 0.690141 0.000000
0.289343 0.690141 0.000000
0.328235 0.690141 0.000000
0.366482 0.690141 0.000000
0.404158 0.690141 0.000000
0.441324 0.690141 0.000000
0.478028 0.690141 0.000000
0.514309 0.690141 0.000000
0.550204 0.690141 0.000000
0.585742 0.690141 0.000000
0.620947 0.690141 0.000000
0.655843 0.690141 0.000000
0.690450 0.690141 0.000000
0.724784 0.690141 0.000000
0.758861 0.690141 0.000000
0.792696 0.690141 0.000000
0.826301 0.690141 0.000000
0.859687 0.690141 0.000000
0.892865 0.690141 0.000000
0.925845 0.690141 0.000000
0.958635 0.690141 0.000000
0.991243 0.690141 0.000000
1.000000 0.690141 0.000000
1.000000 0.690141 0.000000
1.000000 0.690141 0.000000
1.000000 0.690141 0.000000
0.000000 0.722690 0.000000
0.000000 0.722690 0.000000
0.033679 0.722690 0.000000
0.080456 0.722690 0.000000
0.124906 0.722690 0.000000
0.167701 0.722690 0.000000
0.209223 0.722690 0.000000
0.249714 0.722690 0.000000
0.289343 0.722690 0.000000
0.328235 0.722690 0.000000
0.366482 0.722690 0.000000
0.404158 0.722690 0.000000
0.441324 0.722690 0.000000
0.478028 0.722690 0.000000
0.514309 0.722690 0.000000
0.550204 0.722690 0.000000
0.585742 0.722690 0.000000
0.620947 0.722690 0.000000
0.655843 0.722690 0.000000
0.690450 0.722690 0.000000
0.724784 0.722690 0.000000
0.758861 0.722690 0.000000
0.792696 0.722690 0.000000
0.826301 0.722690 0.000000
0.859687 0.722690 0.000000
0.892865 0.722690 0.000000
0.925845 0.722690 0.000000
0.958635 0.722690 0.000000
0.991243 0.722690 0.000000
1.000000 0.722690 0.000000
1.000000 0.722690 0.000000
1.000000 0.722690 0.000000
1.000000 0.722690 0.000000
0.000000 0.755394 0.000000
0.000000 0.755394 0.000000
0.033679 0.755394 0.000000
0.080456 0.755394 0.000000
0.124906 0.755394 0.000000
0.167701 0.755394 0.000000
0.209223 0.755394 0.000000
0.249714 0.755394 0.000000
0.289343 0.755394 0.000000
0.328235 0.755394 0.000000
0.366482 0.755394 0.000000
0.404158 0.755394 0.000000
0.441324 0.755394 0.000000
0.478028 0.755394 0.000000
0.514309 0.755394 0.000000
0.550204 0.755394 0.000000
0.585742 0.755394 0.000000
0.620947 0.755394 0.000000
0.655843 0.755394 0.000000
0.690450 0.755394 0.000000
0.724784 0.755394 0.000000
0.758861 0.755394 0.000000
0.792696 0.755394 0.000000
0.826301 0.755394 0.000000
0.859687 0.755394 0.000000
0.892865 0.755394 0.000000
0.925845 0.755394 0.000000
0.958635 0.755394 0.000000
0.991243 0.755394 0.000000
1.000000 0.755394 0.000000
1.000000 0.755394 0.000000
1.000000 0.755394 0.000000
1.000000 0.755394 0.000000
0.000000 0.788248 0.000000
0.000000 0.788248 0.000000
0.033679 0.788248 0.000000
0.080456 0.788248 0.000000
0.124906 0.788248 0.000000
0.167701 0.788248 0.000000
0.209223 0.788248 0.000000
0.249714 0.788248 0.000000
0.289343 0.788248 0.000000
0.328235 0.788248 0.000000
0.366482 0.788248 0.000000
0.404158 0.788248 0.000000
0.441324 0.788248 0.000000
0.478028 0.788248 0.000000
0.514309 0.788248 0.000000
0.550204 0.788248 0.000000
0.585742 0.788248 0.000000
0.620947 0.788248 0.000000
0.655843 0.788248 0.000000
0.690450 0.788248 0.000000
0.724784 0.788248 0.000000
0.758861 0.788248 0.000000
0.792696 0.788248 0.000000
0.826301 0.788248 0.000000
0.859687 0.788248 0.000000
0.892865 0.788248 0.000000
0.925845 0.788248 0.000000
0.958635 0.788248 0.000000
0.991243 0.788248 0.000000
1.000000 0.788248 0.000000
1.000000 0.788248 0.000000
1.000000 0.788248 0.000000
1.000000 0.788248 0.000000
0.000000 0.821244 0.000000
0.000000 0.821244 0.000000
0.033679 0.821244 0.000000
0.080456 0.821244 0.000000
0.124906 0.821244 0.000000
0.167701 0.821244 0.000000
0.209223 0.821244 0.000000
0.249714 0.821244 0.000000
0.289343 0.821244 0.000000
0.328235 0.821244 0.000000
0.366482 0.821244 0.000000
0.404158 0.821244 0.000000
0.441324 0.821244 0.000000
0.478028 0.821244 0.000000
0.514309 0.821244 0.000000
0.550204 0.821244 0.000000
0.585742 0.821244 0.000000
0.620947 0.821244 0.000000
0.655843 0.821244 0.000000
0.690450 0.821244 0.000000
0.724784 0.821244 0.000000
0.758861 0.821244 0.000000
0.792696 0.821244 0.000000
0.826301 0.821244 0.000000
0.859687 0.821244 0.000000
0.892865 0.821244 0.000000
0.925845 0.821244 0.000000
0.958635 0.821244 0.000000
0.991243 0.821244 0.000000
1.000000 0.821244 0.000000
1.000000 0.821244 0.000000
1.000000 0.821244 0.000000
1.000000 0.821244 0.000000
0.000000 0.854378 0.000000
0.000000 0.854378 0.000000
0.033679 0.854378 0.000000
0.080456 0.854378 0.000000
0.124906 0.854378 0.000000
0.167701 0.854378 0.000000
0.209223 0.854378 0.000000
0.249714 0.854378 0.000000
0.289343 0.854378 0.000000
0.328235 0.854378 0.000000
0.366482 0.854378 0.000000
0.404158 0.854378 0.000000
0.441324 0.854378 0.000000
0.478028 0.854378 0.000000
0.514309 0.854378 0.000000
0.550204 0.854378 0.000000
0.585742 0.854378 0.000000
0.620947 0.854378 0.000000
0.655843 0.854378 0.000000
0.690450 0.854378 0.000000
0.724784 0.854378 0.000000
0.758861 0.854378 0.000000
0.792696 0.854378 0.000000
0.826301 0.854378 0.000000
0.859687 0.854378 0.000000
0.892865 0.854378 0.000000
0.925845 0.854378 0.000000
0.958635 0.854378 0.000000
0.991243 0.854378 0.000000
1.000000 0.854378 0.000000
1.000000 0.854378 0.000000
1.000000 0.854378 0.000000
1.000000 0.854378 0.000000
0.000000 0.887645 0.000000
0.000000 0.887645 0.000000
0.033679 0.887645 0.000000
0.080456 0.887645 0.000000
0.124906 0.887645 0.000000
0.167701 0.887645 0.000000
0.209223 0.887645 0.000000
0.249714 0.887645 0.000000
0.289343 0.887645 0.000000
0.328235 0.887645 0.000000
0.366482 0.887645 0.000000
0.404158 0.887645 0.000000
0.441324 0.887645 0.000000
0.478028 0.887645 0.000000
0.514309 0.887645 0.000000
0.550204 0.887645 0.000000
0.585742 0.887645 0.000000
0.620947 0.887645 0.000000
0.655843 0.887645 0.000000
0.690450 0.887645 0.000000
0.724784 0.887645 0.000000
0.758861 0.887645 0.000000
0.792696 0.887645 0.000000
0.826301 0.887645 0.000000
0.859687 0.887645 0.000000
0.892865 0.887645 0.000000
0.925845 0.887645 0.000000
0.958635 0.887645 0.000000
0.991243 0.887645 0.000000
