assets/luts/cross_process.cube
TITLE "Cross Process"
LUT_3D_SIZE 5
0.000000 0.000000 0.000000
0.289343 0.000000 0.000000
0.585742 0.000000 0.000000
0.859687 0.000000 0.000000
1.000000 0.000000 0.000000
0.000000 0.257542 0.000000
0.289343 0.257542 0.000000
0.585742 0.257542 0.000000
0.859687 0.257542 0.000000
1.000000 0.257542 0.000000
0.000000 0.558685 0.000000
0.289343 0.558685 0.000000
0.585742 0.558685 0.000000
0.859687 0.558685 0.000000
1.000000 0.558685 0.000000
0.000000 0.821244 0.000000
0.289343 0.821244 0.000000
0.585742 0.821244 0.000000
0.859687 0.821244 0.000000
1.000000 0.821244 0.000000
0.000000 1.000000 0.000000
0.289343 1.000000 0.000000
0.585742 1.000000 0.000000
0.859687 1.000000 0.000000
1.000000 1.000000 0.000000
0.000000 0.000000 0.037179
0.289343 0.000000 0.037179
0.585742 0.000000 0.037179
0.859687 0.000000 0.037179
1.000000 0.000000 0.037179
0.000000 0.257542 0.037179
0.289343 0.257542 0.037179
0.585742 0.257542 0.037179
0.859687 0.257542 0.037179
1.000000 0.257542 0.037179
0.000000 0.558685 0.037179
0.289343 0.558685 0.037179
0.585742 0.558685 0.037179
0.859687 0.558685 0.037179
1.000000 0.558685 0.037179
0.000000 0.821244 0.037179
0.289343 0.821244 0.037179
0.585742 0.821244 0.037179
0.859687 0.821244 0.037179
1.000000 0.821244 0.037179
0.000000 1.000000 0.037179
0.289343 1.000000 0.037179
0.585742 1.000000 0.037179
0.859687 1.000000 0.037179
1.000000 1.000000 0.037179
0.000000 0.000000 0.314545
0.289343 0.000000 0.314545
0.585742 0.000000 0.314545
0.859687 0.000000 0.314545
1.000000 0.000000 0.314545
0.000000 0.257542 0.314545
0.289343 0.257542 0.314545
0.585742 0.257542 0.314545
0.859687 0.257542 0.314545
1.000000 0.257542 0.314545
0.000000 0.558685 0.314545
0.289343 0.558685 0.314545
0.585742 0.558685 0.314545
0.859687 0.558685 0.314545
1.000000 0.558685 0.314545
0.000000 0.821244 0.314545
0.289343 0.821244 0.314545
0.585742 0.821244 0.314545
0.859687 0.821244 0.314545
1.000000 0.821244 0.314545
0.000000 1.000000 0.314545
0.289343 1.000000 0.314545
0.585742 1.000000 0.314545
0.859687 1.000000 0.314545
1.000000 1.000000 0.314545
0.000000 0.000000 0.638684
0.289343 0.000000 0.638684
0.585742 0.000000 0.638684
0.859687 0.000000 0.638684
1.000000 0.000000 0.638684
0.000000 0.257542 0.638684
0.289343 0.257542 0.638684
0.585742 0.257542 0.638684
0.859687 0.257542 0.638684
1.000000 0.257542 0.638684
0.000000 0.558685 0.638684
0.289343 0.558685 0.638684
0.585742 0.558685 0.638684
0.859687 0.558685 0.638684
1.000000 0.558685 0.638684
0.000000 0.821244 0.638684
0.289343 0.821244 0.638684
0.585742 0.821244 0.638684
0.859687 0.821244 0.638684
1.000000 0.821244 0.638684
0.000000 1.000000 0.638684
0.289343 1.000000 0.638684
0.585742 1.000000 0.638684
0.859687 1.000000 0.638684
1.000000 1.000000 0.638684
0.000000 0.000000 0.997500
0.289343 0.000000 0.997500
0.585742 0.000000 0.997500
0.859687 0.000000 0.997500
1.000000 0.000000 0.997500
0.000000 0.257542 0.997500
0.289343 0.257542 0.997500
0.585742 0.257542 0.997500
0.859687 0.257542 0.997500
1.000000 0.257542 0.997500
0.000000 0.558685 0.997500
0.289343 0.558685 0.997500
0.585742 0.558685 0.997500
0.859687 0.558685 0.997500
1.000000 0.558685 0.997500
0.000000 0.821244 0.997500
0.289343 0.821244 0.997500
0.585742 0.821244 0.997500
0.859687 0.821244 0.997500
1.000000 0.821244 0.997500
0.000000 1.000000 0.997500
0.289343 1.000000 0.997500
0.585742 1.000000 0.997500
0.859687 1.000000 0.997500
1.000000 1.000000 0.997500
