assets/luts/film_noir.cube
TITLE "Film Noir"
LUT_3D_SIZE 9
0.000000 0.000000 0.000000
0.000000 0.000000 0.000000
0.000000 0.000000 0.000000
0.016481 0.000000 0.000000
0.111975 0.000000 0.000000
0.207469 0.000000 0.000000
0.302962 0.000000 0.000000
0.398456 0.004706 0.034706
0.493950 0.043950 0.073950
0.000000 0.000000 0.000000
0.000000 0.000000 0.000000
0.000000 0.000000 0.000000
0.093525 0.000000 0.000000
0.189019 0.020269 0.000000
0.284512 0.059512 0.033262
0.380006 0.098756 0.072506
0.475500 0.138000 0.081750
0.570994 0.177244 0.120994
0.000000 0.000000 0.000000
0.000000 0.035831 0.000000
0.075075 0.075075 0.000000
0.170569 0.114319 0.031819
0.266062 0.153562 0.071062
0.361556 0.192806 0.080306
0.457050 0.232050 0.119550
0.552544 0.271294 0.158794
0.648037 0.310537 0.198037
0.000000 0.129881 0.000000
0.056625 0.169125 0.030375
0.152119 0.208369 0.069619
0.247612 0.247612 0.078862
0.343106 0.286856 0.118106
0.438600 0.326100 0.157350
0.534094 0.365344 0.196594
0.629588 0.404587 0.235837
0.725081 0.443831 0.275081
0.038175 0.263175 0.068175
0.133669 0.302419 0.077419
0.229162 0.341662 0.116662
0.324656 0.380906 0.155906
0.420150 0.420150 0.195150
0.515644 0.459394 0.234394
0.611137 0.498637 0.273637
0.706631 0.537881 0.312881
0.802125 0.577125 0.352125
0.115219 0.396469 0.115219
0.210712 0.435712 0.154462
0.306206 0.474956 0.193706
0.401700 0.514200 0.232950
0.497194 0.553444 0.272194
0.592687 0.592687 0.311437
0.688181 0.631931 0.350681
0.783675 0.671175 0.389925
0.879169 0.710419 0.429169
0.192262 0.529762 0.192262
0.287756 0.569006 0.231506
0.383250 0.608250 0.270750
0.478744 0.647494 0.309994
0.574237 0.686738 0.349237
0.669731 0.725981 0.388481
0.765225 0.765225 0.427725
0.860719 0.804469 0.466969
0.956212 0.843712 0.506212
0.269306 0.663056 0.269306
0.364800 0.702300 0.308550
0.460294 0.741544 0.347794
0.555787 0.780788 0.387037
0.651281 0.820031 0.426281
0.746775 0.859275 0.465525
0.842269 0.898519 0.504769
0.937762 0.937762 0.544012
1.000000 0.977006 0.583256
0.346350 0.796350 0.346350
0.441844 0.835594 0.385594
0.537337 0.874837 0.424837
0.632831 0.914081 0.464081
0.728325 0.953325 0.503325
0.823819 0.992569 0.542569
0.919312 1.000000 0.581813
1.000000 1.000000 0.621056
1.000000 1.000000 0.660300
0.000000 0.000000 0.000000
0.000000 0.000000 0.000000
0.000000 0.000000 0.000000
0.031444 0.000000 0.000000
0.126937 0.000000 0.000000
0.222431 0.000000 0.027431
0.317925 0.000000 0.066675
0.413419 0.019669 0.105919
0.508912 0.058912 0.115162
0.000000 0.000000 0.000000
0.000000 0.000000 0.000000
0.012994 0.000000 0.000000
0.108488 0.000000 0.025988
0.203981 0.035231 0.065231
0.299475 0.074475 0.104475
0.394969 0.113719 0.113719
0.490462 0.152962 0.152962
0.585956 0.192206 0.192206
0.000000 0.011550 0.000000
0.000000 0.050794 0.024544
0.090037 0.090037 0.063787
0.185531 0.129281 0.103031
0.281025 0.168525 0.112275
0.376519 0.207769 0.151519
0.472012 0.247012 0.190762
0.567506 0.286256 0.230006
0.663000 0.325500 0.269250
0.000000 0.144844 0.062344
0.071587 0.184087 0.101587
0.167081 0.223331 0.110831
0.262575 0.262575 0.150075
0.358069 0.301819 0.189319
0.453562 0.341062 0.228562
0.549056 0.380306 0.267806
0.644550 0.419550 0.307050
0.740044 0.458794 0.346294
0.053137 0.278137 0.109387
0.148631 0.317381 0.148631
0.244125 0.356625 0.187875
0.339619 0.395869 0.227119
0.435112 0.435112 0.266362
0.530606 0.474356 0.305606
0.626100 0.513600 0.344850
0.721594 0.552844 0.384094
0.817087 0.592087 0.423337
0.130181 0.411431 0.186431
0.225675 0.450675 0.225675
0.321169 0.489919 0.264919
0.416662 0.529162 0.304162
0.512156 0.568406 0.343406
0.607650 0.607650 0.382650
0.703144 0.646894 0.421894
0.798637 0.686137 0.461137
0.894131 0.725381 0.500381
0.207225 0.544725 0.263475
0.302719 0.583969 0.302719
0.398212 0.623212 0.341962
0.493706 0.662456 0.381206
0.589200 0.701700 0.420450
0.684694 0.740944 0.459694
0.780187 0.780187 0.498937
0.875681 0.819431 0.538181
0.971175 0.858675 0.577425
0.284269 0.678019 0.340519
0.379762 0.717262 0.379762
0.475256 0.756506 0.419006
0.570750 0.795750 0.458250
0.666244 0.834994 0.497494
0.761737 0.874238 0.536737
0.857231 0.913481 0.575981
0.952725 0.952725 0.615225
1.000000 0.991969 0.654469
0.361312 0.811312 0.417562
0.456806 0.850556 0.456806
0.552300 0.889800 0.496050
0.647794 0.929044 0.535294
0.743287 0.968287 0.574537
0.838781 1.000000 0.613781
0.934275 1.000000 0.653025
1.000000 1.000000 0.692269
1.000000 1.000000 0.731512
0.000000 0.000000 0.000000
0.000000 0.000000 0.000000
0.000000 0.000000 0.000000
0.046406 0.000000 0.020156
0.141900 0.000000 0.059400
0.237394 0.000000 0.098644
0.332887 0.000000 0.137888
0.428381 0.034631 0.177131
0.523875 0.073875 0.186375
0.000000 0.000000 0.000000
0.000000 0.000000 0.018712
0.027956 0.000000 0.057956
0.123450 0.010950 0.097200
0.218944 0.050194 0.136444
0.314437 0.089437 0.175687
0.409931 0.128681 0.184931
0.505425 0.167925 0.224175
0.600919 0.207169 0.263419
0.000000 0.026512 0.056512
0.009506 0.065756 0.095756
0.105000 0.105000 0.135000
0.200494 0.144244 0.174244
0.295988 0.183488 0.183488
0.391481 0.222731 0.222731
0.486975 0.261975 0.261975
0.582469 0.301219 0.301219
0.677962 0.340462 0.340462
0.000000 0.159806 0.133556
0.086550 0.199050 0.172800
0.182044 0.238294 0.182044
0.277537 0.277537 0.221287
0.373031 0.316781 0.260531
0.468525 0.356025 0.299775
0.564019 0.395269 0.339019
0.659512 0.434512 0.378262
0.755006 0.473756 0.417506
0.068100 0.293100 0.180600
0.163594 0.332344 0.219844
0.259088 0.371588 0.259088
0.354581 0.410831 0.298331
0.450075 0.450075 0.337575
0.545569 0.489319 0.376819
0.641062 0.528562 0.416062
0.736556 0.567806 0.455306
0.832050 0.607050 0.494550
0.145144 0.426394 0.257644
0.240637 0.465637 0.296887
0.336131 0.504881 0.336131
0.431625 0.544125 0.375375
0.527119 0.583369 0.414619
0.622612 0.622612 0.453862
0.718106 0.661856 0.493106
0.813600 0.701100 0.532350
0.909094 0.740344 0.571594
0.222187 0.559687 0.334688
0.317681 0.598931 0.373931
0.413175 0.638175 0.413175
0.508669 0.677419 0.452419
0.604162 0.716662 0.491662
0.699656 0.755906 0.530906
0.795150 0.795150 0.570150
0.890644 0.834394 0.609394
0.986137 0.873637 0.648637
0.299231 0.692981 0.411731
0.394725 0.732225 0.450975
0.490219 0.771469 0.490219
0.585712 0.810712 0.529462
0.681206 0.849956 0.568706
0.776700 0.889200 0.607950
0.872194 0.928444 0.647194
0.967687 0.967687 0.686437
1.000000 1.000000 0.725681
0.376275 0.826275 0.488775
0.471769 0.865519 0.528019
0.567262 0.904762 0.567262
0.662756 0.944006 0.606506
0.758250 0.983250 0.645750
0.853744 1.000000 0.684994
0.949237 1.000000 0.724237
1.000000 1.000000 0.763481
1.000000 1.000000 0.802725
0.000000 0.000000 0.000000
0.000000 0.000000 0.012881
0.000000 0.000000 0.052125
0.061369 0.000000 0.091369
0.156863 0.000000 0.130612
0.252356 0.000000 0.169856
0.347850 0.010350 0.209100
0.443344 0.049594 0.218344
0.538837 0.088838 0.257587
0.000000 0.000000 0.050681
0.000000 0.000000 0.089925
0.042919 0.000000 0.129169
0.138412 0.025912 0.168412
0.233906 0.065156 0.207656
0.329400 0.104400 0.216900
0.424894 0.143644 0.256144
0.520388 0.182887 0.295387
0.615881 0.222131 0.334631
0.000000 0.041475 0.127725
0.024469 0.080719 0.166969
0.119962 0.119962 0.206212
0.215456 0.159206 0.215456
0.310950 0.198450 0.254700
0.406444 0.237694 0.293944
0.501937 0.276937 0.333187
0.597431 0.316181 0.372431
0.692925 0.355425 0.411675
0.006019 0.174769 0.204769
0.101512 0.214012 0.214012
0.197006 0.253256 0.253256
0.292500 0.292500 0.292500
0.387994 0.331744 0.331744
0.483487 0.370987 0.370987
0.578981 0.410231 0.410231
0.674475 0.449475 0.449475
0.769969 0.488719 0.488719
0.083062 0.308062 0.251812
0.178556 0.347306 0.291056
0.274050 0.386550 0.330300
0.369544 0.425794 0.369544
0.465037 0.465037 0.408787
0.560531 0.504281 0.448031
0.656025 0.543525 0.487275
0.751519 0.582769 0.526519
0.847012 0.622012 0.565762
0.160106 0.441356 0.328856
0.255600 0.480600 0.368100
0.351094 0.519844 0.407344
0.446587 0.559087 0.446587
0.542081 0.598331 0.485831
0.637575 0.637575 0.525075
0.733069 0.676819 0.564319
0.828562 0.716062 0.603562
0.924056 0.755306 0.642806
0.237150 0.574650 0.405900
0.332644 0.613894 0.445144
0.428137 0.653137 0.484387
0.523631 0.692381 0.523631
0.619125 0.731625 0.562875
0.714619 0.770869 0.602119
0.810112 0.810112 0.641362
0.905606 0.849356 0.680606
1.000000 0.888600 0.719850
0.314194 0.707944 0.482944
0.409687 0.747187 0.522187
0.505181 0.786431 0.561431
0.600675 0.825675 0.600675
0.696169 0.864919 0.639919
0.791662 0.904162 0.679162
0.887156 0.943406 0.718406
0.982650 0.982650 0.757650
1.000000 1.000000 0.796894
0.391237 0.841237 0.559987
0.486731 0.880481 0.599231
0.582225 0.919725 0.638475
0.677719 0.958969 0.677719
0.773212 0.998212 0.716962
0.868706 1.000000 0.756206
0.964200 1.000000 0.795450
1.000000 1.000000 0.834694
1.000000 1.000000 0.873937
0.000000 0.000000 0.044850
0.000000 0.000000 0.084094
0.000000 0.000000 0.123338
0.076331 0.000000 0.162581
0.171825 0.000000 0.201825
0.267319 0.000000 0.241069
0.362812 0.025313 0.280312
0.458306 0.064556 0.289556
0.553800 0.103800 0.328800
0.000000 0.000000 0.121894
0.000000 0.000000 0.161137
0.057881 0.001631 0.200381
0.153375 0.040875 0.239625
0.248869 0.080119 0.278869
0.344362 0.119362 0.288112
0.439856 0.158606 0.327356
0.535350 0.197850 0.366600
0.630844 0.237094 0.405844
0.000000 0.056437 0.198937
0.039431 0.095681 0.238181
0.134925 0.134925 0.277425
0.230419 0.174169 0.286669
0.325912 0.213412 0.325912
0.421406 0.252656 0.365156
0.516900 0.291900 0.404400
0.612394 0.331144 0.443644
0.707888 0.370387 0.482887
0.020981 0.189731 0.275981
0.116475 0.228975 0.285225
0.211969 0.268219 0.324469
0.307462 0.307462 0.363712
0.402956 0.346706 0.402956
0.498450 0.385950 0.442200
0.593944 0.425194 0.481444
0.689438 0.464438 0.520688
0.784931 0.503681 0.559931
0.098025 0.323025 0.323025
0.193519 0.362269 0.362269
0.289012 0.401512 0.401512
0.384506 0.440756 0.440756
0.480000 0.480000 0.480000
0.575494 0.519244 0.519244
0.670987 0.558487 0.558487
0.766481 0.597731 0.597731
0.861975 0.636975 0.636975
0.175069 0.456319 0.400069
0.270562 0.495562 0.439312
0.366056 0.534806 0.478556
0.461550 0.574050 0.517800
0.557044 0.613294 0.557044
0.652537 0.652537 0.596287
0.748031 0.691781 0.635531
0.843525 0.731025 0.674775
0.939019 0.770269 0.714019
0.252112 0.589612 0.477112
0.347606 0.628856 0.516356
0.443100 0.668100 0.555600
0.538594 0.707344 0.594844
0.634087 0.746587 0.634087
0.729581 0.785831 0.673331
0.825075 0.825075 0.712575
0.920569 0.864319 0.751819
1.000000 0.903562 0.791063
0.329156 0.722906 0.554156
0.424650 0.762150 0.593400
0.520144 0.801394 0.632644
0.615637 0.840638 0.671888
0.711131 0.879881 0.711131
0.806625 0.919125 0.750375
0.902119 0.958369 0.789619
0.997613 0.997613 0.828862
1.000000 1.000000 0.868106
0.406200 0.856200 0.631200
0.501694 0.895444 0.670444
0.597187 0.934687 0.709687
0.692681 0.973931 0.748931
0.788175 1.000000 0.788175
0.883669 1.000000 0.827419
0.979163 1.000000 0.866663
1.000000 1.000000 0.905906
1.000000 1.000000 0.945150
0.000000 0.000000 0.116062
0.000000 0.000000 0.155306
0.000000 0.000000 0.194550
0.091294 0.000000 0.233794
0.186787 0.000000 0.273038
0.282281 0.001031 0.312281
0.377775 0.040275 0.351525
0.473269 0.079519 0.360769
0.568762 0.118762 0.400012
0.000000 0.000000 0.193106
0.000000 0.000000 0.232350
0.072844 0.016594 0.271594
0.168338 0.055837 0.310837
0.263831 0.095081 0.350081
0.359325 0.134325 0.359325
0.454819 0.173569 0.398569
0.550312 0.212812 0.437812
0.645806 0.252056 0.477056
0.000000 0.071400 0.270150
0.054394 0.110644 0.309394
0.149887 0.149887 0.348637
0.245381 0.189131 0.357881
0.340875 0.228375 0.397125
0.436369 0.267619 0.436369
0.531863 0.306862 0.475612
0.627356 0.346106 0.514856
0.722850 0.385350 0.554100
0.035944 0.204694 0.347194
0.131437 0.243937 0.356437
0.226931 0.283181 0.395681
0.322425 0.322425 0.434925
0.417919 0.361669 0.474169
0.513412 0.400912 0.513412
0.608906 0.440156 0.552656
0.704400 0.479400 0.591900
0.799894 0.518644 0.631144
0.112988 0.337988 0.394238
0.208481 0.377231 0.433481
0.303975 0.416475 0.472725
0.399469 0.455719 0.511969
0.494962 0.494962 0.551212
0.590456 0.534206 0.590456
0.685950 0.573450 0.629700
0.781444 0.612694 0.668944
0.876937 0.651937 0.708188
0.190031 0.471281 0.471281
0.285525 0.510525 0.510525
0.381019 0.549769 0.549769
0.476512 0.589013 0.589013
0.572006 0.628256 0.628256
0.667500 0.667500 0.667500
0.762994 0.706744 0.706744
0.858487 0.745987 0.745987
0.953981 0.785231 0.785231
0.267075 0.604575 0.548325
0.362569 0.643819 0.587569
0.458062 0.683063 0.626812
0.553556 0.722306 0.666056
0.649050 0.761550 0.705300
0.744544 0.800794 0.744544
0.840037 0.840037 0.783787
0.935531 0.879281 0.823031
1.000000 0.918525 0.862275
0.344119 0.737869 0.625369
0.439613 0.777112 0.664613
0.535106 0.816356 0.703856
0.630600 0.855600 0.743100
0.726094 0.894844 0.782344
0.821587 0.934087 0.821587
0.917081 0.973331 0.860831
1.000000 1.000000 0.900075
1.000000 1.000000 0.939319
0.421162 0.871162 0.702412
0.516656 0.910406 0.741656
0.612150 0.949650 0.780900
0.707644 0.988894 0.820144
0.803137 1.000000 0.859387
0.898631 1.000000 0.898631
0.994125 1.000000 0.937875
1.000000 1.000000 0.977119
1.000000 1.000000 1.000000
0.000000 0.000000 0.187275
0.000000 0.000000 0.226519
0.010762 0.000000 0.265763
0.106256 0.000000 0.305006
0.201750 0.000000 0.344250
0.297244 0.015994 0.383494
0.392738 0.055238 0.392738
0.488231 0.094481 0.431981
0.583725 0.133725 0.471225
0.000000 0.000000 0.264319
0.000000 0.000000 0.303562
0.087806 0.031556 0.342806
0.183300 0.070800 0.382050
0.278794 0.110044 0.391294
0.374287 0.149287 0.430537
0.469781 0.188531 0.469781
0.565275 0.227775 0.509025
0.660769 0.267019 0.548269
0.000000 0.086362 0.341363
0.069356 0.125606 0.380606
0.164850 0.164850 0.389850
0.260344 0.204094 0.429094
0.355837 0.243337 0.468337
0.451331 0.282581 0.507581
0.546825 0.321825 0.546825
0.642319 0.361069 0.586069
0.737812 0.400312 0.625312
0.050906 0.219656 0.388406
0.146400 0.258900 0.427650
0.241894 0.298144 0.466894
0.337387 0.337387 0.506138
0.432881 0.376631 0.545381
0.528375 0.415875 0.584625
0.623869 0.455119 0.623869
0.719363 0.494362 0.663112
0.814856 0.533606 0.702356
0.127950 0.352950 0.465450
0.223444 0.392194 0.504694
0.318937 0.431437 0.543937
0.414431 0.470681 0.583181
0.509925 0.509925 0.622425
0.605419 0.549169 0.661669
0.700912 0.588413 0.700912
0.796406 0.627656 0.740156
0.891900 0.666900 0.779400
0.204994 0.486244 0.542494
0.300487 0.525487 0.581737
0.395981 0.564731 0.620981
0.491475 0.603975 0.660225
0.586969 0.643219 0.699469
0.682462 0.682462 0.738712
0.777956 0.721706 0.777956
0.873450 0.760950 0.817200
0.968944 0.800194 0.856444
0.282037 0.619537 0.619537
0.377531 0.658781 0.658781
0.473025 0.698025 0.698025
0.568519 0.737269 0.737269
0.664012 0.776512 0.776512
0.759506 0.815756 0.815756
0.855000 0.855000 0.855000
0.950494 0.894244 0.894244
1.000000 0.933487 0.933487
0.359081 0.752831 0.696581
0.454575 0.792075 0.735825
0.550069 0.831319 0.775069
0.645563 0.870563 0.814312
0.741056 0.909806 0.853556
0.836550 0.949050 0.892800
0.932044 0.988294 0.932044
1.000000 1.000000 0.971287
1.000000 1.000000 1.000000
0.436125 0.886125 0.773625
0.531619 0.925369 0.812869
0.627112 0.964612 0.852112
0.722606 1.000000 0.891356
0.818100 1.000000 0.930600
0.913594 1.000000 0.969844
1.000000 1.000000 1.000000
1.000000 1.000000 1.000000
1.000000 1.000000 1.000000
0.000000 0.000000 0.258487
0.000000 0.000000 0.297731
0.025725 0.000000 0.336975
0.121219 0.000000 0.376219
0.216712 0.000000 0.415462
0.312206 0.030956 0.454706
0.407700 0.070200 0.463950
0.503194 0.109444 0.503194
0.598687 0.148687 0.542438
0.000000 0.000000 0.335531
0.007275 0.007275 0.374775
0.102769 0.046519 0.414019
0.198262 0.085763 0.453263
0.293756 0.125006 0.462506
0.389250 0.164250 0.501750
0.484744 0.203494 0.540994
0.580237 0.242737 0.580237
0.675731 0.281981 0.619481
0.000000 0.101325 0.412575
0.084319 0.140569 0.451819
0.179812 0.179812 0.461062
0.275306 0.219056 0.500306
0.370800 0.258300 0.539550
0.466294 0.297544 0.578794
0.561787 0.336787 0.618038
0.657281 0.376031 0.657281
0.752775 0.415275 0.696525
0.065869 0.234619 0.459619
0.161362 0.273862 0.498862
0.256856 0.313106 0.538106
0.352350 0.352350 0.577350
0.447844 0.391594 0.616594
0.543337 0.430837 0.655838
0.638831 0.470081 0.695081
0.734325 0.509325 0.734325
0.829819 0.548569 0.773569
0.142912 0.367912 0.536663
0.238406 0.407156 0.575906
0.333900 0.446400 0.615150
0.429394 0.485644 0.654394
0.524887 0.524887 0.693638
0.620381 0.564131 0.732881
0.715875 0.603375 0.772125
0.811369 0.642619 0.811369
0.906863 0.681863 0.850612
0.219956 0.501206 0.613706
0.315450 0.540450 0.652950
0.410944 0.579694 0.692194
0.506437 0.618937 0.731437
0.601931 0.658181 0.770681
0.697425 0.697425 0.809925
0.792919 0.736669 0.849169
0.888413 0.775913 0.888413
0.983906 0.815156 0.927656
0.297000 0.634500 0.690750
0.392494 0.673744 0.729994
0.487988 0.712987 0.769238
0.583481 0.752231 0.808481
0.678975 0.791475 0.847725
0.774469 0.830719 0.886969
0.869962 0.869962 0.926212
0.965456 0.909206 0.965456
1.000000 0.948450 1.000000
0.374044 0.767794 0.767794
0.469537 0.807038 0.807038
0.565031 0.846281 0.846281
0.660525 0.885525 0.885525
0.756019 0.924769 0.924769
0.851512 0.964013 0.964013
0.947006 1.000000 1.000000
1.000000 1.000000 1.000000
1.000000 1.000000 1.000000
0.451087 0.901087 0.844838
0.546581 0.940331 0.884081
0.642075 0.979575 0.923325
0.737569 1.000000 0.962569
0.833062 1.000000 1.000000
0.928556 1.000000 1.000000
1.000000 1.000000 1.000000
1.000000 1.000000 1.000000
1.000000 1.000000 1.000000
0.000000 0.000000 0.329700
0.000000 0.000000 0.368944
0.040687 0.000000 0.408187
0.136181 0.000000 0.447431
0.231675 0.006675 0.486675
0.327169 0.045919 0.495919
0.422662 0.085162 0.535162
0.518156 0.124406 0.574406
0.613650 0.163650 0.613650
0.000000 0.000000 0.406744
0.022238 0.022238 0.445987
0.117731 0.061481 0.485231
0.213225 0.100725 0.524475
0.308719 0.139969 0.533719
0.404212 0.179212 0.572962
0.499706 0.218456 0.612206
0.595200 0.257700 0.651450
0.690694 0.296944 0.690694
0.003787 0.116287 0.483787
0.099281 0.155531 0.523031
0.194775 0.194775 0.532275
0.290269 0.234019 0.571519
0.385762 0.273262 0.610762
0.481256 0.312506 0.650006
0.576750 0.351750 0.689250
0.672244 0.390994 0.728494
0.767737 0.430237 0.767737
0.080831 0.249581 0.530831
0.176325 0.288825 0.570075
0.271819 0.328069 0.609319
0.367312 0.367312 0.648562
0.462806 0.406556 0.687806
0.558300 0.445800 0.727050
0.653794 0.485044 0.766294
0.749287 0.524288 0.805538
0.844781 0.563531 0.844781
0.157875 0.382875 0.607875
0.253369 0.422119 0.647119
0.348862 0.461362 0.686362
0.444356 0.500606 0.725606
0.539850 0.539850 0.764850
0.635344 0.579094 0.804094
0.730837 0.618337 0.843337
0.826331 0.657581 0.882581
0.921825 0.696825 0.921825
0.234919 0.516169 0.684919
0.330412 0.555412 0.724162
0.425906 0.594656 0.763406
0.521400 0.633900 0.802650
0.616894 0.673144 0.841894
0.712387 0.712387 0.881137
0.807881 0.751631 0.920381
0.903375 0.790875 0.959625
0.998869 0.830119 0.998869
0.311963 0.649463 0.761962
0.407456 0.688706 0.801206
0.502950 0.727950 0.840450
0.598444 0.767194 0.879694
0.693937 0.806437 0.918937
0.789431 0.845681 0.958181
0.884925 0.884925 0.997425
0.980419 0.924169 1.000000
1.000000 0.963412 1.000000
0.389006 0.782756 0.839006
0.484500 0.822000 0.878250
0.579994 0.861244 0.917494
0.675488 0.900487 0.956738
0.770981 0.939731 0.995981
0.866475 0.978975 1.000000
0.961969 1.000000 1.000000
1.000000 1.000000 1.000000
1.000000 1.000000 1.000000
0.466050 0.916050 0.916050
0.561544 0.955294 0.955294
0.657037 0.994537 0.994537
0.752531 1.000000 1.000000
0.848025 1.000000 1.000000
0.943519 1.000000 1.000000
1.000000 1.000000 1.000000
1.000000 1.000000 1.000000
1.000000 1.000000 1.000000
