assets/luts/film_noir.cube
TITLE "Film Noir"
LUT_3D_SIZE 33
0.000000 0.000000 0.000000
0.000000 0.000000 0.000000
0.000000 0.000000 0.000000
0.000000 0.000000 0.000000
0.000000 0.000000 0.000000
0.000000 0.000000 0.000000
0.000000 0.000000 0.000000
0.000000 0.000000 0.000000
0.000000 0.000000 0.000000
0.000000 0.000000 0.000000
0.000000 0.000000 0.000000
0.000000 0.000000 0.000000
0.016481 0.000000 0.000000
0.040355 0.000000 0.000000
0.064228 0.000000 0.000000
0.088102 0.000000 0.000000
0.111975 0.000000 0.000000
0.135848 0.000000 0.000000
0.159722 0.000000 0.000000
0.183595 0.000000 0.000000
0.207469 0.000000 0.000000
0.231342 0.000000 0.000000
0.255216 0.000000 0.000000
0.279089 0.000000 0.000000
0.302962 0.000000 0.000000
0.326836 0.000000 0.005273
0.350709 0.000000 0.015084
0.374583 0.000000 0.024895
0.398456 0.004706 0.034706
0.422330 0.014517 0.044517
0.446203 0.024328 0.054328
0.470077 0.034139 0.064139
0.493950 0.043950 0.073950
0.000000 0.000000 0.000000
0.000000 0.000000 0.000000
0.000000 0.000000 0.000000
0.000000 0.000000 0.000000
0.000000 0.000000 0.000000
0.000000 0.000000 0.000000
0.000000 0.000000 0.000000
0.000000 0.000000 0.000000
0.000000 0.000000 0.000000
0.000000 0.000000 0.000000
0.000000 0.000000 0.000000
0.011869 0.000000 0.000000
0.035742 0.000000 0.000000
0.059616 0.000000 0.000000
0.083489 0.000000 0.000000
0.107362 0.000000 0.000000
0.131236 0.000000 0.000000
0.155109 0.000000 0.000000
0.178983 0.000000 0.000000
0.202856 0.000000 0.000000
0.226730 0.000000 0.000000
0.250603 0.000000 0.000000
0.274477 0.000000 0.000000
0.298350 0.000000 0.004912
0.322223 0.000000 0.014723
0.346097 0.008597 0.024534
0.369970 0.018408 0.034345
0.393844 0.028219 0.044156
0.417717 0.038030 0.053967
0.441591 0.047841 0.063778
0.465464 0.057652 0.073589
0.489337 0.067462 0.053400
0.513211 0.077273 0.063211
0.000000 0.000000 0.000000
0.000000 0.000000 0.000000
0.000000 0.000000 0.000000
0.000000 0.000000 0.000000
0.000000 0.000000 0.000000
0.000000 0.000000 0.000000
0.000000 0.000000 0.000000
0.000000 0.000000 0.000000
0.000000 0.000000 0.000000
0.000000 0.000000 0.000000
0.007256 0.000000 0.000000
0.031130 0.000000 0.000000
0.055003 0.000000 0.000000
0.078877 0.000000 0.000000
0.102750 0.000000 0.000000
0.126623 0.000000 0.000000
0.150497 0.000000 0.000000
0.174370 0.000000 0.000000
0.198244 0.000000 0.000000
0.222117 0.000000 0.000000
0.245991 0.000000 0.000000
0.269864 0.002677 0.004552
0.293737 0.012487 0.014362
0.317611 0.022298 0.024173
0.341484 0.032109 0.033984
0.365358 0.041920 0.043795
0.389231 0.051731 0.053606
0.413105 0.061542 0.063417
0.436978 0.071353 0.073228
0.460852 0.081164 0.053039
0.484725 0.090975 0.062850
0.508598 0.100786 0.072661
0.532472 0.110597 0.082472
0.000000 0.000000 0.000000
0.000000 0.000000 0.000000
0.000000 0.000000 0.000000
0.000000 0.000000 0.000000
0.000000 0.000000 0.000000
0.000000 0.000000 0.000000
0.000000 0.000000 0.000000
0.000000 0.000000 0.000000
0.000000 0.000000 0.000000
0.002644 0.000000 0.000000
0.026517 0.000000 0.000000
0.050391 0.000000 0.000000
0.074264 0.000000 0.000000
0.098137 0.000000 0.000000
0.122011 0.000000 0.000000
0.145884 0.000000 0.000000
0.169758 0.000000 0.000000
0.193631 0.000000 0.000000
0.217505 0.006567 0.000000
0.241378 0.016378 0.004191
0.265252 0.026189 0.014002
0.289125 0.036000 0.023812
0.312998 0.045811 0.033623
0.336872 0.055622 0.043434
0.360745 0.065433 0.053245
0.384619 0.075244 0.063056
0.408492 0.085055 0.072867
0.432366 0.094866 0.052678
0.456239 0.104677 0.062489
0.480112 0.114487 0.072300
0.503986 0.124298 0.082111
0.527859 0.134109 0.091922
0.551733 0.143920 0.101733
0.000000 0.000000 0.000000
0.000000 0.000000 0.000000
0.000000 0.000000 0.000000
0.000000 0.000000 0.000000
0.000000 0.000000 0.000000
0.000000 0.000000 0.000000
0.000000 0.000000 0.000000
0.000000 0.000000 0.000000
0.000000 0.000000 0.000000
0.021905 0.000000 0.000000
0.045778 0.000000 0.000000
0.069652 0.000000 0.000000
0.093525 0.000000 0.000000
0.117398 0.000000 0.000000
0.141272 0.000647 0.000000
0.165145 0.010458 0.000000
0.189019 0.020269 0.000000
0.212892 0.030080 0.003830
0.236766 0.039891 0.013641
0.260639 0.049702 0.023452
0.284512 0.059512 0.033262
0.308386 0.069323 0.043073
0.332259 0.079134 0.052884
0.356133 0.088945 0.062695
0.380006 0.098756 0.072506
0.403880 0.108567 0.052317
0.427753 0.118378 0.062128
0.451627 0.128189 0.071939
0.475500 0.138000 0.081750
0.499373 0.147811 0.091561
0.523247 0.157622 0.101372
0.547120 0.167433 0.111183
0.570994 0.177244 0.120994
0.000000 0.000000 0.000000
0.000000 0.000000 0.000000
0.000000 0.000000 0.000000
0.000000 0.000000 0.000000
0.000000 0.000000 0.000000
0.000000 0.000000 0.000000
0.000000 0.000000 0.000000
0.000000 0.000000 0.000000
0.017292 0.000000 0.000000
0.041166 0.000000 0.000000
0.065039 0.000000 0.000000
0.088912 0.004537 0.000000
0.112786 0.014348 0.000000
0.136659 0.024159 0.000000
0.160533 0.033970 0.000000
0.184406 0.043781 0.003469
0.208280 0.053592 0.013280
0.232153 0.063403 0.023091
0.256027 0.073214 0.032902
0.279900 0.083025 0.042712
0.303773 0.092836 0.052523
0.327647 0.102647 0.062334
0.351520 0.112458 0.072145
0.375394 0.122269 0.051956
0.399267 0.132080 0.061767
0.423141 0.141891 0.071578
0.447014 0.151702 0.081389
0.470887 0.161512 0.091200
0.494761 0.171323 0.101011
0.518634 0.181134 0.110822
0.542508 0.190945 0.120633
0.566381 0.200756 0.130444
0.590255 0.210567 0.140255
0.000000 0.000000 0.000000
0.000000 0.000000 0.000000
0.000000 0.000000 0.000000
0.000000 0.000000 0.000000
0.000000 0.000000 0.000000
0.000000 0.000000 0.000000
0.000000 0.000000 0.000000
0.012680 0.000000 0.000000
0.036553 0.008428 0.000000
0.060427 0.018239 0.000000
0.084300 0.028050 0.000000
0.108173 0.037861 0.000000
0.132047 0.047672 0.000000
0.155920 0.057483 0.003108
0.179794 0.067294 0.012919
0.203667 0.077105 0.022730
0.227541 0.086916 0.032541
0.251414 0.096727 0.042352
0.275287 0.106537 0.052162
0.299161 0.116348 0.061973
0.323034 0.126159 0.071784
0.346908 0.135970 0.051595
0.370781 0.145781 0.061406
0.394655 0.155592 0.071217
0.418528 0.165403 0.081028
0.442402 0.175214 0.090839
0.466275 0.185025 0.100650
0.490148 0.194836 0.110461
0.514022 0.204647 0.120272
0.537895 0.214458 0.130083
0.561769 0.224269 0.139894
0.585642 0.234080 0.149705
0.609516 0.243891 0.159516
0.000000 0.000000 0.000000
0.000000 0.000000 0.000000
0.000000 0.000000 0.000000
0.000000 0.000000 0.000000
0.000000 0.002508 0.000000
0.000000 0.012319 0.000000
0.008067 0.022130 0.000000
0.031941 0.031941 0.000000
0.055814 0.041752 0.000000
0.079687 0.051562 0.000000
0.103561 0.061373 0.000000
0.127434 0.071184 0.002747
0.151308 0.080995 0.012558
0.175181 0.090806 0.022369
0.199055 0.100617 0.032180
0.222928 0.110428 0.041991
0.246802 0.120239 0.051802
0.270675 0.130050 0.061612
0.294548 0.139861 0.071423
0.318422 0.149672 0.051234
0.342295 0.159483 0.061045
0.366169 0.169294 0.070856
0.390042 0.179105 0.080667
0.413916 0.188916 0.090478
0.437789 0.198727 0.100289
0.461662 0.208537 0.110100
0.485536 0.218348 0.119911
0.509409 0.228159 0.129722
0.533283 0.237970 0.139533
0.557156 0.247781 0.149344
0.581030 0.257592 0.159155
0.604903 0.267403 0.168966
0.628777 0.277214 0.178777
0.000000 0.000000 0.000000
0.000000 0.006398 0.000000
0.000000 0.016209 0.000000
0.000000 0.026020 0.000000
0.000000 0.035831 0.000000
0.003455 0.045642 0.000000
0.027328 0.055453 0.000000
0.051202 0.065264 0.000000
0.075075 0.075075 0.000000
0.098948 0.084886 0.002386
0.122822 0.094697 0.012197
0.146695 0.104508 0.022008
0.170569 0.114319 0.031819
0.194442 0.124130 0.041630
0.218316 0.133941 0.051441
0.242189 0.143752 0.061252
0.266062 0.153562 0.071062
0.289936 0.163373 0.050873
0.313809 0.173184 0.060684
0.337683 0.182995 0.070495
0.361556 0.192806 0.080306
0.385430 0.202617 0.090117
0.409303 0.212428 0.099928
0.433177 0.222239 0.109739
0.457050 0.232050 0.119550
0.480923 0.241861 0.129361
0.504797 0.251672 0.139172
0.528670 0.261483 0.148983
0.552544 0.271294 0.158794
0.576417 0.281105 0.168605
0.600291 0.290916 0.178416
0.624164 0.300727 0.188227
0.648037 0.310537 0.198037
0.000000 0.029911 0.000000
0.000000 0.039722 0.000000
0.000000 0.049533 0.000000
0.000000 0.059344 0.000000
0.000000 0.069155 0.000000
0.022716 0.078966 0.000000
0.046589 0.088777 0.000000
0.070462 0.098587 0.002025
0.094336 0.108398 0.011836
0.118209 0.118209 0.021647
0.142083 0.128020 0.031458
0.165956 0.137831 0.041269
0.189830 0.147642 0.051080
0.213703 0.157453 0.060891
0.237577 0.167264 0.070702
0.261450 0.177075 0.050512
0.285323 0.186886 0.060323
0.309197 0.196697 0.070134
0.333070 0.206508 0.079945
0.356944 0.216319 0.089756
0.380817 0.226130 0.099567
0.404691 0.235941 0.109378
0.428564 0.245752 0.119189
0.452437 0.255562 0.129000
0.476311 0.265373 0.138811
0.500184 0.275184 0.148622
0.524058 0.284995 0.158433
0.547931 0.294806 0.168244
0.571805 0.304617 0.178055
0.595678 0.314428 0.187866
0.619552 0.324239 0.197677
0.643425 0.334050 0.207487
0.667298 0.343861 0.217298
0.000000 0.063234 0.000000
0.000000 0.073045 0.000000
0.000000 0.082856 0.000000
0.000000 0.092667 0.000000
0.018103 0.102478 0.000000
0.041977 0.112289 0.001664
0.065850 0.122100 0.011475
0.089723 0.131911 0.021286
0.113597 0.141722 0.031097
0.137470 0.151533 0.040908
0.161344 0.161344 0.050719
0.185217 0.171155 0.060530
0.209091 0.180966 0.070341
0.232964 0.190777 0.050152
0.256837 0.200587 0.059962
0.280711 0.210398 0.069773
0.304584 0.220209 0.079584
0.328458 0.230020 0.089395
0.352331 0.239831 0.099206
0.376205 0.249642 0.109017
0.400078 0.259453 0.118828
0.423952 0.269264 0.128639
0.447825 0.279075 0.138450
0.471698 0.288886 0.148261
0.495572 0.298697 0.158072
0.519445 0.308508 0.167883
0.543319 0.318319 0.177694
0.567192 0.328130 0.187505
0.591066 0.337941 0.197316
0.614939 0.347752 0.207127
0.638812 0.357562 0.216937
0.662686 0.367373 0.226748
0.686559 0.377184 0.236559
0.000000 0.096558 0.000000
0.000000 0.106369 0.000000
0.000000 0.116180 0.000000
0.013491 0.125991 0.001303
0.037364 0.135802 0.011114
0.061237 0.145612 0.020925
0.085111 0.155423 0.030736
0.108984 0.165234 0.040547
0.132858 0.175045 0.050358
0.156731 0.184856 0.060169
0.180605 0.194667 0.069980
0.204478 0.204478 0.049791
0.228352 0.214289 0.059602
0.252225 0.224100 0.069412
0.276098 0.233911 0.079223
0.299972 0.243722 0.089034
0.323845 0.253533 0.098845
0.347719 0.263344 0.108656
0.371592 0.273155 0.118467
0.395466 0.282966 0.128278
0.419339 0.292777 0.138089
0.443212 0.302587 0.147900
0.467086 0.312398 0.157711
0.490959 0.322209 0.167522
0.514833 0.332020 0.177333
0.538706 0.341831 0.187144
0.562580 0.351642 0.196955
0.586453 0.361453 0.206766
0.610327 0.371264 0.216577
0.634200 0.381075 0.226387
0.658073 0.390886 0.236198
0.681947 0.400697 0.246009
0.705820 0.410508 0.255820
0.000000 0.129881 0.000000
0.000000 0.139692 0.000942
0.008878 0.149503 0.010753
0.032752 0.159314 0.020564
0.056625 0.169125 0.030375
0.080498 0.178936 0.040186
0.104372 0.188747 0.049997
0.128245 0.198558 0.059808
0.152119 0.208369 0.069619
0.175992 0.218180 0.049430
0.199866 0.227991 0.059241
0.223739 0.237802 0.069052
0.247612 0.247612 0.078862
0.271486 0.257423 0.088673
0.295359 0.267234 0.098484
0.319233 0.277045 0.108295
0.343106 0.286856 0.118106
0.366980 0.296667 0.127917
0.390853 0.306478 0.137728
0.414727 0.316289 0.147539
0.438600 0.326100 0.157350
0.462473 0.335911 0.167161
0.486347 0.345722 0.176972
0.510220 0.355533 0.186783
0.534094 0.365344 0.196594
0.557967 0.375155 0.206405
0.581841 0.384966 0.216216
0.605714 0.394777 0.226027
0.629588 0.404587 0.235837
0.653461 0.414398 0.245648
0.677334 0.424209 0.255459
0.701208 0.434020 0.265270
0.725081 0.443831 0.275081
0.000000 0.163205 0.010392
0.004266 0.173016 0.020203
0.028139 0.182827 0.030014
0.052012 0.192637 0.039825
0.075886 0.202448 0.049636
0.099759 0.212259 0.059447
0.123633 0.222070 0.069258
0.147506 0.231881 0.049069
0.171380 0.241692 0.058880
0.195253 0.251503 0.068691
0.219127 0.261314 0.078502
0.243000 0.271125 0.088312
0.266873 0.280936 0.098123
0.290747 0.290747 0.107934
0.314620 0.300558 0.117745
0.338494 0.310369 0.127556
0.362367 0.320180 0.137367
0.386241 0.329991 0.147178
0.410114 0.339802 0.156989
0.433987 0.349612 0.166800
0.457861 0.359423 0.176611
0.481734 0.369234 0.186422
0.505608 0.379045 0.196233
0.529481 0.388856 0.206044
0.553355 0.398667 0.215855
0.577228 0.408478 0.225666
0.601102 0.418289 0.235477
0.624975 0.428100 0.245287
0.648848 0.437911 0.255098
0.672722 0.447722 0.264909
0.696595 0.457533 0.274720
0.720469 0.467344 0.284531
0.744342 0.477155 0.294342
0.000000 0.196528 0.029653
0.023527 0.206339 0.039464
0.047400 0.216150 0.049275
0.071273 0.225961 0.059086
0.095147 0.235772 0.068897
0.119020 0.245583 0.048708
0.142894 0.255394 0.058519
0.166767 0.265205 0.068330
0.190641 0.275016 0.078141
0.214514 0.284827 0.087952
0.238387 0.294637 0.097762
0.262261 0.304448 0.107573
0.286134 0.314259 0.117384
0.310008 0.324070 0.127195
0.333881 0.333881 0.137006
0.357755 0.343692 0.146817
0.381628 0.353503 0.156628
0.405502 0.363314 0.166439
0.429375 0.373125 0.176250
0.453248 0.382936 0.186061
0.477122 0.392747 0.195872
0.500995 0.402558 0.205683
0.524869 0.412369 0.215494
0.548742 0.422180 0.225305
0.572616 0.431991 0.235116
0.596489 0.441802 0.244927
0.620362 0.451613 0.254737
0.644236 0.461423 0.264548
0.668109 0.471234 0.274359
0.691983 0.481045 0.284170
0.715856 0.490856 0.293981
0.739730 0.500667 0.303792
0.763603 0.510478 0.313603
0.018914 0.229852 0.048914
0.042787 0.239662 0.058725
0.066661 0.249473 0.068536
0.090534 0.259284 0.048347
0.114408 0.269095 0.058158
0.138281 0.278906 0.067969
0.162155 0.288717 0.077780
0.186028 0.298528 0.087591
0.209902 0.308339 0.097402
0.233775 0.318150 0.107212
0.257648 0.327961 0.117023
0.281522 0.337772 0.126834
0.305395 0.347583 0.136645
0.329269 0.357394 0.146456
0.353142 0.367205 0.156267
0.377016 0.377016 0.166078
0.400889 0.386827 0.175889
0.424762 0.396637 0.185700
0.448636 0.406448 0.195511
0.472509 0.416259 0.205322
0.496383 0.426070 0.215133
0.520256 0.435881 0.224944
0.544130 0.445692 0.234755
0.568003 0.455503 0.244566
0.591877 0.465314 0.254377
0.615750 0.475125 0.264188
0.639623 0.484936 0.273998
0.663497 0.494747 0.283809
0.687370 0.504558 0.293620
0.711244 0.514369 0.303431
0.735117 0.524180 0.313242
0.758991 0.533991 0.323053
0.782864 0.543802 0.332864
0.038175 0.263175 0.068175
0.062048 0.272986 0.047986
0.085922 0.282797 0.057797
0.109795 0.292608 0.067608
0.133669 0.302419 0.077419
0.157542 0.312230 0.087230
0.181416 0.322041 0.097041
0.205289 0.331852 0.106852
0.229162 0.341662 0.116662
0.253036 0.351473 0.126473
0.276909 0.361284 0.136284
0.300783 0.371095 0.146095
0.324656 0.380906 0.155906
0.348530 0.390717 0.165717
0.372403 0.400528 0.175528
0.396277 0.410339 0.185339
0.420150 0.420150 0.195150
0.444023 0.429961 0.204961
0.467897 0.439772 0.214772
0.491770 0.449583 0.224583
0.515644 0.459394 0.234394
0.539517 0.469205 0.244205
0.563391 0.479016 0.254016
0.587264 0.488827 0.263827
0.611137 0.498637 0.273637
0.635011 0.508448 0.283448
0.658884 0.518259 0.293259
0.682758 0.528070 0.303070
0.706631 0.537881 0.312881
0.730505 0.547692 0.322692
0.754378 0.557503 0.332503
0.778252 0.567314 0.342314
0.802125 0.577125 0.352125
0.057436 0.296498 0.057436
0.081309 0.306309 0.067247
0.105183 0.316120 0.077058
0.129056 0.325931 0.086869
0.152930 0.335742 0.096680
0.176803 0.345553 0.106491
0.200677 0.355364 0.116302
0.224550 0.365175 0.126112
0.248423 0.374986 0.135923
0.272297 0.384797 0.145734
0.296170 0.394608 0.155545
0.320044 0.404419 0.165356
0.343917 0.414230 0.175167
0.367791 0.424041 0.184978
0.391664 0.433852 0.194789
0.415537 0.443662 0.204600
0.439411 0.453473 0.214411
0.463284 0.463284 0.224222
0.487158 0.473095 0.234033
0.511031 0.482906 0.243844
0.534905 0.492717 0.253655
0.558778 0.502528 0.263466
0.582652 0.512339 0.273277
0.606525 0.522150 0.283087
0.630398 0.531961 0.292898
0.654272 0.541772 0.302709
0.678145 0.551583 0.312520
0.702019 0.561394 0.322331
0.725892 0.571205 0.332142
0.749766 0.581016 0.341953
0.773639 0.590827 0.351764
0.797512 0.600637 0.361575
0.821386 0.610448 0.371386
0.076697 0.329822 0.076697
0.100570 0.339633 0.086508
0.124444 0.349444 0.096319
0.148317 0.359255 0.106130
0.172191 0.369066 0.115941
0.196064 0.378877 0.125752
0.219937 0.388687 0.135562
0.243811 0.398498 0.145373
0.267684 0.408309 0.155184
0.291558 0.418120 0.164995
0.315431 0.427931 0.174806
0.339305 0.437742 0.184617
0.363178 0.447553 0.194428
0.387052 0.457364 0.204239
0.410925 0.467175 0.214050
0.434798 0.476986 0.223861
0.458672 0.486797 0.233672
0.482545 0.496608 0.243483
0.506419 0.506419 0.253294
0.530292 0.516230 0.263105
0.554166 0.526041 0.272916
0.578039 0.535852 0.282727
0.601912 0.545662 0.292537
0.625786 0.555473 0.302348
0.649659 0.565284 0.312159
0.673533 0.575095 0.321970
0.697406 0.584906 0.331781
0.721280 0.594717 0.341592
0.745153 0.604528 0.351403
0.769027 0.614339 0.361214
0.792900 0.624150 0.371025
0.816773 0.633961 0.380836
0.840647 0.643772 0.390647
0.095958 0.363145 0.095958
0.119831 0.372956 0.105769
0.143705 0.382767 0.115580
0.167578 0.392578 0.125391
0.191452 0.402389 0.135202
0.215325 0.412200 0.145012
0.239198 0.422011 0.154823
0.263072 0.431822 0.164634
0.286945 0.441633 0.174445
0.310819 0.451444 0.184256
0.334692 0.461255 0.194067
0.358566 0.471066 0.203878
0.382439 0.480877 0.213689
0.406312 0.490687 0.223500
0.430186 0.500498 0.233311
0.454059 0.510309 0.243122
0.477933 0.520120 0.252933
0.501806 0.529931 0.262744
0.525680 0.539742 0.272555
0.549553 0.549553 0.282366
0.573427 0.559364 0.292177
0.597300 0.569175 0.301987
0.621173 0.578986 0.311798
0.645047 0.588797 0.321609
0.668920 0.598608 0.331420
0.692794 0.608419 0.341231
0.716667 0.618230 0.351042
0.740541 0.628041 0.360853
0.764414 0.637852 0.370664
0.788287 0.647662 0.380475
0.812161 0.657473 0.390286
0.836034 0.667284 0.400097
0.859908 0.677095 0.409908
0.115219 0.396469 0.115219
0.139092 0.406280 0.125030
0.162966 0.416091 0.134841
0.186839 0.425902 0.144652
0.210712 0.435712 0.154462
0.234586 0.445523 0.164273
0.258459 0.455334 0.174084
0.282333 0.465145 0.183895
0.306206 0.474956 0.193706
0.330080 0.484767 0.203517
0.353953 0.494578 0.213328
0.377827 0.504389 0.223139
0.401700 0.514200 0.232950
0.425573 0.524011 0.242761
0.449447 0.533822 0.252572
0.473320 0.543633 0.262383
0.497194 0.553444 0.272194
0.521067 0.563255 0.282005
0.544941 0.573066 0.291816
0.568814 0.582877 0.301627
0.592687 0.592687 0.311437
0.616561 0.602498 0.321248
0.640434 0.612309 0.331059
0.664308 0.622120 0.340870
0.688181 0.631931 0.350681
0.712055 0.641742 0.360492
0.735928 0.651553 0.370303
0.759802 0.661364 0.380114
0.783675 0.671175 0.389925
0.807548 0.680986 0.399736
0.831422 0.690797 0.409547
0.855295 0.700608 0.419358
0.879169 0.710419 0.429169
0.134480 0.429792 0.134480
0.158353 0.439603 0.144291
0.182227 0.449414 0.154102
0.206100 0.459225 0.163913
0.229973 0.469036 0.173723
0.253847 0.478847 0.183534
0.277720 0.488658 0.193345
0.301594 0.498469 0.203156
0.325467 0.508280 0.212967
0.349341 0.518091 0.222778
0.373214 0.527902 0.232589
0.397087 0.537712 0.242400
0.420961 0.547523 0.252211
0.444834 0.557334 0.262022
0.468708 0.567145 0.271833
0.492581 0.576956 0.281644
0.516455 0.586767 0.291455
0.540328 0.596578 0.301266
0.564202 0.606389 0.311077
0.588075 0.616200 0.320887
0.611948 0.626011 0.330698
0.635822 0.635822 0.340509
0.659695 0.645633 0.350320
0.683569 0.655444 0.360131
0.707442 0.665255 0.369942
0.731316 0.675066 0.379753
0.755189 0.684877 0.389564
0.779062 0.694687 0.399375
0.802936 0.704498 0.409186
0.826809 0.714309 0.418997
0.850683 0.724120 0.428808
0.874556 0.733931 0.438619
0.898430 0.743742 0.448430
0.153741 0.463116 0.153741
0.177614 0.472927 0.163552
0.201487 0.482737 0.173362
0.225361 0.492548 0.183173
0.249234 0.502359 0.192984
0.273108 0.512170 0.202795
0.296981 0.521981 0.212606
0.320855 0.531792 0.222417
0.344728 0.541603 0.232228
0.368602 0.551414 0.242039
0.392475 0.561225 0.251850
0.416348 0.571036 0.261661
0.440222 0.580847 0.271472
0.464095 0.590658 0.281283
0.487969 0.600469 0.291094
0.511842 0.610280 0.300905
0.535716 0.620091 0.310716
0.559589 0.629902 0.320527
0.583462 0.639712 0.330337
0.607336 0.649523 0.340148
0.631209 0.659334 0.349959
0.655083 0.669145 0.359770
0.678956 0.678956 0.369581
0.702830 0.688767 0.379392
0.726703 0.698578 0.389203
0.750577 0.708389 0.399014
0.774450 0.718200 0.408825
0.798323 0.728011 0.418636
0.822197 0.737822 0.428447
0.846070 0.747633 0.438258
0.869944 0.757444 0.448069
0.893817 0.767255 0.457880
0.917691 0.777066 0.467691
0.173002 0.496439 0.173002
0.196875 0.506250 0.182812
0.220748 0.516061 0.192623
0.244622 0.525872 0.202434
0.268495 0.535683 0.212245
0.292369 0.545494 0.222056
0.316242 0.555305 0.231867
0.340116 0.565116 0.241678
0.363989 0.574927 0.251489
0.387862 0.584737 0.261300
0.411736 0.594548 0.271111
0.435609 0.604359 0.280922
0.459483 0.614170 0.290733
0.483356 0.623981 0.300544
0.507230 0.633792 0.310355
0.531103 0.643603 0.320166
0.554977 0.653414 0.329977
0.578850 0.663225 0.339787
0.602723 0.673036 0.349598
0.626597 0.682847 0.359409
0.650470 0.692658 0.369220
0.674344 0.702469 0.379031
0.698217 0.712280 0.388842
0.722091 0.722091 0.398653
0.745964 0.731902 0.408464
0.769837 0.741712 0.418275
0.793711 0.751523 0.428086
0.817584 0.761334 0.437897
0.841458 0.771145 0.447708
0.865331 0.780956 0.457519
0.889205 0.790767 0.467330
0.913078 0.800578 0.477141
0.936952 0.810389 0.486952
0.192262 0.529762 0.192262
0.216136 0.539573 0.202073
0.240009 0.549384 0.211884
0.263883 0.559195 0.221695
0.287756 0.569006 0.231506
0.311630 0.578817 0.241317
0.335503 0.588628 0.251128
0.359377 0.598439 0.260939
0.383250 0.608250 0.270750
0.407123 0.618061 0.280561
0.430997 0.627872 0.290372
0.454870 0.637683 0.300183
0.478744 0.647494 0.309994
0.502617 0.657305 0.319805
0.526491 0.667116 0.329616
0.550364 0.676927 0.339427
0.574237 0.686738 0.349237
0.598111 0.696548 0.359048
0.621984 0.706359 0.368859
0.645858 0.716170 0.378670
0.669731 0.725981 0.388481
0.693605 0.735792 0.398292
0.717478 0.745603 0.408103
0.741352 0.755414 0.417914
0.765225 0.765225 0.427725
0.789098 0.775036 0.437536
0.812972 0.784847 0.447347
0.836845 0.794658 0.457158
0.860719 0.804469 0.466969
0.884592 0.814280 0.476780
0.908466 0.824091 0.486591
0.932339 0.833902 0.496402
0.956212 0.843712 0.506212
0.211523 0.563086 0.211523
0.235397 0.572897 0.221334
0.259270 0.582708 0.231145
0.283144 0.592519 0.240956
0.307017 0.602330 0.250767
0.330891 0.612141 0.260578
0.354764 0.621952 0.270389
0.378637 0.631763 0.280200
0.402511 0.641573 0.290011
0.426384 0.651384 0.299822
0.450258 0.661195 0.309633
0.474131 0.671006 0.319444
0.498005 0.680817 0.329255
0.521878 0.690628 0.339066
0.545752 0.700439 0.348877
0.569625 0.710250 0.358687
0.593498 0.720061 0.368498
0.617372 0.729872 0.378309
0.641245 0.739683 0.388120
0.665119 0.749494 0.397931
0.688992 0.759305 0.407742
0.712866 0.769116 0.417553
0.736739 0.778927 0.427364
0.760612 0.788737 0.437175
0.784486 0.798548 0.446986
0.808359 0.808359 0.456797
0.832233 0.818170 0.466608
0.856106 0.827981 0.476419
0.879980 0.837792 0.486230
0.903853 0.847603 0.496041
0.927727 0.857414 0.505852
0.951600 0.867225 0.515662
0.975473 0.877036 0.525473
0.230784 0.596409 0.230784
0.254658 0.606220 0.240595
0.278531 0.616031 0.250406
0.302405 0.625842 0.260217
0.326278 0.635653 0.270028
0.350152 0.645464 0.279839
0.374025 0.655275 0.289650
0.397898 0.665086 0.299461
0.421772 0.674897 0.309272
0.445645 0.684708 0.319083
0.469519 0.694519 0.328894
0.493392 0.704330 0.338705
0.517266 0.714141 0.348516
0.541139 0.723952 0.358327
0.565013 0.733762 0.368138
0.588886 0.743573 0.377948
0.612759 0.753384 0.387759
0.636633 0.763195 0.397570
0.660506 0.773006 0.407381
0.684380 0.782817 0.417192
0.708253 0.792628 0.427003
0.732127 0.802439 0.436814
0.756000 0.812250 0.446625
0.779873 0.822061 0.456436
0.803747 0.831872 0.466247
0.827620 0.841683 0.476058
0.851494 0.851494 0.485869
0.875367 0.861305 0.495680
0.899241 0.871116 0.505491
