assets/luts/film_noir.cube
TITLE "Film Noir"
LUT_3D_SIZE 5
0.000000 0.000000 0.000000
0.000000 0.000000 0.000000
0.111975 0.000000 0.000000
0.302962 0.000000 0.000000
0.493950 0.043950 0.073950
0.000000 0.000000 0.000000
0.075075 0.075075 0.000000
0.266062 0.153562 0.071062
0.457050 0.232050 0.119550
0.648037 0.310537 0.198037
0.038175 0.263175 0.068175
0.229162 0.341662 0.116662
0.420150 0.420150 0.195150
0.611137 0.498637 0.273637
0.802125 0.577125 0.352125
0.192262 0.529762 0.192262
0.383250 0.608250 0.270750
0.574237 0.686738 0.349237
0.765225 0.765225 0.427725
0.956212 0.843712 0.506212
0.346350 0.796350 0.346350
0.537337 0.874837 0.424837
0.728325 0.953325 0.503325
0.919312 1.000000 0.581813
1.000000 1.000000 0.660300
0.000000 0.000000 0.000000
0.000000 0.000000 0.000000
0.141900 0.000000 0.059400
0.332887 0.000000 0.137888
0.523875 0.073875 0.186375
0.000000 0.026512 0.056512
0.105000 0.105000 0.135000
0.295988 0.183488 0.183488
0.486975 0.261975 0.261975
0.677962 0.340462 0.340462
0.068100 0.293100 0.180600
0.259088 0.371588 0.259088
0.450075 0.450075 0.337575
0.641062 0.528562 0.416062
0.832050 0.607050 0.494550
0.222187 0.559687 0.334688
0.413175 0.638175 0.413175
0.604162 0.716662 0.491662
0.795150 0.795150 0.570150
0.986137 0.873637 0.648637
0.376275 0.826275 0.488775
0.567262 0.904762 0.567262
0.758250 0.983250 0.645750
0.949237 1.000000 0.724237
1.000000 1.000000 0.802725
0.000000 0.000000 0.044850
0.000000 0.000000 0.123338
0.171825 0.000000 0.201825
0.362812 0.025313 0.280312
0.553800 0.103800 0.328800
0.000000 0.056437 0.198937
0.134925 0.134925 0.277425
0.325912 0.213412 0.325912
0.516900 0.291900 0.404400
0.707888 0.370387 0.482887
0.098025 0.323025 0.323025
0.289012 0.401512 0.401512
0.480000 0.480000 0.480000
0.670987 0.558487 0.558487
0.861975 0.636975 0.636975
0.252112 0.589612 0.477112
0.443100 0.668100 0.555600
0.634087 0.746587 0.634087
0.825075 0.825075 0.712575
1.000000 0.903562 0.791063
0.406200 0.856200 0.631200
0.597187 0.934687 0.709687
0.788175 1.000000 0.788175
0.979163 1.000000 0.866663
1.000000 1.000000 0.945150
0.000000 0.000000 0.187275
0.010762 0.000000 0.265763
0.201750 0.000000 0.344250
0.392738 0.055238 0.392738
0.583725 0.133725 0.471225
0.000000 0.086362 0.341363
0.164850 0.164850 0.389850
0.355837 0.243337 0.468337
0.546825 0.321825 0.546825
0.737812 0.400312 0.625312
0.127950 0.352950 0.465450
0.318937 0.431437 0.543937
0.509925 0.509925 0.622425
0.700912 0.588413 0.700912
0.891900 0.666900 0.779400
0.282037 0.619537 0.619537
0.473025 0.698025 0.698025
0.664012 0.776512 0.776512
0.855000 0.855000 0.855000
1.000000 0.933487 0.933487
0.436125 0.886125 0.773625
0.627112 0.964612 0.852112
0.818100 1.000000 0.930600
1.000000 1.000000 1.000000
1.000000 1.000000 1.000000
0.000000 0.000000 0.329700
0.040687 0.000000 0.408187
0.231675 0.006675 0.486675
0.422662 0.085162 0.535162
0.613650 0.163650 0.613650
0.003787 0.116287 0.483787
0.194775 0.194775 0.532275
0.385762 0.273262 0.610762
0.576750 0.351750 0.689250
0.767737 0.430237 0.767737
0.157875 0.382875 0.607875
0.348862 0.461362 0.686362
0.539850 0.539850 0.764850
0.730837 0.618337 0.843337
0.921825 0.696825 0.921825
0.311963 0.649463 0.761962
0.502950 0.727950 0.840450
0.693937 0.806437 0.918937
0.884925 0.884925 0.997425
1.000000 0.963412 1.000000
0.466050 0.916050 0.916050
0.657037 0.994537 0.994537
0.848025 1.000000 1.000000
1.000000 1.000000 1.000000
1.000000 1.000000 1.000000
