assets/luts/golden_hour.cube
TITLE "Golden Hour"
LUT_3D_SIZE 5
0.016000 0.000000 0.000000
0.299500 0.000000 0.000000
0.583000 0.000000 0.000000
0.866500 0.000000 0.000000
1.000000 0.000000 0.000000
0.016000 0.247650 0.000000
0.299500 0.247650 0.000000
0.583000 0.247650 0.000000
0.866500 0.247650 0.000000
1.000000 0.247650 0.000000
0.016000 0.510300 0.000000
0.299500 0.510300 0.000000
0.583000 0.510300 0.000000
0.866500 0.510300 0.000000
1.000000 0.510300 0.000000
0.016000 0.772950 0.000000
0.299500 0.772950 0.000000
0.583000 0.772950 0.000000
0.906500 0.792950 0.000000
1.000000 0.792950 0.000000
0.016000 1.000000 0.000000
0.339500 1.000000 0.000000
0.623000 1.000000 0.000000
0.906500 1.000000 0.000000
1.000000 1.000000 0.000000
0.016000 0.000000 0.172500
0.299500 0.000000 0.172500
0.583000 0.000000 0.172500
0.866500 0.000000 0.172500
1.000000 0.000000 0.172500
0.016000 0.247650 0.172500
0.299500 0.247650 0.172500
0.583000 0.247650 0.172500
0.866500 0.247650 0.172500
1.000000 0.247650 0.172500
0.016000 0.510300 0.172500
0.299500 0.510300 0.172500
0.583000 0.510300 0.172500
0.866500 0.510300 0.172500
1.000000 0.530300 0.172500
0.016000 0.772950 0.172500
0.299500 0.772950 0.172500
0.623000 0.792950 0.172500
0.906500 0.792950 0.172500
1.000000 0.792950 0.172500
0.056000 1.000000 0.172500
0.339500 1.000000 0.172500
0.623000 1.000000 0.172500
0.906500 1.000000 0.172500
1.000000 1.000000 0.172500
0.016000 0.000000 0.385000
0.299500 0.000000 0.385000
0.583000 0.000000 0.385000
0.866500 0.000000 0.385000
1.000000 0.000000 0.385000
0.016000 0.247650 0.385000
0.299500 0.247650 0.385000
0.583000 0.247650 0.385000
0.866500 0.247650 0.385000
1.000000 0.247650 0.385000
0.016000 0.510300 0.385000
0.299500 0.510300 0.385000
0.583000 0.510300 0.385000
0.866500 0.510300 0.385000
1.000000 0.530300 0.385000
0.016000 0.772950 0.385000
0.299500 0.772950 0.385000
0.623000 0.792950 0.385000
0.906500 0.792950 0.385000
1.000000 0.792950 0.385000
0.056000 1.000000 0.385000
0.339500 1.000000 0.385000
0.623000 1.000000 0.385000
0.906500 1.000000 0.385000
1.000000 1.000000 0.385000
0.016000 0.000000 0.597500
0.299500 0.000000 0.597500
0.583000 0.000000 0.597500
0.866500 0.000000 0.597500
1.000000 0.000000 0.597500
0.016000 0.247650 0.597500
0.299500 0.247650 0.597500
0.583000 0.247650 0.597500
0.866500 0.247650 0.597500
1.000000 0.247650 0.597500
0.016000 0.510300 0.597500
0.299500 0.510300 0.597500
0.583000 0.510300 0.597500
0.906500 0.530300 0.597500
1.000000 0.530300 0.597500
0.016000 0.772950 0.597500
0.339500 0.792950 0.597500
0.623000 0.792950 0.597500
0.906500 0.792950 0.597500
1.000000 0.792950 0.597500
0.056000 1.000000 0.597500
0.339500 1.000000 0.597500
0.623000 1.000000 0.597500
0.906500 1.000000 0.597500
1.000000 1.000000 0.597500
0.016000 0.000000 0.810000
0.299500 0.000000 0.810000
0.583000 0.000000 0.810000
0.866500 0.000000 0.810000
1.000000 0.000000 0.810000
0.016000 0.247650 0.810000
0.299500 0.247650 0.810000
0.583000 0.247650 0.810000
0.866500 0.247650 0.810000
1.000000 0.247650 0.810000
0.016000 0.510300 0.810000
0.299500 0.510300 0.810000
0.583000 0.510300 0.810000
0.906500 0.530300 0.810000
1.000000 0.530300 0.810000
0.016000 0.772950 0.810000
0.339500 0.792950 0.810000
0.623000 0.792950 0.810000
0.906500 0.792950 0.810000
1.000000 0.792950 0.810000
0.056000 1.000000 0.810000
0.339500 1.000000 0.810000
0.623000 1.000000 0.810000
0.906500 1.000000 0.810000
1.000000 1.000000 0.810000
