assets/luts/golden_hour.cube
TITLE "Golden Hour"
LUT_3D_SIZE 9
0.016000 0.000000 0.000000
0.157750 0.000000 0.000000
0.299500 0.000000 0.000000
0.441250 0.000000 0.000000
0.583000 0.000000 0.000000
0.724750 0.000000 0.000000
0.866500 0.000000 0.000000
1.000000 0.000000 0.000000
1.000000 0.000000 0.000000
0.016000 0.116325 0.000000
0.157750 0.116325 0.000000
0.299500 0.116325 0.000000
0.441250 0.116325 0.000000
0.583000 0.116325 0.000000
0.724750 0.116325 0.000000
0.866500 0.116325 0.000000
1.000000 0.116325 0.000000
1.000000 0.116325 0.000000
0.016000 0.247650 0.000000
0.157750 0.247650 0.000000
0.299500 0.247650 0.000000
0.441250 0.247650 0.000000
0.583000 0.247650 0.000000
0.724750 0.247650 0.000000
0.866500 0.247650 0.000000
1.000000 0.247650 0.000000
1.000000 0.247650 0.000000
0.016000 0.378975 0.000000
0.157750 0.378975 0.000000
0.299500 0.378975 0.000000
0.441250 0.378975 0.000000
0.583000 0.378975 0.000000
0.724750 0.378975 0.000000
0.866500 0.378975 0.000000
1.000000 0.378975 0.000000
1.000000 0.378975 0.000000
0.016000 0.510300 0.000000
0.157750 0.510300 0.000000
0.299500 0.510300 0.000000
0.441250 0.510300 0.000000
0.583000 0.510300 0.000000
0.724750 0.510300 0.000000
0.866500 0.510300 0.000000
1.000000 0.510300 0.000000
1.000000 0.510300 0.000000
0.016000 0.641625 0.000000
0.157750 0.641625 0.000000
0.299500 0.641625 0.000000
0.441250 0.641625 0.000000
0.583000 0.641625 0.000000
0.724750 0.641625 0.000000
0.866500 0.641625 0.000000
1.000000 0.661625 0.000000
1.000000 0.661625 0.000000
0.016000 0.772950 0.000000
0.157750 0.772950 0.000000
0.299500 0.772950 0.000000
0.441250 0.772950 0.000000
0.583000 0.772950 0.000000
0.764750 0.792950 0.000000
0.906500 0.792950 0.000000
1.000000 0.792950 0.000000
1.000000 0.792950 0.000000
0.016000 0.904275 0.000000
0.157750 0.904275 0.000000
0.299500 0.904275 0.000000
0.481250 0.924275 0.000000
0.623000 0.924275 0.000000
0.764750 0.924275 0.000000
0.906500 0.924275 0.000000
1.000000 0.924275 0.000000
1.000000 0.924275 0.000000
0.016000 1.000000 0.000000
0.197750 1.000000 0.000000
0.339500 1.000000 0.000000
0.481250 1.000000 0.000000
0.623000 1.000000 0.000000
0.764750 1.000000 0.000000
0.906500 1.000000 0.000000
1.000000 1.000000 0.000000
1.000000 1.000000 0.000000
0.016000 0.000000 0.066250
0.157750 0.000000 0.066250
0.299500 0.000000 0.066250
0.441250 0.000000 0.066250
0.583000 0.000000 0.066250
0.724750 0.000000 0.066250
0.866500 0.000000 0.066250
1.000000 0.000000 0.066250
1.000000 0.000000 0.066250
0.016000 0.116325 0.066250
0.157750 0.116325 0.066250
0.299500 0.116325 0.066250
0.441250 0.116325 0.066250
0.583000 0.116325 0.066250
0.724750 0.116325 0.066250
0.866500 0.116325 0.066250
1.000000 0.116325 0.066250
1.000000 0.116325 0.066250
0.016000 0.247650 0.066250
0.157750 0.247650 0.066250
0.299500 0.247650 0.066250
0.441250 0.247650 0.066250
0.583000 0.247650 0.066250
0.724750 0.247650 0.066250
0.866500 0.247650 0.066250
1.000000 0.247650 0.066250
1.000000 0.247650 0.066250
0.016000 0.378975 0.066250
0.157750 0.378975 0.066250
0.299500 0.378975 0.066250
0.441250 0.378975 0.066250
0.583000 0.378975 0.066250
0.724750 0.378975 0.066250
0.866500 0.378975 0.066250
1.000000 0.378975 0.066250
1.000000 0.378975 0.066250
0.016000 0.510300 0.066250
0.157750 0.510300 0.066250
0.299500 0.510300 0.066250
0.441250 0.510300 0.066250
0.583000 0.510300 0.066250
0.724750 0.510300 0.066250
0.866500 0.510300 0.066250
1.000000 0.510300 0.066250
1.000000 0.530300 0.066250
0.016000 0.641625 0.066250
0.157750 0.641625 0.066250
0.299500 0.641625 0.066250
0.441250 0.641625 0.066250
0.583000 0.641625 0.066250
0.724750 0.641625 0.066250
0.906500 0.661625 0.066250
1.000000 0.661625 0.066250
1.000000 0.661625 0.066250
0.016000 0.772950 0.066250
0.157750 0.772950 0.066250
0.299500 0.772950 0.066250
0.441250 0.772950 0.066250
0.623000 0.792950 0.066250
0.764750 0.792950 0.066250
0.906500 0.792950 0.066250
1.000000 0.792950 0.066250
1.000000 0.792950 0.066250
0.016000 0.904275 0.066250
0.157750 0.904275 0.066250
0.339500 0.924275 0.066250
0.481250 0.924275 0.066250
0.623000 0.924275 0.066250
0.764750 0.924275 0.066250
0.906500 0.924275 0.066250
1.000000 0.924275 0.066250
1.000000 0.924275 0.066250
0.056000 1.000000 0.066250
0.197750 1.000000 0.066250
0.339500 1.000000 0.066250
0.481250 1.000000 0.066250
0.623000 1.000000 0.066250
0.764750 1.000000 0.066250
0.906500 1.000000 0.066250
1.000000 1.000000 0.066250
1.000000 1.000000 0.066250
0.016000 0.000000 0.172500
0.157750 0.000000 0.172500
0.299500 0.000000 0.172500
0.441250 0.000000 0.172500
0.583000 0.000000 0.172500
0.724750 0.000000 0.172500
0.866500 0.000000 0.172500
1.000000 0.000000 0.172500
1.000000 0.000000 0.172500
0.016000 0.116325 0.172500
0.157750 0.116325 0.172500
0.299500 0.116325 0.172500
0.441250 0.116325 0.172500
0.583000 0.116325 0.172500
0.724750 0.116325 0.172500
0.866500 0.116325 0.172500
1.000000 0.116325 0.172500
1.000000 0.116325 0.172500
0.016000 0.247650 0.172500
0.157750 0.247650 0.172500
0.299500 0.247650 0.172500
0.441250 0.247650 0.172500
0.583000 0.247650 0.172500
0.724750 0.247650 0.172500
0.866500 0.247650 0.172500
1.000000 0.247650 0.172500
1.000000 0.247650 0.172500
0.016000 0.378975 0.172500
0.157750 0.378975 0.172500
0.299500 0.378975 0.172500
0.441250 0.378975 0.172500
0.583000 0.378975 0.172500
0.724750 0.378975 0.172500
0.866500 0.378975 0.172500
1.000000 0.378975 0.172500
1.000000 0.378975 0.172500
0.016000 0.510300 0.172500
0.157750 0.510300 0.172500
0.299500 0.510300 0.172500
0.441250 0.510300 0.172500
0.583000 0.510300 0.172500
0.724750 0.510300 0.172500
0.866500 0.510300 0.172500
1.000000 0.510300 0.172500
1.000000 0.530300 0.172500
0.016000 0.641625 0.172500
0.157750 0.641625 0.172500
0.299500 0.641625 0.172500
0.441250 0.641625 0.172500
0.583000 0.641625 0.172500
0.724750 0.641625 0.172500
0.906500 0.661625 0.172500
1.000000 0.661625 0.172500
1.000000 0.661625 0.172500
0.016000 0.772950 0.172500
0.157750 0.772950 0.172500
0.299500 0.772950 0.172500
0.441250 0.772950 0.172500
0.623000 0.792950 0.172500
0.764750 0.792950 0.172500
0.906500 0.792950 0.172500
1.000000 0.792950 0.172500
1.000000 0.792950 0.172500
0.016000 0.904275 0.172500
0.157750 0.904275 0.172500
0.339500 0.924275 0.172500
0.481250 0.924275 0.172500
0.623000 0.924275 0.172500
0.764750 0.924275 0.172500
0.906500 0.924275 0.172500
1.000000 0.924275 0.172500
1.000000 0.924275 0.172500
0.056000 1.000000 0.172500
0.197750 1.000000 0.172500
0.339500 1.000000 0.172500
0.481250 1.000000 0.172500
0.623000 1.000000 0.172500
0.764750 1.000000 0.172500
0.906500 1.000000 0.172500
1.000000 1.000000 0.172500
1.000000 1.000000 0.172500
0.016000 0.000000 0.278750
0.157750 0.000000 0.278750
0.299500 0.000000 0.278750
0.441250 0.000000 0.278750
0.583000 0.000000 0.278750
0.724750 0.000000 0.278750
0.866500 0.000000 0.278750
1.000000 0.000000 0.278750
1.000000 0.000000 0.278750
0.016000 0.116325 0.278750
0.157750 0.116325 0.278750
0.299500 0.116325 0.278750
0.441250 0.116325 0.278750
0.583000 0.116325 0.278750
0.724750 0.116325 0.278750
0.866500 0.116325 0.278750
1.000000 0.116325 0.278750
1.000000 0.116325 0.278750
0.016000 0.247650 0.278750
0.157750 0.247650 0.278750
0.299500 0.247650 0.278750
0.441250 0.247650 0.278750
0.583000 0.247650 0.278750
0.724750 0.247650 0.278750
0.866500 0.247650 0.278750
1.000000 0.247650 0.278750
1.000000 0.247650 0.278750
0.016000 0.378975 0.278750
0.157750 0.378975 0.278750
0.299500 0.378975 0.278750
0.441250 0.378975 0.278750
0.583000 0.378975 0.278750
0.724750 0.378975 0.278750
0.866500 0.378975 0.278750
1.000000 0.378975 0.278750
1.000000 0.378975 0.278750
0.016000 0.510300 0.278750
0.157750 0.510300 0.278750
0.299500 0.510300 0.278750
0.441250 0.510300 0.278750
0.583000 0.510300 0.278750
0.724750 0.510300 0.278750
0.866500 0.510300 0.278750
1.000000 0.510300 0.278750
1.000000 0.530300 0.278750
0.016000 0.641625 0.278750
0.157750 0.641625 0.278750
0.299500 0.641625 0.278750
0.441250 0.641625 0.278750
0.583000 0.641625 0.278750
0.724750 0.641625 0.278750
0.906500 0.661625 0.278750
1.000000 0.661625 0.278750
1.000000 0.661625 0.278750
0.016000 0.772950 0.278750
0.157750 0.772950 0.278750
0.299500 0.772950 0.278750
0.441250 0.772950 0.278750
0.623000 0.792950 0.278750
0.764750 0.792950 0.278750
0.906500 0.792950 0.278750
1.000000 0.792950 0.278750
1.000000 0.792950 0.278750
0.016000 0.904275 0.278750
0.157750 0.904275 0.278750
0.339500 0.924275 0.278750
0.481250 0.924275 0.278750
0.623000 0.924275 0.278750
0.764750 0.924275 0.278750
0.906500 0.924275 0.278750
1.000000 0.924275 0.278750
1.000000 0.924275 0.278750
0.056000 1.000000 0.278750
0.197750 1.000000 0.278750
0.339500 1.000000 0.278750
0.481250 1.000000 0.278750
0.623000 1.000000 0.278750
0.764750 1.000000 0.278750
0.906500 1.000000 0.278750
1.000000 1.000000 0.278750
1.000000 1.000000 0.278750
0.016000 0.000000 0.385000
0.157750 0.000000 0.385000
0.299500 0.000000 0.385000
0.441250 0.000000 0.385000
0.583000 0.000000 0.385000
0.724750 0.000000 0.385000
0.866500 0.000000 0.385000
1.000000 0.000000 0.385000
1.000000 0.000000 0.385000
0.016000 0.116325 0.385000
0.157750 0.116325 0.385000
0.299500 0.116325 0.385000
0.441250 0.116325 0.385000
0.583000 0.116325 0.385000
0.724750 0.116325 0.385000
0.866500 0.116325 0.385000
1.000000 0.116325 0.385000
1.000000 0.116325 0.385000
0.016000 0.247650 0.385000
0.157750 0.247650 0.385000
0.299500 0.247650 0.385000
0.441250 0.247650 0.385000
0.583000 0.247650 0.385000
0.724750 0.247650 0.385000
0.866500 0.247650 0.385000
1.000000 0.247650 0.385000
1.000000 0.247650 0.385000
0.016000 0.378975 0.385000
0.157750 0.378975 0.385000
0.299500 0.378975 0.385000
0.441250 0.378975 0.385000
0.583000 0.378975 0.385000
0.724750 0.378975 0.385000
0.866500 0.378975 0.385000
1.000000 0.378975 0.385000
1.000000 0.378975 0.385000
0.016000 0.510300 0.385000
0.157750 0.510300 0.385000
0.299500 0.510300 0.385000
0.441250 0.510300 0.385000
0.583000 0.510300 0.385000
0.724750 0.510300 0.385000
0.866500 0.510300 0.385000
1.000000 0.530300 0.385000
1.000000 0.530300 0.385000
0.016000 0.641625 0.385000
0.157750 0.641625 0.385000
0.299500 0.641625 0.385000
0.441250 0.641625 0.385000
0.583000 0.641625 0.385000
0.764750 0.661625 0.385000
0.906500 0.661625 0.385000
1.000000 0.661625 0.385000
1.000000 0.661625 0.385000
0.016000 0.772950 0.385000
0.157750 0.772950 0.385000
0.299500 0.772950 0.385000
0.481250 0.792950 0.385000
0.623000 0.792950 0.385000
0.764750 0.792950 0.385000
0.906500 0.792950 0.385000
1.000000 0.792950 0.385000
1.000000 0.792950 0.385000
0.016000 0.904275 0.385000
0.197750 0.924275 0.385000
0.339500 0.924275 0.385000
0.481250 0.924275 0.385000
0.623000 0.924275 0.385000
0.764750 0.924275 0.385000
0.906500 0.924275 0.385000
1.000000 0.924275 0.385000
1.000000 0.924275 0.385000
0.056000 1.000000 0.385000
0.197750 1.000000 0.385000
0.339500 1.000000 0.385000
0.481250 1.000000 0.385000
0.623000 1.000000 0.385000
0.764750 1.000000 0.385000
0.906500 1.000000 0.385000
1.000000 1.000000 0.385000
1.000000 1.000000 0.385000
0.016000 0.000000 0.491250
0.157750 0.000000 0.491250
0.299500 0.000000 0.491250
0.441250 0.000000 0.491250
0.583000 0.000000 0.491250
0.724750 0.000000 0.491250
0.866500 0.000000 0.491250
1.000000 0.000000 0.491250
1.000000 0.000000 0.491250
0.016000 0.116325 0.491250
0.157750 0.116325 0.491250
0.299500 0.116325 0.491250
0.441250 0.116325 0.491250
0.583000 0.116325 0.491250
0.724750 0.116325 0.491250
0.866500 0.116325 0.491250
1.000000 0.116325 0.491250
1.000000 0.116325 0.491250
0.016000 0.247650 0.491250
0.157750 0.247650 0.491250
0.299500 0.247650 0.491250
0.441250 0.247650 0.491250
0.583000 0.247650 0.491250
0.724750 0.247650 0.491250
0.866500 0.247650 0.491250
1.000000 0.247650 0.491250
1.000000 0.247650 0.491250
0.016000 0.378975 0.491250
0.157750 0.378975 0.491250
0.299500 0.378975 0.491250
0.441250 0.378975 0.491250
0.583000 0.378975 0.491250
0.724750 0.378975 0.491250
0.866500 0.378975 0.491250
1.000000 0.378975 0.491250
1.000000 0.378975 0.491250
0.016000 0.510300 0.491250
0.157750 0.510300 0.491250
0.299500 0.510300 0.491250
0.441250 0.510300 0.491250
0.583000 0.510300 0.491250
0.724750 0.510300 0.491250
0.866500 0.510300 0.491250
1.000000 0.530300 0.491250
1.000000 0.530300 0.491250
0.016000 0.641625 0.491250
0.157750 0.641625 0.491250
0.299500 0.641625 0.491250
0.441250 0.641625 0.491250
0.583000 0.641625 0.491250
0.764750 0.661625 0.491250
0.906500 0.661625 0.491250
1.000000 0.661625 0.491250
1.000000 0.661625 0.491250
0.016000 0.772950 0.491250
0.157750 0.772950 0.491250
0.299500 0.772950 0.491250
0.481250 0.792950 0.491250
0.623000 0.792950 0.491250
0.764750 0.792950 0.491250
0.906500 0.792950 0.491250
1.000000 0.792950 0.491250
1.000000 0.792950 0.491250
0.016000 0.904275 0.491250
0.197750 0.924275 0.491250
0.339500 0.924275 0.491250
0.481250 0.924275 0.491250
0.623000 0.924275 0.491250
0.764750 0.924275 0.491250
0.906500 0.924275 0.491250
1.000000 0.924275 0.491250
1.000000 0.924275 0.491250
0.056000 1.000000 0.491250
0.197750 1.000000 0.491250
0.339500 1.000000 0.491250
0.481250 1.000000 0.491250
0.623000 1.000000 0.491250
0.764750 1.000000 0.491250
0.906500 1.000000 0.491250
1.000000 1.000000 0.491250
1.000000 1.000000 0.491250
0.016000 0.000000 0.597500
0.157750 0.000000 0.597500
0.299500 0.000000 0.597500
0.441250 0.000000 0.597500
0.583000 0.000000 0.597500
0.724750 0.000000 0.597500
0.866500 0.000000 0.597500
1.000000 0.000000 0.597500
1.000000 0.000000 0.597500
0.016000 0.116325 0.597500
0.157750 0.116325 0.597500
0.299500 0.116325 0.597500
0.441250 0.116325 0.597500
0.583000 0.116325 0.597500
0.724750 0.116325 0.597500
0.866500 0.116325 0.597500
1.000000 0.116325 0.597500
1.000000 0.116325 0.597500
0.016000 0.247650 0.597500
0.157750 0.247650 0.597500
0.299500 0.247650 0.597500
0.441250 0.247650 0.597500
0.583000 0.247650 0.597500
0.724750 0.247650 0.597500
0.866500 0.247650 0.597500
1.000000 0.247650 0.597500
1.000000 0.247650 0.597500
0.016000 0.378975 0.597500
0.157750 0.378975 0.597500
0.299500 0.378975 0.597500
0.441250 0.378975 0.597500
0.583000 0.378975 0.597500
0.724750 0.378975 0.597500
0.866500 0.378975 0.597500
1.000000 0.378975 0.597500
1.000000 0.398975 0.597500
0.016000 0.510300 0.597500
0.157750 0.510300 0.597500
0.299500 0.510300 0.597500
0.441250 0.510300 0.597500
0.583000 0.510300 0.597500
0.724750 0.510300 0.597500
0.906500 0.530300 0.597500
1.000000 0.530300 0.597500
1.000000 0.530300 0.597500
0.016000 0.641625 0.597500
0.157750 0.641625 0.597500
0.299500 0.641625 0.597500
0.441250 0.641625 0.597500
0.623000 0.661625 0.597500
0.764750 0.661625 0.597500
0.906500 0.661625 0.597500
1.000000 0.661625 0.597500
1.000000 0.661625 0.597500
0.016000 0.772950 0.597500
0.157750 0.772950 0.597500
0.339500 0.792950 0.597500
0.481250 0.792950 0.597500
0.623000 0.792950 0.597500
0.764750 0.792950 0.597500
0.906500 0.792950 0.597500
1.000000 0.792950 0.597500
1.000000 0.792950 0.597500
0.016000 0.904275 0.597500
0.197750 0.924275 0.597500
0.339500 0.924275 0.597500
0.481250 0.924275 0.597500
0.623000 0.924275 0.597500
0.764750 0.924275 0.597500
0.906500 0.924275 0.597500
1.000000 0.924275 0.597500
1.000000 0.924275 0.597500
0.056000 1.000000 0.597500
0.197750 1.000000 0.597500
0.339500 1.000000 0.597500
0.481250 1.000000 0.597500
0.623000 1.000000 0.597500
0.764750 1.000000 0.597500
0.906500 1.000000 0.597500
1.000000 1.000000 0.597500
1.000000 1.000000 0.597500
0.016000 0.000000 0.703750
0.157750 0.000000 0.703750
0.299500 0.000000 0.703750
0.441250 0.000000 0.703750
0.583000 0.000000 0.703750
0.724750 0.000000 0.703750
0.866500 0.000000 0.703750
1.000000 0.000000 0.703750
1.000000 0.000000 0.703750
0.016000 0.116325 0.703750
0.157750 0.116325 0.703750
0.299500 0.116325 0.703750
0.441250 0.116325 0.703750
0.583000 0.116325 0.703750
0.724750 0.116325 0.703750
0.866500 0.116325 0.703750
1.000000 0.116325 0.703750
1.000000 0.116325 0.703750
0.016000 0.247650 0.703750
0.157750 0.247650 0.703750
0.299500 0.247650 0.703750
0.441250 0.247650 0.703750
0.583000 0.247650 0.703750
0.724750 0.247650 0.703750
0.866500 0.247650 0.703750
1.000000 0.247650 0.703750
1.000000 0.247650 0.703750
0.016000 0.378975 0.703750
0.157750 0.378975 0.703750
0.299500 0.378975 0.703750
0.441250 0.378975 0.703750
0.583000 0.378975 0.703750
0.724750 0.378975 0.703750
0.866500 0.378975 0.703750
1.000000 0.378975 0.703750
1.000000 0.398975 0.703750
0.016000 0.510300 0.703750
0.157750 0.510300 0.703750
0.299500 0.510300 0.703750
0.441250 0.510300 0.703750
0.583000 0.510300 0.703750
0.724750 0.510300 0.703750
0.906500 0.530300 0.703750
1.000000 0.530300 0.703750
1.000000 0.530300 0.703750
0.016000 0.641625 0.703750
0.157750 0.641625 0.703750
0.299500 0.641625 0.703750
0.441250 0.641625 0.703750
0.623000 0.661625 0.703750
0.764750 0.661625 0.703750
0.906500 0.661625 0.703750
1.000000 0.661625 0.703750
1.000000 0.661625 0.703750
0.016000 0.772950 0.703750
0.157750 0.772950 0.703750
0.339500 0.792950 0.703750
0.481250 0.792950 0.703750
0.623000 0.792950 0.703750
0.764750 0.792950 0.703750
0.906500 0.792950 0.703750
1.000000 0.792950 0.703750
1.000000 0.792950 0.703750
0.056000 0.924275 0.703750
0.197750 0.924275 0.703750
0.339500 0.924275 0.703750
0.481250 0.924275 0.703750
0.623000 0.924275 0.703750
0.764750 0.924275 0.703750
0.906500 0.924275 0.703750
1.000000 0.924275 0.703750
1.000000 0.924275 0.703750
0.056000 1.000000 0.703750
0.197750 1.000000 0.703750
0.339500 1.000000 0.703750
0.481250 1.000000 0.703750
0.623000 1.000000 0.703750
0.764750 1.000000 0.703750
0.906500 1.000000 0.703750
1.000000 1.000000 0.703750
1.000000 1.000000 0.703750
0.016000 0.000000 0.810000
0.157750 0.000000 0.810000
0.299500 0.000000 0.810000
0.441250 0.000000 0.810000
0.583000 0.000000 0.810000
0.724750 0.000000 0.810000
0.866500 0.000000 0.810000
1.000000 0.000000 0.810000
1.000000 0.000000 0.810000
0.016000 0.116325 0.810000
0.157750 0.116325 0.810000
0.299500 0.116325 0.810000
0.441250 0.116325 0.810000
0.583000 0.116325 0.810000
0.724750 0.116325 0.810000
0.866500 0.116325 0.810000
1.000000 0.116325 0.810000
1.000000 0.116325 0.810000
0.016000 0.247650 0.810000
0.157750 0.247650 0.810000
0.299500 0.247650 0.810000
0.441250 0.247650 0.810000
0.583000 0.247650 0.810000
0.724750 0.247650 0.810000
0.866500 0.247650 0.810000
1.000000 0.247650 0.810000
1.000000 0.247650 0.810000
0.016000 0.378975 0.810000
0.157750 0.378975 0.810000
0.299500 0.378975 0.810000
0.441250 0.378975 0.810000
0.583000 0.378975 0.810000
0.724750 0.378975 0.810000
0.866500 0.378975 0.810000
1.000000 0.378975 0.810000
1.000000 0.398975 0.810000
0.016000 0.510300 0.810000
0.157750 0.510300 0.810000
0.299500 0.510300 0.810000
0.441250 0.510300 0.810000
0.583000 0.510300 0.810000
0.724750 0.510300 0.810000
0.906500 0.530300 0.810000
1.000000 0.530300 0.810000
1.000000 0.530300 0.810000
0.016000 0.641625 0.810000
0.157750 0.641625 0.810000
0.299500 0.641625 0.810000
0.441250 0.641625 0.810000
0.623000 0.661625 0.810000
0.764750 0.661625 0.810000
0.906500 0.661625 0.810000
1.000000 0.661625 0.810000
1.000000 0.661625 0.810000
0.016000 0.772950 0.810000
0.157750 0.772950 0.810000
0.339500 0.792950 0.810000
0.481250 0.792950 0.810000
0.623000 0.792950 0.810000
0.764750 0.792950 0.810000
0.906500 0.792950 0.810000
1.000000 0.792950 0.810000
1.000000 0.792950 0.810000
0.056000 0.924275 0.810000
0.197750 0.924275 0.810000
0.339500 0.924275 0.810000
0.481250 0.924275 0.810000
0.623000 0.924275 0.810000
0.764750 0.924275 0.810000
0.906500 0.924275 0.810000
1.000000 0.924275 0.810000
1.000000 0.924275 0.810000
0.056000 1.000000 0.810000
0.197750 1.000000 0.810000
0.339500 1.000000 0.810000
0.481250 1.000000 0.810000
0.623000 1.000000 0.810000
0.764750 1.000000 0.810000
0.906500 1.000000 0.810000
1.000000 1.000000 0.810000
1.000000 1.000000 0.810000
