assets/luts/golden_hour.cube
TITLE "Golden Hour"
LUT_3D_SIZE 33
0.016000 0.000000 0.000000
0.051438 0.000000 0.000000
0.086875 0.000000 0.000000
0.122313 0.000000 0.000000
0.157750 0.000000 0.000000
0.193187 0.000000 0.000000
0.228625 0.000000 0.000000
0.264063 0.000000 0.000000
0.299500 0.000000 0.000000
0.334938 0.000000 0.000000
0.370375 0.000000 0.000000
0.405813 0.000000 0.000000
0.441250 0.000000 0.000000
0.476688 0.000000 0.000000
0.512125 0.000000 0.000000
0.547563 0.000000 0.000000
0.583000 0.000000 0.000000
0.618437 0.000000 0.000000
0.653875 0.000000 0.000000
0.689313 0.000000 0.000000
0.724750 0.000000 0.000000
0.760188 0.000000 0.000000
0.795625 0.000000 0.000000
0.831063 0.000000 0.000000
0.866500 0.000000 0.000000
0.901938 0.000000 0.000000
0.937375 0.000000 0.000000
0.972813 0.000000 0.000000
1.000000 0.000000 0.000000
1.000000 0.000000 0.000000
1.000000 0.000000 0.000000
1.000000 0.000000 0.000000
1.000000 0.000000 0.000000
0.016000 0.017831 0.000000
0.051438 0.017831 0.000000
0.086875 0.017831 0.000000
0.122313 0.017831 0.000000
0.157750 0.017831 0.000000
0.193187 0.017831 0.000000
0.228625 0.017831 0.000000
0.264063 0.017831 0.000000
0.299500 0.017831 0.000000
0.334938 0.017831 0.000000
0.370375 0.017831 0.000000
0.405813 0.017831 0.000000
0.441250 0.017831 0.000000
0.476688 0.017831 0.000000
0.512125 0.017831 0.000000
0.547563 0.017831 0.000000
0.583000 0.017831 0.000000
0.618437 0.017831 0.000000
0.653875 0.017831 0.000000
0.689313 0.017831 0.000000
0.724750 0.017831 0.000000
0.760188 0.017831 0.000000
0.795625 0.017831 0.000000
0.831063 0.017831 0.000000
0.866500 0.017831 0.000000
0.901938 0.017831 0.000000
0.937375 0.017831 0.000000
0.972813 0.017831 0.000000
1.000000 0.017831 0.000000
1.000000 0.017831 0.000000
1.000000 0.017831 0.000000
1.000000 0.017831 0.000000
1.000000 0.017831 0.000000
0.016000 0.050662 0.000000
0.051438 0.050662 0.000000
0.086875 0.050662 0.000000
0.122313 0.050662 0.000000
0.157750 0.050662 0.000000
0.193187 0.050662 0.000000
0.228625 0.050662 0.000000
0.264063 0.050662 0.000000
0.299500 0.050662 0.000000
0.334938 0.050662 0.000000
0.370375 0.050662 0.000000
0.405813 0.050662 0.000000
0.441250 0.050662 0.000000
0.476688 0.050662 0.000000
0.512125 0.050662 0.000000
0.547563 0.050662 0.000000
0.583000 0.050662 0.000000
0.618437 0.050662 0.000000
0.653875 0.050662 0.000000
0.689313 0.050662 0.000000
0.724750 0.050662 0.000000
0.760188 0.050662 0.000000
0.795625 0.050662 0.000000
0.831063 0.050662 0.000000
0.866500 0.050662 0.000000
0.901938 0.050662 0.000000
0.937375 0.050662 0.000000
0.972813 0.050662 0.000000
1.000000 0.050662 0.000000
1.000000 0.050662 0.000000
1.000000 0.050662 0.000000
1.000000 0.050662 0.000000
1.000000 0.050662 0.000000
0.016000 0.083494 0.000000
0.051438 0.083494 0.000000
0.086875 0.083494 0.000000
0.122313 0.083494 0.000000
0.157750 0.083494 0.000000
0.193187 0.083494 0.000000
0.228625 0.083494 0.000000
0.264063 0.083494 0.000000
0.299500 0.083494 0.000000
0.334938 0.083494 0.000000
0.370375 0.083494 0.000000
0.405813 0.083494 0.000000
0.441250 0.083494 0.000000
0.476688 0.083494 0.000000
0.512125 0.083494 0.000000
0.547563 0.083494 0.000000
0.583000 0.083494 0.000000
0.618437 0.083494 0.000000
0.653875 0.083494 0.000000
0.689313 0.083494 0.000000
0.724750 0.083494 0.000000
0.760188 0.083494 0.000000
0.795625 0.083494 0.000000
0.831063 0.083494 0.000000
0.866500 0.083494 0.000000
0.901938 0.083494 0.000000
0.937375 0.083494 0.000000
0.972813 0.083494 0.000000
1.000000 0.083494 0.000000
1.000000 0.083494 0.000000
1.000000 0.083494 0.000000
1.000000 0.083494 0.000000
1.000000 0.083494 0.000000
0.016000 0.116325 0.000000
0.051438 0.116325 0.000000
0.086875 0.116325 0.000000
0.122313 0.116325 0.000000
0.157750 0.116325 0.000000
0.193187 0.116325 0.000000
0.228625 0.116325 0.000000
0.264063 0.116325 0.000000
0.299500 0.116325 0.000000
0.334938 0.116325 0.000000
0.370375 0.116325 0.000000
0.405813 0.116325 0.000000
0.441250 0.116325 0.000000
0.476688 0.116325 0.000000
0.512125 0.116325 0.000000
0.547563 0.116325 0.000000
0.583000 0.116325 0.000000
0.618437 0.116325 0.000000
0.653875 0.116325 0.000000
0.689313 0.116325 0.000000
0.724750 0.116325 0.000000
0.760188 0.116325 0.000000
0.795625 0.116325 0.000000
0.831063 0.116325 0.000000
0.866500 0.116325 0.000000
0.901938 0.116325 0.000000
0.937375 0.116325 0.000000
0.972813 0.116325 0.000000
1.000000 0.116325 0.000000
1.000000 0.116325 0.000000
1.000000 0.116325 0.000000
1.000000 0.116325 0.000000
1.000000 0.116325 0.000000
0.016000 0.149156 0.000000
0.051438 0.149156 0.000000
0.086875 0.149156 0.000000
0.122313 0.149156 0.000000
0.157750 0.149156 0.000000
0.193187 0.149156 0.000000
0.228625 0.149156 0.000000
0.264063 0.149156 0.000000
0.299500 0.149156 0.000000
0.334938 0.149156 0.000000
0.370375 0.149156 0.000000
0.405813 0.149156 0.000000
0.441250 0.149156 0.000000
0.476688 0.149156 0.000000
0.512125 0.149156 0.000000
0.547563 0.149156 0.000000
0.583000 0.149156 0.000000
0.618437 0.149156 0.000000
0.653875 0.149156 0.000000
0.689313 0.149156 0.000000
0.724750 0.149156 0.000000
0.760188 0.149156 0.000000
0.795625 0.149156 0.000000
0.831063 0.149156 0.000000
0.866500 0.149156 0.000000
0.901938 0.149156 0.000000
0.937375 0.149156 0.000000
0.972813 0.149156 0.000000
1.000000 0.149156 0.000000
1.000000 0.149156 0.000000
1.000000 0.149156 0.000000
1.000000 0.149156 0.000000
1.000000 0.149156 0.000000
0.016000 0.181988 0.000000
0.051438 0.181988 0.000000
0.086875 0.181988 0.000000
0.122313 0.181988 0.000000
0.157750 0.181988 0.000000
0.193187 0.181988 0.000000
0.228625 0.181988 0.000000
0.264063 0.181988 0.000000
0.299500 0.181988 0.000000
0.334938 0.181988 0.000000
0.370375 0.181988 0.000000
0.405813 0.181988 0.000000
0.441250 0.181988 0.000000
0.476688 0.181988 0.000000
0.512125 0.181988 0.000000
0.547563 0.181988 0.000000
0.583000 0.181988 0.000000
0.618437 0.181988 0.000000
0.653875 0.181988 0.000000
0.689313 0.181988 0.000000
0.724750 0.181988 0.000000
0.760188 0.181988 0.000000
0.795625 0.181988 0.000000
0.831063 0.181988 0.000000
0.866500 0.181988 0.000000
0.901938 0.181988 0.000000
0.937375 0.181988 0.000000
0.972813 0.181988 0.000000
1.000000 0.181988 0.000000
1.000000 0.181988 0.000000
1.000000 0.181988 0.000000
1.000000 0.181988 0.000000
1.000000 0.181988 0.000000
0.016000 0.214819 0.000000
0.051438 0.214819 0.000000
0.086875 0.214819 0.000000
0.122313 0.214819 0.000000
0.157750 0.214819 0.000000
0.193187 0.214819 0.000000
0.228625 0.214819 0.000000
0.264063 0.214819 0.000000
0.299500 0.214819 0.000000
0.334938 0.214819 0.000000
0.370375 0.214819 0.000000
0.405813 0.214819 0.000000
0.441250 0.214819 0.000000
0.476688 0.214819 0.000000
0.512125 0.214819 0.000000
0.547563 0.214819 0.000000
0.583000 0.214819 0.000000
0.618437 0.214819 0.000000
0.653875 0.214819 0.000000
0.689313 0.214819 0.000000
0.724750 0.214819 0.000000
0.760188 0.214819 0.000000
0.795625 0.214819 0.000000
0.831063 0.214819 0.000000
0.866500 0.214819 0.000000
0.901938 0.214819 0.000000
0.937375 0.214819 0.000000
0.972813 0.214819 0.000000
1.000000 0.214819 0.000000
1.000000 0.214819 0.000000
1.000000 0.214819 0.000000
1.000000 0.214819 0.000000
1.000000 0.214819 0.000000
0.016000 0.247650 0.000000
0.051438 0.247650 0.000000
0.086875 0.247650 0.000000
0.122313 0.247650 0.000000
0.157750 0.247650 0.000000
0.193187 0.247650 0.000000
0.228625 0.247650 0.000000
0.264063 0.247650 0.000000
0.299500 0.247650 0.000000
0.334938 0.247650 0.000000
0.370375 0.247650 0.000000
0.405813 0.247650 0.000000
0.441250 0.247650 0.000000
0.476688 0.247650 0.000000
0.512125 0.247650 0.000000
0.547563 0.247650 0.000000
0.583000 0.247650 0.000000
0.618437 0.247650 0.000000
0.653875 0.247650 0.000000
0.689313 0.247650 0.000000
0.724750 0.247650 0.000000
0.760188 0.247650 0.000000
0.795625 0.247650 0.000000
0.831063 0.247650 0.000000
0.866500 0.247650 0.000000
0.901938 0.247650 0.000000
0.937375 0.247650 0.000000
0.972813 0.247650 0.000000
1.000000 0.247650 0.000000
1.000000 0.247650 0.000000
1.000000 0.247650 0.000000
1.000000 0.247650 0.000000
1.000000 0.247650 0.000000
0.016000 0.280481 0.000000
0.051438 0.280481 0.000000
0.086875 0.280481 0.000000
0.122313 0.280481 0.000000
0.157750 0.280481 0.000000
0.193187 0.280481 0.000000
0.228625 0.280481 0.000000
0.264063 0.280481 0.000000
0.299500 0.280481 0.000000
0.334938 0.280481 0.000000
0.370375 0.280481 0.000000
0.405813 0.280481 0.000000
0.441250 0.280481 0.000000
0.476688 0.280481 0.000000
0.512125 0.280481 0.000000
0.547563 0.280481 0.000000
0.583000 0.280481 0.000000
0.618437 0.280481 0.000000
0.653875 0.280481 0.000000
0.689313 0.280481 0.000000
0.724750 0.280481 0.000000
0.760188 0.280481 0.000000
0.795625 0.280481 0.000000
0.831063 0.280481 0.000000
0.866500 0.280481 0.000000
0.901938 0.280481 0.000000
0.937375 0.280481 0.000000
0.972813 0.280481 0.000000
1.000000 0.280481 0.000000
1.000000 0.280481 0.000000
1.000000 0.280481 0.000000
1.000000 0.280481 0.000000
1.000000 0.280481 0.000000
0.016000 0.313312 0.000000
0.051438 0.313312 0.000000
0.086875 0.313312 0.000000
0.122313 0.313312 0.000000
0.157750 0.313312 0.000000
0.193187 0.313312 0.000000
0.228625 0.313312 0.000000
0.264063 0.313312 0.000000
0.299500 0.313312 0.000000
0.334938 0.313312 0.000000
0.370375 0.313312 0.000000
0.405813 0.313312 0.000000
0.441250 0.313312 0.000000
0.476688 0.313312 0.000000
0.512125 0.313312 0.000000
0.547563 0.313312 0.000000
0.583000 0.313312 0.000000
0.618437 0.313312 0.000000
0.653875 0.313312 0.000000
0.689313 0.313312 0.000000
0.724750 0.313312 0.000000
0.760188 0.313312 0.000000
0.795625 0.313312 0.000000
0.831063 0.313312 0.000000
0.866500 0.313312 0.000000
0.901938 0.313312 0.000000
0.937375 0.313312 0.000000
0.972813 0.313312 0.000000
1.000000 0.313312 0.000000
1.000000 0.313312 0.000000
1.000000 0.313312 0.000000
1.000000 0.313312 0.000000
1.000000 0.313312 0.000000
0.016000 0.346144 0.000000
0.051438 0.346144 0.000000
0.086875 0.346144 0.000000
0.122313 0.346144 0.000000
0.157750 0.346144 0.000000
0.193187 0.346144 0.000000
0.228625 0.346144 0.000000
0.264063 0.346144 0.000000
0.299500 0.346144 0.000000
0.334938 0.346144 0.000000
0.370375 0.346144 0.000000
0.405813 0.346144 0.000000
0.441250 0.346144 0.000000
0.476688 0.346144 0.000000
0.512125 0.346144 0.000000
0.547563 0.346144 0.000000
0.583000 0.346144 0.000000
0.618437 0.346144 0.000000
0.653875 0.346144 0.000000
0.689313 0.346144 0.000000
0.724750 0.346144 0.000000
0.760188 0.346144 0.000000
0.795625 0.346144 0.000000
0.831063 0.346144 0.000000
0.866500 0.346144 0.000000
0.901938 0.346144 0.000000
0.937375 0.346144 0.000000
0.972813 0.346144 0.000000
1.000000 0.346144 0.000000
1.000000 0.346144 0.000000
1.000000 0.346144 0.000000
1.000000 0.346144 0.000000
1.000000 0.346144 0.000000
0.016000 0.378975 0.000000
0.051438 0.378975 0.000000
0.086875 0.378975 0.000000
0.122313 0.378975 0.000000
0.157750 0.378975 0.000000
0.193187 0.378975 0.000000
0.228625 0.378975 0.000000
0.264063 0.378975 0.000000
0.299500 0.378975 0.000000
0.334938 0.378975 0.000000
0.370375 0.378975 0.000000
0.405813 0.378975 0.000000
0.441250 0.378975 0.000000
0.476688 0.378975 0.000000
0.512125 0.378975 0.000000
0.547563 0.378975 0.000000
0.583000 0.378975 0.000000
0.618437 0.378975 0.000000
0.653875 0.378975 0.000000
0.689313 0.378975 0.000000
0.724750 0.378975 0.000000
0.760188 0.378975 0.000000
0.795625 0.378975 0.000000
0.831063 0.378975 0.000000
0.866500 0.378975 0.000000
0.901938 0.378975 0.000000
0.937375 0.378975 0.000000
0.972813 0.378975 0.000000
1.000000 0.378975 0.000000
1.000000 0.378975 0.000000
1.000000 0.378975 0.000000
1.000000 0.378975 0.000000
1.000000 0.378975 0.000000
0.016000 0.411806 0.000000
0.051438 0.411806 0.000000
0.086875 0.411806 0.000000
0.122313 0.411806 0.000000
0.157750 0.411806 0.000000
0.193187 0.411806 0.000000
0.228625 0.411806 0.000000
0.264063 0.411806 0.000000
0.299500 0.411806 0.000000
0.334938 0.411806 0.000000
0.370375 0.411806 0.000000
0.405813 0.411806 0.000000
0.441250 0.411806 0.000000
0.476688 0.411806 0.000000
0.512125 0.411806 0.000000
0.547563 0.411806 0.000000
0.583000 0.411806 0.000000
0.618437 0.411806 0.000000
0.653875 0.411806 0.000000
0.689313 0.411806 0.000000
0.724750 0.411806 0.000000
0.760188 0.411806 0.000000
0.795625 0.411806 0.000000
0.831063 0.411806 0.000000
0.866500 0.411806 0.000000
0.901938 0.411806 0.000000
0.937375 0.411806 0.000000
0.972813 0.411806 0.000000
1.000000 0.411806 0.000000
1.000000 0.411806 0.000000
1.000000 0.411806 0.000000
1.000000 0.411806 0.000000
1.000000 0.411806 0.000000
0.016000 0.444638 0.000000
0.051438 0.444638 0.000000
0.086875 0.444638 0.000000
0.122313 0.444638 0.000000
0.157750 0.444638 0.000000
0.193187 0.444638 0.000000
0.228625 0.444638 0.000000
0.264063 0.444638 0.000000
0.299500 0.444638 0.000000
0.334938 0.444638 0.000000
0.370375 0.444638 0.000000
0.405813 0.444638 0.000000
0.441250 0.444638 0.000000
0.476688 0.444638 0.000000
0.512125 0.444638 0.000000
0.547563 0.444638 0.000000
0.583000 0.444638 0.000000
0.618437 0.444638 0.000000
0.653875 0.444638 0.000000
0.689313 0.444638 0.000000
0.724750 0.444638 0.000000
0.760188 0.444638 0.000000
0.795625 0.444638 0.000000
0.831063 0.444638 0.000000
0.866500 0.444638 0.000000
0.901938 0.444638 0.000000
0.937375 0.444638 0.000000
0.972813 0.444638 0.000000
1.000000 0.444638 0.000000
1.000000 0.444638 0.000000
1.000000 0.444638 0.000000
1.000000 0.444638 0.000000
1.000000 0.444638 0.000000
0.016000 0.477469 0.000000
0.051438 0.477469 0.000000
0.086875 0.477469 0.000000
0.122313 0.477469 0.000000
0.157750 0.477469 0.000000
0.193187 0.477469 0.000000
0.228625 0.477469 0.000000
0.264063 0.477469 0.000000
0.299500 0.477469 0.000000
0.334938 0.477469 0.000000
0.370375 0.477469 0.000000
0.405813 0.477469 0.000000
0.441250 0.477469 0.000000
0.476688 0.477469 0.000000
0.512125 0.477469 0.000000
0.547563 0.477469 0.000000
0.583000 0.477469 0.000000
0.618437 0.477469 0.000000
0.653875 0.477469 0.000000
0.689313 0.477469 0.000000
0.724750 0.477469 0.000000
0.760188 0.477469 0.000000
0.795625 0.477469 0.000000
0.831063 0.477469 0.000000
0.866500 0.477469 0.000000
0.901938 0.477469 0.000000
0.937375 0.477469 0.000000
0.972813 0.477469 0.000000
1.000000 0.477469 0.000000
1.000000 0.477469 0.000000
1.000000 0.477469 0.000000
1.000000 0.477469 0.000000
1.000000 0.477469 0.000000
0.016000 0.510300 0.000000
0.051438 0.510300 0.000000
0.086875 0.510300 0.000000
0.122313 0.510300 0.000000
0.157750 0.510300 0.000000
0.193187 0.510300 0.000000
0.228625 0.510300 0.000000
0.264063 0.510300 0.000000
0.299500 0.510300 0.000000
0.334938 0.510300 0.000000
0.370375 0.510300 0.000000
0.405813 0.510300 0.000000
0.441250 0.510300 0.000000
0.476688 0.510300 0.000000
0.512125 0.510300 0.000000
0.547563 0.510300 0.000000
0.583000 0.510300 0.000000
0.618437 0.510300 0.000000
0.653875 0.510300 0.000000
0.689313 0.510300 0.000000
0.724750 0.510300 0.000000
0.760188 0.510300 0.000000
0.795625 0.510300 0.000000
0.831063 0.510300 0.000000
0.866500 0.510300 0.000000
0.901938 0.510300 0.000000
0.937375 0.510300 0.000000
0.972813 0.510300 0.000000
1.000000 0.510300 0.000000
1.000000 0.510300 0.000000
1.000000 0.510300 0.000000
1.000000 0.510300 0.000000
1.000000 0.510300 0.000000
0.016000 0.543131 0.000000
0.051438 0.543131 0.000000
0.086875 0.543131 0.000000
0.122313 0.543131 0.000000
0.157750 0.543131 0.000000
0.193187 0.543131 0.000000
0.228625 0.543131 0.000000
0.264063 0.543131 0.000000
0.299500 0.543131 0.000000
0.334938 0.543131 0.000000
0.370375 0.543131 0.000000
0.405813 0.543131 0.000000
0.441250 0.543131 0.000000
0.476688 0.543131 0.000000
0.512125 0.543131 0.000000
0.547563 0.543131 0.000000
0.583000 0.543131 0.000000
0.618437 0.543131 0.000000
0.653875 0.543131 0.000000
0.689313 0.543131 0.000000
0.724750 0.543131 0.000000
0.760188 0.543131 0.000000
0.795625 0.543131 0.000000
0.831063 0.543131 0.000000
0.866500 0.543131 0.000000
0.901938 0.543131 0.000000
0.937375 0.543131 0.000000
0.972813 0.543131 0.000000
1.000000 0.543131 0.000000
1.000000 0.543131 0.000000
1.000000 0.543131 0.000000
1.000000 0.563131 0.000000
1.000000 0.563131 0.000000
0.016000 0.575962 0.000000
0.051438 0.575962 0.000000
0.086875 0.575962 0.000000
0.122313 0.575962 0.000000
0.157750 0.575962 0.000000
0.193187 0.575962 0.000000
0.228625 0.575962 0.000000
0.264063 0.575962 0.000000
0.299500 0.575962 0.000000
0.334938 0.575962 0.000000
0.370375 0.575962 0.000000
0.405813 0.575962 0.000000
0.441250 0.575962 0.000000
0.476688 0.575962 0.000000
0.512125 0.575962 0.000000
0.547563 0.575962 0.000000
0.583000 0.575962 0.000000
0.618437 0.575962 0.000000
0.653875 0.575962 0.000000
0.689313 0.575962 0.000000
0.724750 0.575962 0.000000
0.760188 0.575962 0.000000
0.795625 0.575962 0.000000
0.831063 0.575962 0.000000
0.866500 0.575962 0.000000
0.901938 0.575962 0.000000
0.937375 0.575962 0.000000
0.972813 0.575962 0.000000
1.000000 0.575962 0.000000
1.000000 0.595962 0.000000
1.000000 0.595962 0.000000
1.000000 0.595962 0.000000
1.000000 0.595962 0.000000
0.016000 0.608794 0.000000
0.051438 0.608794 0.000000
0.086875 0.608794 0.000000
0.122313 0.608794 0.000000
0.157750 0.608794 0.000000
0.193187 0.608794 0.000000
0.228625 0.608794 0.000000
0.264063 0.608794 0.000000
0.299500 0.608794 0.000000
0.334938 0.608794 0.000000
0.370375 0.608794 0.000000
0.405813 0.608794 0.000000
0.441250 0.608794 0.000000
0.476688 0.608794 0.000000
0.512125 0.608794 0.000000
0.547563 0.608794 0.000000
0.583000 0.608794 0.000000
0.618437 0.608794 0.000000
0.653875 0.608794 0.000000
0.689313 0.608794 0.000000
0.724750 0.608794 0.000000
0.760188 0.608794 0.000000
0.795625 0.608794 0.000000
0.831063 0.608794 0.000000
0.866500 0.608794 0.000000
0.901938 0.608794 0.000000
0.937375 0.608794 0.000000
1.000000 0.628794 0.000000
1.000000 0.628794 0.000000
1.000000 0.628794 0.000000
1.000000 0.628794 0.000000
1.000000 0.628794 0.000000
1.000000 0.628794 0.000000
0.016000 0.641625 0.000000
0.051438 0.641625 0.000000
0.086875 0.641625 0.000000
0.122313 0.641625 0.000000
0.157750 0.641625 0.000000
0.193187 0.641625 0.000000
0.228625 0.641625 0.000000
0.264063 0.641625 0.000000
0.299500 0.641625 0.000000
0.334938 0.641625 0.000000
0.370375 0.641625 0.000000
0.405813 0.641625 0.000000
0.441250 0.641625 0.000000
0.476688 0.641625 0.000000
0.512125 0.641625 0.000000
0.547563 0.641625 0.000000
0.583000 0.641625 0.000000
0.618437 0.641625 0.000000
0.653875 0.641625 0.000000
0.689313 0.641625 0.000000
0.724750 0.641625 0.000000
0.760188 0.641625 0.000000
0.795625 0.641625 0.000000
0.831063 0.641625 0.000000
0.866500 0.641625 0.000000
0.941938 0.661625 0.000000
0.977375 0.661625 0.000000
1.000000 0.661625 0.000000
1.000000 0.661625 0.000000
1.000000 0.661625 0.000000
1.000000 0.661625 0.000000
1.000000 0.661625 0.000000
1.000000 0.661625 0.000000
0.016000 0.674456 0.000000
0.051438 0.674456 0.000000
0.086875 0.674456 0.000000
0.122313 0.674456 0.000000
0.157750 0.674456 0.000000
0.193187 0.674456 0.000000
0.228625 0.674456 0.000000
0.264063 0.674456 0.000000
0.299500 0.674456 0.000000
0.334938 0.674456 0.000000
0.370375 0.674456 0.000000
0.405813 0.674456 0.000000
0.441250 0.674456 0.000000
0.476688 0.674456 0.000000
0.512125 0.674456 0.000000
0.547563 0.674456 0.000000
0.583000 0.674456 0.000000
0.618437 0.674456 0.000000
0.653875 0.674456 0.000000
0.689313 0.674456 0.000000
0.724750 0.674456 0.000000
0.760188 0.674456 0.000000
0.795625 0.674456 0.000000
0.871063 0.694456 0.000000
0.906500 0.694456 0.000000
0.941938 0.694456 0.000000
0.977375 0.694456 0.000000
1.000000 0.694456 0.000000
1.000000 0.694456 0.000000
1.000000 0.694456 0.000000
1.000000 0.694456 0.000000
1.000000 0.694456 0.000000
1.000000 0.694456 0.000000
0.016000 0.707288 0.000000
0.051438 0.707288 0.000000
0.086875 0.707288 0.000000
0.122313 0.707288 0.000000
0.157750 0.707288 0.000000
0.193187 0.707288 0.000000
0.228625 0.707288 0.000000
0.264063 0.707288 0.000000
0.299500 0.707288 0.000000
0.334938 0.707288 0.000000
0.370375 0.707288 0.000000
0.405813 0.707288 0.000000
0.441250 0.707288 0.000000
0.476688 0.707288 0.000000
0.512125 0.707288 0.000000
0.547563 0.707288 0.000000
0.583000 0.707288 0.000000
0.618437 0.707288 0.000000
0.653875 0.707288 0.000000
0.689313 0.707288 0.000000
0.724750 0.707288 0.000000
0.760188 0.707288 0.000000
0.835625 0.727288 0.000000
0.871063 0.727288 0.000000
0.906500 0.727288 0.000000
0.941938 0.727288 0.000000
0.977375 0.727288 0.000000
1.000000 0.727288 0.000000
1.000000 0.727288 0.000000
1.000000 0.727288 0.000000
1.000000 0.727288 0.000000
1.000000 0.727288 0.000000
1.000000 0.727288 0.000000
0.016000 0.740119 0.000000
0.051438 0.740119 0.000000
0.086875 0.740119 0.000000
0.122313 0.740119 0.000000
0.157750 0.740119 0.000000
0.193187 0.740119 0.000000
0.228625 0.740119 0.000000
0.264063 0.740119 0.000000
0.299500 0.740119 0.000000
0.334938 0.740119 0.000000
0.370375 0.740119 0.000000
0.405813 0.740119 0.000000
0.441250 0.740119 0.000000
0.476688 0.740119 0.000000
0.512125 0.740119 0.000000
0.547563 0.740119 0.000000
0.583000 0.740119 0.000000
0.618437 0.740119 0.000000
0.653875 0.740119 0.000000
0.689313 0.740119 0.000000
0.764750 0.760119 0.000000
0.800188 0.760119 0.000000
0.835625 0.760119 0.000000
0.871063 0.760119 0.000000
0.906500 0.760119 0.000000
0.941938 0.760119 0.000000
0.977375 0.760119 0.000000
1.000000 0.760119 0.000000
1.000000 0.760119 0.000000
1.000000 0.760119 0.000000
1.000000 0.760119 0.000000
1.000000 0.760119 0.000000
1.000000 0.760119 0.000000
0.016000 0.772950 0.000000
0.051438 0.772950 0.000000
0.086875 0.772950 0.000000
0.122313 0.772950 0.000000
0.157750 0.772950 0.000000
0.193187 0.772950 0.000000
0.228625 0.772950 0.000000
0.264063 0.772950 0.000000
0.299500 0.772950 0.000000
0.334938 0.772950 0.000000
0.370375 0.772950 0.000000
0.405813 0.772950 0.000000
0.441250 0.772950 0.000000
0.476688 0.772950 0.000000
0.512125 0.772950 0.000000
0.547563 0.772950 0.000000
0.583000 0.772950 0.000000
0.618437 0.772950 0.000000
0.693875 0.792950 0.000000
0.729313 0.792950 0.000000
0.764750 0.792950 0.000000
0.800188 0.792950 0.000000
0.835625 0.792950 0.000000
0.871063 0.792950 0.000000
0.906500 0.792950 0.000000
0.941938 0.792950 0.000000
0.977375 0.792950 0.000000
1.000000 0.792950 0.000000
1.000000 0.792950 0.000000
1.000000 0.792950 0.000000
1.000000 0.792950 0.000000
1.000000 0.792950 0.000000
1.000000 0.792950 0.000000
0.016000 0.805781 0.000000
0.051438 0.805781 0.000000
0.086875 0.805781 0.000000
0.122313 0.805781 0.000000
0.157750 0.805781 0.000000
0.193187 0.805781 0.000000
0.228625 0.805781 0.000000
0.264063 0.805781 0.000000
0.299500 0.805781 0.000000
0.334938 0.805781 0.000000
0.370375 0.805781 0.000000
0.405813 0.805781 0.000000
0.441250 0.805781 0.000000
0.476688 0.805781 0.000000
0.512125 0.805781 0.000000
0.547563 0.805781 0.000000
0.623000 0.825781 0.000000
0.658438 0.825781 0.000000
0.693875 0.825781 0.000000
0.729313 0.825781 0.000000
0.764750 0.825781 0.000000
0.800188 0.825781 0.000000
0.835625 0.825781 0.000000
0.871063 0.825781 0.000000
0.906500 0.825781 0.000000
0.941938 0.825781 0.000000
0.977375 0.825781 0.000000
1.000000 0.825781 0.000000
1.000000 0.825781 0.000000
1.000000 0.825781 0.000000
1.000000 0.825781 0.000000
1.000000 0.825781 0.000000
1.000000 0.825781 0.000000
0.016000 0.838612 0.000000
0.051438 0.838612 0.000000
0.086875 0.838612 0.000000
0.122313 0.838612 0.000000
0.157750 0.838612 0.000000
0.193187 0.838612 0.000000
0.228625 0.838612 0.000000
0.264063 0.838612 0.000000
0.299500 0.838612 0.000000
0.334938 0.838612 0.000000
0.370375 0.838612 0.000000
0.405813 0.838612 0.000000
0.441250 0.838612 0.000000
0.476688 0.838612 0.000000
0.552125 0.858613 0.000000
0.587563 0.858613 0.000000
0.623000 0.858613 0.000000
0.658438 0.858613 0.000000
0.693875 0.858613 0.000000
0.729313 0.858613 0.000000
0.764750 0.858613 0.000000
0.800188 0.858613 0.000000
0.835625 0.858613 0.000000
0.871063 0.858613 0.000000
0.906500 0.858613 0.000000
0.941938 0.858613 0.000000
0.977375 0.858613 0.000000
1.000000 0.858613 0.000000
1.000000 0.858613 0.000000
