assets/luts/kodak_warm.cube
TITLE "Kodak 2393 Warm"
LUT_3D_SIZE 9
0.000000 0.000000 0.000000
0.089394 0.000000 0.000000
0.236367 0.000000 0.000000
0.380771 0.000000 0.000000
0.522471 0.000000 0.000000
0.661346 0.000000 0.000000
0.797288 0.000000 0.000000
0.930201 0.000000 0.000000
1.000000 0.000000 0.000000
0.000000 0.087560 0.000000
0.089394 0.087560 0.000000
0.236367 0.087560 0.000000
0.380771 0.087560 0.000000
0.522471 0.087560 0.000000
0.661346 0.087560 0.000000
0.797288 0.087560 0.000000
0.930201 0.087560 0.000000
1.000000 0.087560 0.000000
0.000000 0.217451 0.000000
0.089394 0.217451 0.000000
0.236367 0.217451 0.000000
0.380771 0.217451 0.000000
0.522471 0.217451 0.000000
0.661346 0.217451 0.000000
0.797288 0.217451 0.000000
0.930201 0.217451 0.000000
1.000000 0.217451 0.000000
0.000000 0.349569 0.000000
0.089394 0.349569 0.000000
0.236367 0.349569 0.000000
0.380771 0.349569 0.000000
0.522471 0.349569 0.000000
0.661346 0.349569 0.000000
0.797288 0.349569 0.000000
0.930201 0.349569 0.000000
1.000000 0.349569 0.000000
0.000000 0.483811 0.000000
0.089394 0.483811 0.000000
0.236367 0.483811 0.000000
0.380771 0.483811 0.000000
0.522471 0.483811 0.000000
0.661346 0.483811 0.000000
0.797288 0.483811 0.000000
0.930201 0.483811 0.000000
1.000000 0.483811 0.000000
0.000000 0.620075 0.000000
0.089394 0.620075 0.000000
0.236367 0.620075 0.000000
0.380771 0.620075 0.000000
0.522471 0.620075 0.000000
0.661346 0.620075 0.000000
0.797288 0.620075 0.000000
0.930201 0.620075 0.000000
1.000000 0.620075 0.000000
0.000000 0.758261 0.000000
0.089394 0.758261 0.000000
0.236367 0.758261 0.000000
0.380771 0.758261 0.000000
0.522471 0.758261 0.000000
0.661346 0.758261 0.000000
0.797288 0.758261 0.000000
0.930201 0.758261 0.000000
1.000000 0.758261 0.000000
0.000000 0.898269 0.000000
0.089394 0.898269 0.000000
0.236367 0.898269 0.000000
0.380771 0.898269 0.000000
0.522471 0.898269 0.000000
0.661346 0.898269 0.000000
0.797288 0.898269 0.000000
0.930201 0.898269 0.000000
1.000000 0.898269 0.000000
0.000000 1.000000 0.000000
0.089394 1.000000 0.000000
0.236367 1.000000 0.000000
0.380771 1.000000 0.000000
0.522471 1.000000 0.000000
0.661346 1.000000 0.000000
0.797288 1.000000 0.000000
0.930201 1.000000 0.000000
1.000000 1.000000 0.000000
0.000000 0.000000 0.074131
0.089394 0.000000 0.074131
0.236367 0.000000 0.074131
0.380771 0.000000 0.074131
0.522471 0.000000 0.074131
0.661346 0.000000 0.074131
0.797288 0.000000 0.074131
0.930201 0.000000 0.074131
1.000000 0.000000 0.074131
0.000000 0.087560 0.074131
0.089394 0.087560 0.074131
0.236367 0.087560 0.074131
0.380771 0.087560 0.074131
0.522471 0.087560 0.074131
0.661346 0.087560 0.074131
0.797288 0.087560 0.074131
0.930201 0.087560 0.074131
1.000000 0.087560 0.074131
0.000000 0.217451 0.074131
0.089394 0.217451 0.074131
0.236367 0.217451 0.074131
0.380771 0.217451 0.074131
0.522471 0.217451 0.074131
0.661346 0.217451 0.074131
0.797288 0.217451 0.074131
0.930201 0.217451 0.074131
1.000000 0.217451 0.074131
0.000000 0.349569 0.074131
0.089394 0.349569 0.074131
0.236367 0.349569 0.074131
0.380771 0.349569 0.074131
0.522471 0.349569 0.074131
0.661346 0.349569 0.074131
0.797288 0.349569 0.074131
0.930201 0.349569 0.074131
1.000000 0.349569 0.074131
0.000000 0.483811 0.074131
0.089394 0.483811 0.074131
0.236367 0.483811 0.074131
0.380771 0.483811 0.074131
0.522471 0.483811 0.074131
0.661346 0.483811 0.074131
0.797288 0.483811 0.074131
0.930201 0.483811 0.074131
1.000000 0.483811 0.074131
0.000000 0.620075 0.074131
0.089394 0.620075 0.074131
0.236367 0.620075 0.074131
0.380771 0.620075 0.074131
0.522471 0.620075 0.074131
0.661346 0.620075 0.074131
0.797288 0.620075 0.074131
0.930201 0.620075 0.074131
1.000000 0.620075 0.074131
0.000000 0.758261 0.074131
0.089394 0.758261 0.074131
0.236367 0.758261 0.074131
0.380771 0.758261 0.074131
0.522471 0.758261 0.074131
0.661346 0.758261 0.074131
0.797288 0.758261 0.074131
0.930201 0.758261 0.074131
1.000000 0.758261 0.074131
0.000000 0.898269 0.074131
0.089394 0.898269 0.074131
0.236367 0.898269 0.074131
0.380771 0.898269 0.074131
0.522471 0.898269 0.074131
0.661346 0.898269 0.074131
0.797288 0.898269 0.074131
0.930201 0.898269 0.074131
1.000000 0.898269 0.074131
0.000000 1.000000 0.074131
0.089394 1.000000 0.074131
0.236367 1.000000 0.074131
0.380771 1.000000 0.074131
0.522471 1.000000 0.074131
0.661346 1.000000 0.074131
0.797288 1.000000 0.074131
0.930201 1.000000 0.074131
1.000000 1.000000 0.074131
0.000000 0.000000 0.181199
0.089394 0.000000 0.181199
0.236367 0.000000 0.181199
0.380771 0.000000 0.181199
0.522471 0.000000 0.181199
0.661346 0.000000 0.181199
0.797288 0.000000 0.181199
0.930201 0.000000 0.181199
1.000000 0.000000 0.181199
0.000000 0.087560 0.181199
0.089394 0.087560 0.181199
0.236367 0.087560 0.181199
0.380771 0.087560 0.181199
0.522471 0.087560 0.181199
0.661346 0.087560 0.181199
0.797288 0.087560 0.181199
0.930201 0.087560 0.181199
1.000000 0.087560 0.181199
0.000000 0.217451 0.181199
0.089394 0.217451 0.181199
0.236367 0.217451 0.181199
0.380771 0.217451 0.181199
0.522471 0.217451 0.181199
0.661346 0.217451 0.181199
0.797288 0.217451 0.181199
0.930201 0.217451 0.181199
1.000000 0.217451 0.181199
0.000000 0.349569 0.181199
0.089394 0.349569 0.181199
0.236367 0.349569 0.181199
0.380771 0.349569 0.181199
0.522471 0.349569 0.181199
0.661346 0.349569 0.181199
0.797288 0.349569 0.181199
0.930201 0.349569 0.181199
1.000000 0.349569 0.181199
0.000000 0.483811 0.181199
0.089394 0.483811 0.181199
0.236367 0.483811 0.181199
0.380771 0.483811 0.181199
0.522471 0.483811 0.181199
0.661346 0.483811 0.181199
0.797288 0.483811 0.181199
0.930201 0.483811 0.181199
1.000000 0.483811 0.181199
0.000000 0.620075 0.181199
0.089394 0.620075 0.181199
0.236367 0.620075 0.181199
0.380771 0.620075 0.181199
0.522471 0.620075 0.181199
0.661346 0.620075 0.181199
0.797288 0.620075 0.181199
0.930201 0.620075 0.181199
1.000000 0.620075 0.181199
0.000000 0.758261 0.181199
0.089394 0.758261 0.181199
0.236367 0.758261 0.181199
0.380771 0.758261 0.181199
0.522471 0.758261 0.181199
0.661346 0.758261 0.181199
0.797288 0.758261 0.181199
0.930201 0.758261 0.181199
1.000000 0.758261 0.181199
0.000000 0.898269 0.181199
0.089394 0.898269 0.181199
0.236367 0.898269 0.181199
0.380771 0.898269 0.181199
0.522471 0.898269 0.181199
0.661346 0.898269 0.181199
0.797288 0.898269 0.181199
0.930201 0.898269 0.181199
1.000000 0.898269 0.181199
0.000000 1.000000 0.181199
0.089394 1.000000 0.181199
0.236367 1.000000 0.181199
0.380771 1.000000 0.181199
0.522471 1.000000 0.181199
0.661346 1.000000 0.181199
0.797288 1.000000 0.181199
0.930201 1.000000 0.181199
1.000000 1.000000 0.181199
0.000000 0.000000 0.296777
0.089394 0.000000 0.296777
0.236367 0.000000 0.296777
0.380771 0.000000 0.296777
0.522471 0.000000 0.296777
0.661346 0.000000 0.296777
0.797288 0.000000 0.296777
0.930201 0.000000 0.296777
1.000000 0.000000 0.296777
0.000000 0.087560 0.296777
0.089394 0.087560 0.296777
0.236367 0.087560 0.296777
0.380771 0.087560 0.296777
0.522471 0.087560 0.296777
0.661346 0.087560 0.296777
0.797288 0.087560 0.296777
0.930201 0.087560 0.296777
1.000000 0.087560 0.296777
0.000000 0.217451 0.296777
0.089394 0.217451 0.296777
0.236367 0.217451 0.296777
0.380771 0.217451 0.296777
0.522471 0.217451 0.296777
0.661346 0.217451 0.296777
0.797288 0.217451 0.296777
0.930201 0.217451 0.296777
1.000000 0.217451 0.296777
0.000000 0.349569 0.296777
0.089394 0.349569 0.296777
0.236367 0.349569 0.296777
0.380771 0.349569 0.296777
0.522471 0.349569 0.296777
0.661346 0.349569 0.296777
0.797288 0.349569 0.296777
0.930201 0.349569 0.296777
1.000000 0.349569 0.296777
0.000000 0.483811 0.296777
0.089394 0.483811 0.296777
0.236367 0.483811 0.296777
0.380771 0.483811 0.296777
0.522471 0.483811 0.296777
0.661346 0.483811 0.296777
0.797288 0.483811 0.296777
0.930201 0.483811 0.296777
1.000000 0.483811 0.296777
0.000000 0.620075 0.296777
0.089394 0.620075 0.296777
0.236367 0.620075 0.296777
0.380771 0.620075 0.296777
0.522471 0.620075 0.296777
0.661346 0.620075 0.296777
0.797288 0.620075 0.296777
0.930201 0.620075 0.296777
1.000000 0.620075 0.296777
0.000000 0.758261 0.296777
0.089394 0.758261 0.296777
0.236367 0.758261 0.296777
0.380771 0.758261 0.296777
0.522471 0.758261 0.296777
0.661346 0.758261 0.296777
0.797288 0.758261 0.296777
0.930201 0.758261 0.296777
1.000000 0.758261 0.296777
0.000000 0.898269 0.296777
0.089394 0.898269 0.296777
0.236367 0.898269 0.296777
0.380771 0.898269 0.296777
0.522471 0.898269 0.296777
0.661346 0.898269 0.296777
0.797288 0.898269 0.296777
0.930201 0.898269 0.296777
1.000000 0.898269 0.296777
0.000000 1.000000 0.296777
0.089394 1.000000 0.296777
0.236367 1.000000 0.296777
0.380771 1.000000 0.296777
0.522471 1.000000 0.296777
0.661346 1.000000 0.296777
0.797288 1.000000 0.296777
0.930201 1.000000 0.296777
1.000000 1.000000 0.296777
0.000000 0.000000 0.421474
0.089394 0.000000 0.421474
0.236367 0.000000 0.421474
0.380771 0.000000 0.421474
0.522471 0.000000 0.421474
0.661346 0.000000 0.421474
0.797288 0.000000 0.421474
0.930201 0.000000 0.421474
1.000000 0.000000 0.421474
0.000000 0.087560 0.421474
0.089394 0.087560 0.421474
0.236367 0.087560 0.421474
0.380771 0.087560 0.421474
0.522471 0.087560 0.421474
0.661346 0.087560 0.421474
0.797288 0.087560 0.421474
0.930201 0.087560 0.421474
1.000000 0.087560 0.421474
0.000000 0.217451 0.421474
0.089394 0.217451 0.421474
0.236367 0.217451 0.421474
0.380771 0.217451 0.421474
0.522471 0.217451 0.421474
0.661346 0.217451 0.421474
0.797288 0.217451 0.421474
0.930201 0.217451 0.421474
1.000000 0.217451 0.421474
0.000000 0.349569 0.421474
0.089394 0.349569 0.421474
0.236367 0.349569 0.421474
0.380771 0.349569 0.421474
0.522471 0.349569 0.421474
0.661346 0.349569 0.421474
0.797288 0.349569 0.421474
0.930201 0.349569 0.421474
1.000000 0.349569 0.421474
0.000000 0.483811 0.421474
0.089394 0.483811 0.421474
0.236367 0.483811 0.421474
0.380771 0.483811 0.421474
0.522471 0.483811 0.421474
0.661346 0.483811 0.421474
0.797288 0.483811 0.421474
0.930201 0.483811 0.421474
1.000000 0.483811 0.421474
0.000000 0.620075 0.421474
0.089394 0.620075 0.421474
0.236367 0.620075 0.421474
0.380771 0.620075 0.421474
0.522471 0.620075 0.421474
0.661346 0.620075 0.421474
0.797288 0.620075 0.421474
0.930201 0.620075 0.421474
1.000000 0.620075 0.421474
0.000000 0.758261 0.421474
0.089394 0.758261 0.421474
0.236367 0.758261 0.421474
0.380771 0.758261 0.421474
0.522471 0.758261 0.421474
0.661346 0.758261 0.421474
0.797288 0.758261 0.421474
0.930201 0.758261 0.421474
1.000000 0.758261 0.421474
0.000000 0.898269 0.421474
0.089394 0.898269 0.421474
0.236367 0.898269 0.421474
0.380771 0.898269 0.421474
0.522471 0.898269 0.421474
0.661346 0.898269 0.421474
0.797288 0.898269 0.421474
0.930201 0.898269 0.421474
1.000000 0.898269 0.421474
0.000000 1.000000 0.421474
0.089394 1.000000 0.421474
0.236367 1.000000 0.421474
0.380771 1.000000 0.421474
0.522471 1.000000 0.421474
0.661346 1.000000 0.421474
0.797288 1.000000 0.421474
0.930201 1.000000 0.421474
1.000000 1.000000 0.421474
0.000000 0.000000 0.555938
0.089394 0.000000 0.555938
0.236367 0.000000 0.555938
0.380771 0.000000 0.555938
0.522471 0.000000 0.555938
0.661346 0.000000 0.555938
0.797288 0.000000 0.555938
0.930201 0.000000 0.555938
1.000000 0.000000 0.555938
0.000000 0.087560 0.555938
0.089394 0.087560 0.555938
0.236367 0.087560 0.555938
0.380771 0.087560 0.555938
0.522471 0.087560 0.555938
0.661346 0.087560 0.555938
0.797288 0.087560 0.555938
0.930201 0.087560 0.555938
1.000000 0.087560 0.555938
0.000000 0.217451 0.555938
0.089394 0.217451 0.555938
0.236367 0.217451 0.555938
0.380771 0.217451 0.555938
0.522471 0.217451 0.555938
0.661346 0.217451 0.555938
0.797288 0.217451 0.555938
0.930201 0.217451 0.555938
1.000000 0.217451 0.555938
0.000000 0.349569 0.555938
0.089394 0.349569 0.555938
0.236367 0.349569 0.555938
0.380771 0.349569 0.555938
0.522471 0.349569 0.555938
0.661346 0.349569 0.555938
0.797288 0.349569 0.555938
0.930201 0.349569 0.555938
1.000000 0.349569 0.555938
0.000000 0.483811 0.555938
0.089394 0.483811 0.555938
0.236367 0.483811 0.555938
0.380771 0.483811 0.555938
0.522471 0.483811 0.555938
0.661346 0.483811 0.555938
0.797288 0.483811 0.555938
0.930201 0.483811 0.555938
1.000000 0.483811 0.555938
0.000000 0.620075 0.555938
0.089394 0.620075 0.555938
0.236367 0.620075 0.555938
0.380771 0.620075 0.555938
0.522471 0.620075 0.555938
0.661346 0.620075 0.555938
0.797288 0.620075 0.555938
0.930201 0.620075 0.555938
1.000000 0.620075 0.555938
0.000000 0.758261 0.555938
0.089394 0.758261 0.555938
0.236367 0.758261 0.555938
0.380771 0.758261 0.555938
0.522471 0.758261 0.555938
0.661346 0.758261 0.555938
0.797288 0.758261 0.555938
0.930201 0.758261 0.555938
1.000000 0.758261 0.555938
0.000000 0.898269 0.555938
0.089394 0.898269 0.555938
0.236367 0.898269 0.555938
0.380771 0.898269 0.555938
0.522471 0.898269 0.555938
0.661346 0.898269 0.555938
0.797288 0.898269 0.555938
0.930201 0.898269 0.555938
1.000000 0.898269 0.555938
0.000000 1.000000 0.555938
0.089394 1.000000 0.555938
0.236367 1.000000 0.555938
0.380771 1.000000 0.555938
0.522471 1.000000 0.555938
0.661346 1.000000 0.555938
0.797288 1.000000 0.555938
0.930201 1.000000 0.555938
1.000000 1.000000 0.555938
0.000000 0.000000 0.700853
0.089394 0.000000 0.700853
0.236367 0.000000 0.700853
0.380771 0.000000 0.700853
0.522471 0.000000 0.700853
0.661346 0.000000 0.700853
0.797288 0.000000 0.700853
0.930201 0.000000 0.700853
1.000000 0.000000 0.700853
0.000000 0.087560 0.700853
0.089394 0.087560 0.700853
0.236367 0.087560 0.700853
0.380771 0.087560 0.700853
0.522471 0.087560 0.700853
0.661346 0.087560 0.700853
0.797288 0.087560 0.700853
0.930201 0.087560 0.700853
1.000000 0.087560 0.700853
0.000000 0.217451 0.700853
0.089394 0.217451 0.700853
0.236367 0.217451 0.700853
0.380771 0.217451 0.700853
0.522471 0.217451 0.700853
0.661346 0.217451 0.700853
0.797288 0.217451 0.700853
0.930201 0.217451 0.700853
1.000000 0.217451 0.700853
0.000000 0.349569 0.700853
0.089394 0.349569 0.700853
0.236367 0.349569 0.700853
0.380771 0.349569 0.700853
0.522471 0.349569 0.700853
0.661346 0.349569 0.700853
0.797288 0.349569 0.700853
0.930201 0.349569 0.700853
1.000000 0.349569 0.700853
0.000000 0.483811 0.700853
0.089394 0.483811 0.700853
0.236367 0.483811 0.700853
0.380771 0.483811 0.700853
0.522471 0.483811 0.700853
0.661346 0.483811 0.700853
0.797288 0.483811 0.700853
0.930201 0.483811 0.700853
1.000000 0.483811 0.700853
0.000000 0.620075 0.700853
0.089394 0.620075 0.700853
0.236367 0.620075 0.700853
0.380771 0.620075 0.700853
0.522471 0.620075 0.700853
0.661346 0.620075 0.700853
0.797288 0.620075 0.700853
0.930201 0.620075 0.700853
1.000000 0.620075 0.700853
0.000000 0.758261 0.700853
0.089394 0.758261 0.700853
0.236367 0.758261 0.700853
0.380771 0.758261 0.700853
0.522471 0.758261 0.700853
0.661346 0.758261 0.700853
0.797288 0.758261 0.700853
0.930201 0.758261 0.700853
1.000000 0.758261 0.700853
0.000000 0.898269 0.700853
0.089394 0.898269 0.700853
0.236367 0.898269 0.700853
0.380771 0.898269 0.700853
0.522471 0.898269 0.700853
0.661346 0.898269 0.700853
0.797288 0.898269 0.700853
0.930201 0.898269 0.700853
1.000000 0.898269 0.700853
0.000000 1.000000 0.700853
0.089394 1.000000 0.700853
0.236367 1.000000 0.700853
0.380771 1.000000 0.700853
0.522471 1.000000 0.700853
0.661346 1.000000 0.700853
0.797288 1.000000 0.700853
0.930201 1.000000 0.700853
1.000000 1.000000 0.700853
0.000000 0.000000 0.856950
0.089394 0.000000 0.856950
0.236367 0.000000 0.856950
0.380771 0.000000 0.856950
0.522471 0.000000 0.856950
0.661346 0.000000 0.856950
0.797288 0.000000 0.856950
0.930201 0.000000 0.856950
1.000000 0.000000 0.856950
0.000000 0.087560 0.856950
0.089394 0.087560 0.856950
0.236367 0.087560 0.856950
0.380771 0.087560 0.856950
0.522471 0.087560 0.856950
0.661346 0.087560 0.856950
0.797288 0.087560 0.856950
0.930201 0.087560 0.856950
1.000000 0.087560 0.856950
0.000000 0.217451 0.856950
0.089394 0.217451 0.856950
0.236367 0.217451 0.856950
0.380771 0.217451 0.856950
0.522471 0.217451 0.856950
0.661346 0.217451 0.856950
0.797288 0.217451 0.856950
0.930201 0.217451 0.856950
1.000000 0.217451 0.856950
0.000000 0.349569 0.856950
0.089394 0.349569 0.856950
0.236367 0.349569 0.856950
0.380771 0.349569 0.856950
0.522471 0.349569 0.856950
0.661346 0.349569 0.856950
0.797288 0.349569 0.856950
0.930201 0.349569 0.856950
1.000000 0.349569 0.856950
0.000000 0.483811 0.856950
0.089394 0.483811 0.856950
0.236367 0.483811 0.856950
0.380771 0.483811 0.856950
0.522471 0.483811 0.856950
0.661346 0.483811 0.856950
0.797288 0.483811 0.856950
0.930201 0.483811 0.856950
1.000000 0.483811 0.856950
0.000000 0.620075 0.856950
0.089394 0.620075 0.856950
0.236367 0.620075 0.856950
0.380771 0.620075 0.856950
0.522471 0.620075 0.856950
0.661346 0.620075 0.856950
0.797288 0.620075 0.856950
0.930201 0.620075 0.856950
1.000000 0.620075 0.856950
0.000000 0.758261 0.856950
0.089394 0.758261 0.856950
0.236367 0.758261 0.856950
0.380771 0.758261 0.856950
0.522471 0.758261 0.856950
0.661346 0.758261 0.856950
0.797288 0.758261 0.856950
0.930201 0.758261 0.856950
1.000000 0.758261 0.856950
0.000000 0.898269 0.856950
0.089394 0.898269 0.856950
0.236367 0.898269 0.856950
0.380771 0.898269 0.856950
0.522471 0.898269 0.856950
0.661346 0.898269 0.856950
0.797288 0.898269 0.856950
0.930201 0.898269 0.856950
1.000000 0.898269 0.856950
0.000000 1.000000 0.856950
0.089394 1.000000 0.856950
0.236367 1.000000 0.856950
0.380771 1.000000 0.856950
0.522471 1.000000 0.856950
0.661346 1.000000 0.856950
0.797288 1.000000 0.856950
0.930201 1.000000 0.856950
1.000000 1.000000 0.856950
0.000000 0.000000 1.000000
0.089394 0.000000 1.000000
0.236367 0.000000 1.000000
0.380771 0.000000 1.000000
0.522471 0.000000 1.000000
0.661346 0.000000 1.000000
0.797288 0.000000 1.000000
0.930201 0.000000 1.000000
1.000000 0.000000 1.000000
0.000000 0.087560 1.000000
0.089394 0.087560 1.000000
0.236367 0.087560 1.000000
0.380771 0.087560 1.000000
0.522471 0.087560 1.000000
0.661346 0.087560 1.000000
0.797288 0.087560 1.000000
0.930201 0.087560 1.000000
1.000000 0.087560 1.000000
0.000000 0.217451 1.000000
0.089394 0.217451 1.000000
0.236367 0.217451 1.000000
0.380771 0.217451 1.000000
0.522471 0.217451 1.000000
0.661346 0.217451 1.000000
0.797288 0.217451 1.000000
0.930201 0.217451 1.000000
1.000000 0.217451 1.000000
0.000000 0.349569 1.000000
0.089394 0.349569 1.000000
0.236367 0.349569 1.000000
0.380771 0.349569 1.000000
0.522471 0.349569 1.000000
0.661346 0.349569 1.000000
0.797288 0.349569 1.000000
0.930201 0.349569 1.000000
1.000000 0.349569 1.000000
0.000000 0.483811 1.000000
0.089394 0.483811 1.000000
0.236367 0.483811 1.000000
0.380771 0.483811 1.000000
0.522471 0.483811 1.000000
0.661346 0.483811 1.000000
0.797288 0.483811 1.000000
0.930201 0.483811 1.000000
1.000000 0.483811 1.000000
0.000000 0.620075 1.000000
0.089394 0.620075 1.000000
0.236367 0.620075 1.000000
0.380771 0.620075 1.000000
0.522471 0.620075 1.000000
0.661346 0.620075 1.000000
0.797288 0.620075 1.000000
0.930201 0.620075 1.000000
1.000000 0.620075 1.000000
0.000000 0.758261 1.000000
0.089394 0.758261 1.000000
0.236367 0.758261 1.000000
0.380771 0.758261 1.000000
0.522471 0.758261 1.000000
0.661346 0.758261 1.000000
0.797288 0.758261 1.000000
0.930201 0.758261 1.000000
1.000000 0.758261 1.000000
0.000000 0.898269 1.000000
0.089394 0.898269 1.000000
0.236367 0.898269 1.000000
0.380771 0.898269 1.000000
0.522471 0.898269 1.000000
0.661346 0.898269 1.000000
0.797288 0.898269 1.000000
0.930201 0.898269 1.000000
1.000000 0.898269 1.000000
0.000000 1.000000 1.000000
0.089394 1.000000 1.000000
0.236367 1.000000 1.000000
0.380771 1.000000 1.000000
0.522471 1.000000 1.000000
0.661346 1.000000 1.000000
0.797288 1.000000 1.000000
0.930201 1.000000 1.000000
1.000000 1.000000 1.000000
