assets/luts/kodak_warm.cube
TITLE "Kodak 2393 Warm"
LUT_3D_SIZE 33
0.000000 0.000000 0.000000
0.000000 0.000000 0.000000
0.014989 0.000000 0.000000
0.052266 0.000000 0.000000
0.089394 0.000000 0.000000
0.126370 0.000000 0.000000
0.163192 0.000000 0.000000
0.199859 0.000000 0.000000
0.236367 0.000000 0.000000
0.272714 0.000000 0.000000
0.308899 0.000000 0.000000
0.344918 0.000000 0.000000
0.380771 0.000000 0.000000
0.416454 0.000000 0.000000
0.451967 0.000000 0.000000
0.487306 0.000000 0.000000
0.522471 0.000000 0.000000
0.557459 0.000000 0.000000
0.592269 0.000000 0.000000
0.626898 0.000000 0.000000
0.661346 0.000000 0.000000
0.695610 0.000000 0.000000
0.729690 0.000000 0.000000
0.763583 0.000000 0.000000
0.797288 0.000000 0.000000
0.830804 0.000000 0.000000
0.864128 0.000000 0.000000
0.897261 0.000000 0.000000
0.930201 0.000000 0.000000
0.962945 0.000000 0.000000
0.995494 0.000000 0.000000
1.000000 0.000000 0.000000
1.000000 0.000000 0.000000
0.000000 0.000000 0.000000
0.000000 0.000000 0.000000
0.014989 0.000000 0.000000
0.052266 0.000000 0.000000
0.089394 0.000000 0.000000
0.126370 0.000000 0.000000
0.163192 0.000000 0.000000
0.199859 0.000000 0.000000
0.236367 0.000000 0.000000
0.272714 0.000000 0.000000
0.308899 0.000000 0.000000
0.344918 0.000000 0.000000
0.380771 0.000000 0.000000
0.416454 0.000000 0.000000
0.451967 0.000000 0.000000
0.487306 0.000000 0.000000
0.522471 0.000000 0.000000
0.557459 0.000000 0.000000
0.592269 0.000000 0.000000
0.626898 0.000000 0.000000
0.661346 0.000000 0.000000
0.695610 0.000000 0.000000
0.729690 0.000000 0.000000
0.763583 0.000000 0.000000
0.797288 0.000000 0.000000
0.830804 0.000000 0.000000
0.864128 0.000000 0.000000
0.897261 0.000000 0.000000
0.930201 0.000000 0.000000
0.962945 0.000000 0.000000
0.995494 0.000000 0.000000
1.000000 0.000000 0.000000
1.000000 0.000000 0.000000
0.000000 0.023482 0.000000
0.000000 0.023482 0.000000
0.014989 0.023482 0.000000
0.052266 0.023482 0.000000
0.089394 0.023482 0.000000
0.126370 0.023482 0.000000
0.163192 0.023482 0.000000
0.199859 0.023482 0.000000
0.236367 0.023482 0.000000
0.272714 0.023482 0.000000
0.308899 0.023482 0.000000
0.344918 0.023482 0.000000
0.380771 0.023482 0.000000
0.416454 0.023482 0.000000
0.451967 0.023482 0.000000
0.487306 0.023482 0.000000
0.522471 0.023482 0.000000
0.557459 0.023482 0.000000
0.592269 0.023482 0.000000
0.626898 0.023482 0.000000
0.661346 0.023482 0.000000
0.695610 0.023482 0.000000
0.729690 0.023482 0.000000
0.763583 0.023482 0.000000
0.797288 0.023482 0.000000
0.830804 0.023482 0.000000
0.864128 0.023482 0.000000
0.897261 0.023482 0.000000
0.930201 0.023482 0.000000
0.962945 0.023482 0.000000
0.995494 0.023482 0.000000
1.000000 0.023482 0.000000
1.000000 0.023482 0.000000
0.000000 0.055448 0.000000
0.000000 0.055448 0.000000
0.014989 0.055448 0.000000
0.052266 0.055448 0.000000
0.089394 0.055448 0.000000
0.126370 0.055448 0.000000
0.163192 0.055448 0.000000
0.199859 0.055448 0.000000
0.236367 0.055448 0.000000
0.272714 0.055448 0.000000
0.308899 0.055448 0.000000
0.344918 0.055448 0.000000
0.380771 0.055448 0.000000
0.416454 0.055448 0.000000
0.451967 0.055448 0.000000
0.487306 0.055448 0.000000
0.522471 0.055448 0.000000
0.557459 0.055448 0.000000
0.592269 0.055448 0.000000
0.626898 0.055448 0.000000
0.661346 0.055448 0.000000
0.695610 0.055448 0.000000
0.729690 0.055448 0.000000
0.763583 0.055448 0.000000
0.797288 0.055448 0.000000
0.830804 0.055448 0.000000
0.864128 0.055448 0.000000
0.897261 0.055448 0.000000
0.930201 0.055448 0.000000
0.962945 0.055448 0.000000
0.995494 0.055448 0.000000
1.000000 0.055448 0.000000
1.000000 0.055448 0.000000
0.000000 0.087560 0.000000
0.000000 0.087560 0.000000
0.014989 0.087560 0.000000
0.052266 0.087560 0.000000
0.089394 0.087560 0.000000
0.126370 0.087560 0.000000
0.163192 0.087560 0.000000
0.199859 0.087560 0.000000
0.236367 0.087560 0.000000
0.272714 0.087560 0.000000
0.308899 0.087560 0.000000
0.344918 0.087560 0.000000
0.380771 0.087560 0.000000
0.416454 0.087560 0.000000
0.451967 0.087560 0.000000
0.487306 0.087560 0.000000
0.522471 0.087560 0.000000
0.557459 0.087560 0.000000
0.592269 0.087560 0.000000
0.626898 0.087560 0.000000
0.661346 0.087560 0.000000
0.695610 0.087560 0.000000
0.729690 0.087560 0.000000
0.763583 0.087560 0.000000
0.797288 0.087560 0.000000
0.830804 0.087560 0.000000
0.864128 0.087560 0.000000
0.897261 0.087560 0.000000
0.930201 0.087560 0.000000
0.962945 0.087560 0.000000
0.995494 0.087560 0.000000
1.000000 0.087560 0.000000
1.000000 0.087560 0.000000
0.000000 0.119818 0.000000
0.000000 0.119818 0.000000
0.014989 0.119818 0.000000
0.052266 0.119818 0.000000
0.089394 0.119818 0.000000
0.126370 0.119818 0.000000
0.163192 0.119818 0.000000
0.199859 0.119818 0.000000
0.236367 0.119818 0.000000
0.272714 0.119818 0.000000
0.308899 0.119818 0.000000
0.344918 0.119818 0.000000
0.380771 0.119818 0.000000
0.416454 0.119818 0.000000
0.451967 0.119818 0.000000
0.487306 0.119818 0.000000
0.522471 0.119818 0.000000
0.557459 0.119818 0.000000
0.592269 0.119818 0.000000
0.626898 0.119818 0.000000
0.661346 0.119818 0.000000
0.695610 0.119818 0.000000
0.729690 0.119818 0.000000
0.763583 0.119818 0.000000
0.797288 0.119818 0.000000
0.830804 0.119818 0.000000
0.864128 0.119818 0.000000
0.897261 0.119818 0.000000
0.930201 0.119818 0.000000
0.962945 0.119818 0.000000
0.995494 0.119818 0.000000
1.000000 0.119818 0.000000
1.000000 0.119818 0.000000
0.000000 0.152221 0.000000
0.000000 0.152221 0.000000
0.014989 0.152221 0.000000
0.052266 0.152221 0.000000
0.089394 0.152221 0.000000
0.126370 0.152221 0.000000
0.163192 0.152221 0.000000
0.199859 0.152221 0.000000
0.236367 0.152221 0.000000
0.272714 0.152221 0.000000
0.308899 0.152221 0.000000
0.344918 0.152221 0.000000
0.380771 0.152221 0.000000
0.416454 0.152221 0.000000
0.451967 0.152221 0.000000
0.487306 0.152221 0.000000
0.522471 0.152221 0.000000
0.557459 0.152221 0.000000
0.592269 0.152221 0.000000
0.626898 0.152221 0.000000
0.661346 0.152221 0.000000
0.695610 0.152221 0.000000
0.729690 0.152221 0.000000
0.763583 0.152221 0.000000
0.797288 0.152221 0.000000
0.830804 0.152221 0.000000
0.864128 0.152221 0.000000
0.897261 0.152221 0.000000
0.930201 0.152221 0.000000
0.962945 0.152221 0.000000
0.995494 0.152221 0.000000
1.000000 0.152221 0.000000
1.000000 0.152221 0.000000
0.000000 0.184766 0.000000
0.000000 0.184766 0.000000
0.014989 0.184766 0.000000
0.052266 0.184766 0.000000
0.089394 0.184766 0.000000
0.126370 0.184766 0.000000
0.163192 0.184766 0.000000
0.199859 0.184766 0.000000
0.236367 0.184766 0.000000
0.272714 0.184766 0.000000
0.308899 0.184766 0.000000
0.344918 0.184766 0.000000
0.380771 0.184766 0.000000
0.416454 0.184766 0.000000
0.451967 0.184766 0.000000
0.487306 0.184766 0.000000
0.522471 0.184766 0.000000
0.557459 0.184766 0.000000
0.592269 0.184766 0.000000
0.626898 0.184766 0.000000
0.661346 0.184766 0.000000
0.695610 0.184766 0.000000
0.729690 0.184766 0.000000
0.763583 0.184766 0.000000
0.797288 0.184766 0.000000
0.830804 0.184766 0.000000
0.864128 0.184766 0.000000
0.897261 0.184766 0.000000
0.930201 0.184766 0.000000
0.962945 0.184766 0.000000
0.995494 0.184766 0.000000
1.000000 0.184766 0.000000
1.000000 0.184766 0.000000
0.000000 0.217451 0.000000
0.000000 0.217451 0.000000
0.014989 0.217451 0.000000
0.052266 0.217451 0.000000
0.089394 0.217451 0.000000
0.126370 0.217451 0.000000
0.163192 0.217451 0.000000
0.199859 0.217451 0.000000
0.236367 0.217451 0.000000
0.272714 0.217451 0.000000
0.308899 0.217451 0.000000
0.344918 0.217451 0.000000
0.380771 0.217451 0.000000
0.416454 0.217451 0.000000
0.451967 0.217451 0.000000
0.487306 0.217451 0.000000
0.522471 0.217451 0.000000
0.557459 0.217451 0.000000
0.592269 0.217451 0.000000
0.626898 0.217451 0.000000
0.661346 0.217451 0.000000
0.695610 0.217451 0.000000
0.729690 0.217451 0.000000
0.763583 0.217451 0.000000
0.797288 0.217451 0.000000
0.830804 0.217451 0.000000
0.864128 0.217451 0.000000
0.897261 0.217451 0.000000
0.930201 0.217451 0.000000
0.962945 0.217451 0.000000
0.995494 0.217451 0.000000
1.000000 0.217451 0.000000
1.000000 0.217451 0.000000
0.000000 0.250276 0.000000
0.000000 0.250276 0.000000
0.014989 0.250276 0.000000
0.052266 0.250276 0.000000
0.089394 0.250276 0.000000
0.126370 0.250276 0.000000
0.163192 0.250276 0.000000
0.199859 0.250276 0.000000
0.236367 0.250276 0.000000
0.272714 0.250276 0.000000
0.308899 0.250276 0.000000
0.344918 0.250276 0.000000
0.380771 0.250276 0.000000
0.416454 0.250276 0.000000
0.451967 0.250276 0.000000
0.487306 0.250276 0.000000
0.522471 0.250276 0.000000
0.557459 0.250276 0.000000
0.592269 0.250276 0.000000
0.626898 0.250276 0.000000
0.661346 0.250276 0.000000
0.695610 0.250276 0.000000
0.729690 0.250276 0.000000
0.763583 0.250276 0.000000
0.797288 0.250276 0.000000
0.830804 0.250276 0.000000
0.864128 0.250276 0.000000
0.897261 0.250276 0.000000
0.930201 0.250276 0.000000
0.962945 0.250276 0.000000
0.995494 0.250276 0.000000
1.000000 0.250276 0.000000
1.000000 0.250276 0.000000
0.000000 0.283238 0.000000
0.000000 0.283238 0.000000
0.014989 0.283238 0.000000
0.052266 0.283238 0.000000
0.089394 0.283238 0.000000
0.126370 0.283238 0.000000
0.163192 0.283238 0.000000
0.199859 0.283238 0.000000
0.236367 0.283238 0.000000
0.272714 0.283238 0.000000
0.308899 0.283238 0.000000
0.344918 0.283238 0.000000
0.380771 0.283238 0.000000
0.416454 0.283238 0.000000
0.451967 0.283238 0.000000
0.487306 0.283238 0.000000
0.522471 0.283238 0.000000
0.557459 0.283238 0.000000
0.592269 0.283238 0.000000
0.626898 0.283238 0.000000
0.661346 0.283238 0.000000
0.695610 0.283238 0.000000
0.729690 0.283238 0.000000
0.763583 0.283238 0.000000
0.797288 0.283238 0.000000
0.830804 0.283238 0.000000
0.864128 0.283238 0.000000
0.897261 0.283238 0.000000
0.930201 0.283238 0.000000
0.962945 0.283238 0.000000
0.995494 0.283238 0.000000
1.000000 0.283238 0.000000
1.000000 0.283238 0.000000
0.000000 0.316336 0.000000
0.000000 0.316336 0.000000
0.014989 0.316336 0.000000
0.052266 0.316336 0.000000
0.089394 0.316336 0.000000
0.126370 0.316336 0.000000
0.163192 0.316336 0.000000
0.199859 0.316336 0.000000
0.236367 0.316336 0.000000
0.272714 0.316336 0.000000
0.308899 0.316336 0.000000
0.344918 0.316336 0.000000
0.380771 0.316336 0.000000
0.416454 0.316336 0.000000
0.451967 0.316336 0.000000
0.487306 0.316336 0.000000
0.522471 0.316336 0.000000
0.557459 0.316336 0.000000
0.592269 0.316336 0.000000
0.626898 0.316336 0.000000
0.661346 0.316336 0.000000
0.695610 0.316336 0.000000
0.729690 0.316336 0.000000
0.763583 0.316336 0.000000
0.797288 0.316336 0.000000
0.830804 0.316336 0.000000
0.864128 0.316336 0.000000
0.897261 0.316336 0.000000
0.930201 0.316336 0.000000
0.962945 0.316336 0.000000
0.995494 0.316336 0.000000
1.000000 0.316336 0.000000
1.000000 0.316336 0.000000
0.000000 0.349569 0.000000
0.000000 0.349569 0.000000
0.014989 0.349569 0.000000
0.052266 0.349569 0.000000
0.089394 0.349569 0.000000
0.126370 0.349569 0.000000
0.163192 0.349569 0.000000
0.199859 0.349569 0.000000
0.236367 0.349569 0.000000
0.272714 0.349569 0.000000
0.308899 0.349569 0.000000
0.344918 0.349569 0.000000
0.380771 0.349569 0.000000
0.416454 0.349569 0.000000
0.451967 0.349569 0.000000
0.487306 0.349569 0.000000
0.522471 0.349569 0.000000
0.557459 0.349569 0.000000
0.592269 0.349569 0.000000
0.626898 0.349569 0.000000
0.661346 0.349569 0.000000
0.695610 0.349569 0.000000
0.729690 0.349569 0.000000
0.763583 0.349569 0.000000
0.797288 0.349569 0.000000
0.830804 0.349569 0.000000
0.864128 0.349569 0.000000
0.897261 0.349569 0.000000
0.930201 0.349569 0.000000
0.962945 0.349569 0.000000
0.995494 0.349569 0.000000
1.000000 0.349569 0.000000
1.000000 0.349569 0.000000
0.000000 0.382934 0.000000
0.000000 0.382934 0.000000
0.014989 0.382934 0.000000
0.052266 0.382934 0.000000
0.089394 0.382934 0.000000
0.126370 0.382934 0.000000
0.163192 0.382934 0.000000
0.199859 0.382934 0.000000
0.236367 0.382934 0.000000
0.272714 0.382934 0.000000
0.308899 0.382934 0.000000
0.344918 0.382934 0.000000
0.380771 0.382934 0.000000
0.416454 0.382934 0.000000
0.451967 0.382934 0.000000
0.487306 0.382934 0.000000
0.522471 0.382934 0.000000
0.557459 0.382934 0.000000
0.592269 0.382934 0.000000
0.626898 0.382934 0.000000
0.661346 0.382934 0.000000
0.695610 0.382934 0.000000
0.729690 0.382934 0.000000
0.763583 0.382934 0.000000
0.797288 0.382934 0.000000
0.830804 0.382934 0.000000
0.864128 0.382934 0.000000
0.897261 0.382934 0.000000
0.930201 0.382934 0.000000
0.962945 0.382934 0.000000
0.995494 0.382934 0.000000
1.000000 0.382934 0.000000
1.000000 0.382934 0.000000
0.000000 0.416431 0.000000
0.000000 0.416431 0.000000
0.014989 0.416431 0.000000
0.052266 0.416431 0.000000
0.089394 0.416431 0.000000
0.126370 0.416431 0.000000
0.163192 0.416431 0.000000
0.199859 0.416431 0.000000
0.236367 0.416431 0.000000
0.272714 0.416431 0.000000
0.308899 0.416431 0.000000
0.344918 0.416431 0.000000
0.380771 0.416431 0.000000
0.416454 0.416431 0.000000
0.451967 0.416431 0.000000
0.487306 0.416431 0.000000
0.522471 0.416431 0.000000
0.557459 0.416431 0.000000
0.592269 0.416431 0.000000
0.626898 0.416431 0.000000
0.661346 0.416431 0.000000
0.695610 0.416431 0.000000
0.729690 0.416431 0.000000
0.763583 0.416431 0.000000
0.797288 0.416431 0.000000
0.830804 0.416431 0.000000
0.864128 0.416431 0.000000
0.897261 0.416431 0.000000
0.930201 0.416431 0.000000
0.962945 0.416431 0.000000
0.995494 0.416431 0.000000
1.000000 0.416431 0.000000
1.000000 0.416431 0.000000
0.000000 0.450057 0.000000
0.000000 0.450057 0.000000
0.014989 0.450057 0.000000
0.052266 0.450057 0.000000
0.089394 0.450057 0.000000
0.126370 0.450057 0.000000
0.163192 0.450057 0.000000
0.199859 0.450057 0.000000
0.236367 0.450057 0.000000
0.272714 0.450057 0.000000
0.308899 0.450057 0.000000
0.344918 0.450057 0.000000
0.380771 0.450057 0.000000
0.416454 0.450057 0.000000
0.451967 0.450057 0.000000
0.487306 0.450057 0.000000
0.522471 0.450057 0.000000
0.557459 0.450057 0.000000
0.592269 0.450057 0.000000
0.626898 0.450057 0.000000
0.661346 0.450057 0.000000
0.695610 0.450057 0.000000
0.729690 0.450057 0.000000
0.763583 0.450057 0.000000
0.797288 0.450057 0.000000
0.830804 0.450057 0.000000
0.864128 0.450057 0.000000
0.897261 0.450057 0.000000
0.930201 0.450057 0.000000
0.962945 0.450057 0.000000
0.995494 0.450057 0.000000
1.000000 0.450057 0.000000
1.000000 0.450057 0.000000
0.000000 0.483811 0.000000
0.000000 0.483811 0.000000
0.014989 0.483811 0.000000
0.052266 0.483811 0.000000
0.089394 0.483811 0.000000
0.126370 0.483811 0.000000
0.163192 0.483811 0.000000
0.199859 0.483811 0.000000
0.236367 0.483811 0.000000
0.272714 0.483811 0.000000
0.308899 0.483811 0.000000
0.344918 0.483811 0.000000
0.380771 0.483811 0.000000
0.416454 0.483811 0.000000
0.451967 0.483811 0.000000
0.487306 0.483811 0.000000
0.522471 0.483811 0.000000
0.557459 0.483811 0.000000
0.592269 0.483811 0.000000
0.626898 0.483811 0.000000
0.661346 0.483811 0.000000
0.695610 0.483811 0.000000
0.729690 0.483811 0.000000
0.763583 0.483811 0.000000
0.797288 0.483811 0.000000
0.830804 0.483811 0.000000
0.864128 0.483811 0.000000
0.897261 0.483811 0.000000
0.930201 0.483811 0.000000
0.962945 0.483811 0.000000
0.995494 0.483811 0.000000
1.000000 0.483811 0.000000
1.000000 0.483811 0.000000
0.000000 0.517691 0.000000
0.000000 0.517691 0.000000
0.014989 0.517691 0.000000
0.052266 0.517691 0.000000
0.089394 0.517691 0.000000
0.126370 0.517691 0.000000
0.163192 0.517691 0.000000
0.199859 0.517691 0.000000
0.236367 0.517691 0.000000
0.272714 0.517691 0.000000
0.308899 0.517691 0.000000
0.344918 0.517691 0.000000
0.380771 0.517691 0.000000
0.416454 0.517691 0.000000
0.451967 0.517691 0.000000
0.487306 0.517691 0.000000
0.522471 0.517691 0.000000
0.557459 0.517691 0.000000
0.592269 0.517691 0.000000
0.626898 0.517691 0.000000
0.661346 0.517691 0.000000
0.695610 0.517691 0.000000
0.729690 0.517691 0.000000
0.763583 0.517691 0.000000
0.797288 0.517691 0.000000
0.830804 0.517691 0.000000
0.864128 0.517691 0.000000
0.897261 0.517691 0.000000
0.930201 0.517691 0.000000
0.962945 0.517691 0.000000
0.995494 0.517691 0.000000
1.000000 0.517691 0.000000
1.000000 0.517691 0.000000
0.000000 0.551696 0.000000
0.000000 0.551696 0.000000
0.014989 0.551696 0.000000
0.052266 0.551696 0.000000
0.089394 0.551696 0.000000
0.126370 0.551696 0.000000
0.163192 0.551696 0.000000
0.199859 0.551696 0.000000
0.236367 0.551696 0.000000
0.272714 0.551696 0.000000
0.308899 0.551696 0.000000
0.344918 0.551696 0.000000
0.380771 0.551696 0.000000
0.416454 0.551696 0.000000
0.451967 0.551696 0.000000
0.487306 0.551696 0.000000
0.522471 0.551696 0.000000
0.557459 0.551696 0.000000
0.592269 0.551696 0.000000
0.626898 0.551696 0.000000
0.661346 0.551696 0.000000
0.695610 0.551696 0.000000
0.729690 0.551696 0.000000
0.763583 0.551696 0.000000
0.797288 0.551696 0.000000
0.830804 0.551696 0.000000
0.864128 0.551696 0.000000
0.897261 0.551696 0.000000
0.930201 0.551696 0.000000
0.962945 0.551696 0.000000
0.995494 0.551696 0.000000
1.000000 0.551696 0.000000
1.000000 0.551696 0.000000
0.000000 0.585825 0.000000
0.000000 0.585825 0.000000
0.014989 0.585825 0.000000
0.052266 0.585825 0.000000
0.089394 0.585825 0.000000
0.126370 0.585825 0.000000
0.163192 0.585825 0.000000
0.199859 0.585825 0.000000
0.236367 0.585825 0.000000
0.272714 0.585825 0.000000
0.308899 0.585825 0.000000
0.344918 0.585825 0.000000
0.380771 0.585825 0.000000
0.416454 0.585825 0.000000
0.451967 0.585825 0.000000
0.487306 0.585825 0.000000
0.522471 0.585825 0.000000
0.557459 0.585825 0.000000
0.592269 0.585825 0.000000
0.626898 0.585825 0.000000
0.661346 0.585825 0.000000
0.695610 0.585825 0.000000
0.729690 0.585825 0.000000
0.763583 0.585825 0.000000
0.797288 0.585825 0.000000
0.830804 0.585825 0.000000
0.864128 0.585825 0.000000
0.897261 0.585825 0.000000
0.930201 0.585825 0.000000
0.962945 0.585825 0.000000
0.995494 0.585825 0.000000
1.000000 0.585825 0.000000
1.000000 0.585825 0.000000
0.000000 0.620075 0.000000
0.000000 0.620075 0.000000
0.014989 0.620075 0.000000
0.052266 0.620075 0.000000
0.089394 0.620075 0.000000
0.126370 0.620075 0.000000
0.163192 0.620075 0.000000
0.199859 0.620075 0.000000
0.236367 0.620075 0.000000
0.272714 0.620075 0.000000
0.308899 0.620075 0.000000
0.344918 0.620075 0.000000
0.380771 0.620075 0.000000
0.416454 0.620075 0.000000
0.451967 0.620075 0.000000
0.487306 0.620075 0.000000
0.522471 0.620075 0.000000
0.557459 0.620075 0.000000
0.592269 0.620075 0.000000
0.626898 0.620075 0.000000
0.661346 0.620075 0.000000
0.695610 0.620075 0.000000
0.729690 0.620075 0.000000
0.763583 0.620075 0.000000
0.797288 0.620075 0.000000
0.830804 0.620075 0.000000
0.864128 0.620075 0.000000
0.897261 0.620075 0.000000
0.930201 0.620075 0.000000
0.962945 0.620075 0.000000
0.995494 0.620075 0.000000
1.000000 0.620075 0.000000
1.000000 0.620075 0.000000
0.000000 0.654445 0.000000
0.000000 0.654445 0.000000
0.014989 0.654445 0.000000
0.052266 0.654445 0.000000
0.089394 0.654445 0.000000
0.126370 0.654445 0.000000
0.163192 0.654445 0.000000
0.199859 0.654445 0.000000
0.236367 0.654445 0.000000
0.272714 0.654445 0.000000
0.308899 0.654445 0.000000
0.344918 0.654445 0.000000
0.380771 0.654445 0.000000
0.416454 0.654445 0.000000
0.451967 0.654445 0.000000
0.487306 0.654445 0.000000
0.522471 0.654445 0.000000
0.557459 0.654445 0.000000
0.592269 0.654445 0.000000
0.626898 0.654445 0.000000
0.661346 0.654445 0.000000
0.695610 0.654445 0.000000
0.729690 0.654445 0.000000
0.763583 0.654445 0.000000
0.797288 0.654445 0.000000
0.830804 0.654445 0.000000
0.864128 0.654445 0.000000
0.897261 0.654445 0.000000
0.930201 0.654445 0.000000
0.962945 0.654445 0.000000
0.995494 0.654445 0.000000
1.000000 0.654445 0.000000
1.000000 0.654445 0.000000
0.000000 0.688934 0.000000
0.000000 0.688934 0.000000
0.014989 0.688934 0.000000
0.052266 0.688934 0.000000
0.089394 0.688934 0.000000
0.126370 0.688934 0.000000
0.163192 0.688934 0.000000
0.199859 0.688934 0.000000
0.236367 0.688934 0.000000
0.272714 0.688934 0.000000
0.308899 0.688934 0.000000
0.344918 0.688934 0.000000
0.380771 0.688934 0.000000
0.416454 0.688934 0.000000
0.451967 0.688934 0.000000
0.487306 0.688934 0.000000
0.522471 0.688934 0.000000
0.557459 0.688934 0.000000
0.592269 0.688934 0.000000
0.626898 0.688934 0.000000
0.661346 0.688934 0.000000
0.695610 0.688934 0.000000
0.729690 0.688934 0.000000
0.763583 0.688934 0.000000
0.797288 0.688934 0.000000
0.830804 0.688934 0.000000
0.864128 0.688934 0.000000
0.897261 0.688934 0.000000
0.930201 0.688934 0.000000
0.962945 0.688934 0.000000
0.995494 0.688934 0.000000
1.000000 0.688934 0.000000
1.000000 0.688934 0.000000
0.000000 0.723540 0.000000
0.000000 0.723540 0.000000
0.014989 0.723540 0.000000
0.052266 0.723540 0.000000
0.089394 0.723540 0.000000
0.126370 0.723540 0.000000
0.163192 0.723540 0.000000
0.199859 0.723540 0.000000
0.236367 0.723540 0.000000
0.272714 0.723540 0.000000
0.308899 0.723540 0.000000
0.344918 0.723540 0.000000
0.380771 0.723540 0.000000
0.416454 0.723540 0.000000
0.451967 0.723540 0.000000
0.487306 0.723540 0.000000
0.522471 0.723540 0.000000
0.557459 0.723540 0.000000
0.592269 0.723540 0.000000
0.626898 0.723540 0.000000
0.661346 0.723540 0.000000
0.695610 0.723540 0.000000
0.729690 0.723540 0.000000
0.763583 0.723540 0.000000
0.797288 0.723540 0.000000
0.830804 0.723540 0.000000
0.864128 0.723540 0.000000
0.897261 0.723540 0.000000
0.930201 0.723540 0.000000
0.962945 0.723540 0.000000
0.995494 0.723540 0.000000
1.000000 0.723540 0.000000
1.000000 0.723540 0.000000
0.000000 0.758261 0.000000
0.000000 0.758261 0.000000
0.014989 0.758261 0.000000
0.052266 0.758261 0.000000
0.089394 0.758261 0.000000
0.126370 0.758261 0.000000
0.163192 0.758261 0.000000
0.199859 0.758261 0.000000
0.236367 0.758261 0.000000
0.272714 0.758261 0.000000
0.308899 0.758261 0.000000
0.344918 0.758261 0.000000
0.380771 0.758261 0.000000
0.416454 0.758261 0.000000
0.451967 0.758261 0.000000
0.487306 0.758261 0.000000
0.522471 0.758261 0.000000
0.557459 0.758261 0.000000
0.592269 0.758261 0.000000
0.626898 0.758261 0.000000
0.661346 0.758261 0.000000
0.695610 0.758261 0.000000
0.729690 0.758261 0.000000
0.763583 0.758261 0.000000
0.797288 0.758261 0.000000
0.830804 0.758261 0.000000
0.864128 0.758261 0.000000
0.897261 0.758261 0.000000
0.930201 0.758261 0.000000
0.962945 0.758261 0.000000
0.995494 0.758261 0.000000
1.000000 0.758261 0.000000
1.000000 0.758261 0.000000
0.000000 0.793096 0.000000
0.000000 0.793096 0.000000
0.014989 0.793096 0.000000
0.052266 0.793096 0.000000
0.089394 0.793096 0.000000
0.126370 0.793096 0.000000
0.163192 0.793096 0.000000
0.199859 0.793096 0.000000
0.236367 0.793096 0.000000
0.272714 0.793096 0.000000
0.308899 0.793096 0.000000
0.344918 0.793096 0.000000
0.380771 0.793096 0.000000
0.416454 0.793096 0.000000
0.451967 0.793096 0.000000
0.487306 0.793096 0.000000
0.522471 0.793096 0.000000
0.557459 0.793096 0.000000
0.592269 0.793096 0.000000
0.626898 0.793096 0.000000
0.661346 0.793096 0.000000
0.695610 0.793096 0.000000
0.729690 0.793096 0.000000
0.763583 0.793096 0.000000
0.797288 0.793096 0.000000
0.830804 0.793096 0.000000
0.864128 0.793096 0.000000
0.897261 0.793096 0.000000
0.930201 0.793096 0.000000
0.962945 0.793096 0.000000
0.995494 0.793096 0.000000
1.000000 0.793096 0.000000
1.000000 0.793096 0.000000
0.000000 0.828043 0.000000
0.000000 0.828043 0.000000
0.014989 0.828043 0.000000
0.052266 0.828043 0.000000
0.089394 0.828043 0.000000
0.126370 0.828043 0.000000
0.163192 0.828043 0.000000
0.199859 0.828043 0.000000
0.236367 0.828043 0.000000
0.272714 0.828043 0.000000
0.308899 0.828043 0.000000
0.344918 0.828043 0.000000
0.380771 0.828043 0.000000
0.416454 0.828043 0.000000
0.451967 0.828043 0.000000
0.487306 0.828043 0.000000
0.522471 0.828043 0.000000
0.557459 0.828043 0.000000
0.592269 0.828043 0.000000
0.626898 0.828043 0.000000
0.661346 0.828043 0.000000
0.695610 0.828043 0.000000
0.729690 0.828043 0.000000
0.763583 0.828043 0.000000
0.797288 0.828043 0.000000
0.830804 0.828043 0.000000
0.864128 0.828043 0.000000
0.897261 0.828043 0.000000
0.930201 0.828043 0.000000
