assets/luts/kodak_warm.cube
TITLE "Kodak 2393 Warm"
LUT_3D_SIZE 5
0.000000 0.000000 0.000000
0.236367 0.000000 0.000000
0.522471 0.000000 0.000000
0.797288 0.000000 0.000000
1.000000 0.000000 0.000000
0.000000 0.217451 0.000000
0.236367 0.217451 0.000000
0.522471 0.217451 0.000000
0.797288 0.217451 0.000000
1.000000 0.217451 0.000000
0.000000 0.483811 0.000000
0.236367 0.483811 0.000000
0.522471 0.483811 0.000000
0.797288 0.483811 0.000000
1.000000 0.483811 0.000000
0.000000 0.758261 0.000000
0.236367 0.758261 0.000000
0.522471 0.758261 0.000000
0.797288 0.758261 0.000000
1.000000 0.758261 0.000000
0.000000 1.000000 0.000000
0.236367 1.000000 0.000000
0.522471 1.000000 0.000000
0.797288 1.000000 0.000000
1.000000 1.000000 0.000000
0.000000 0.000000 0.181199
0.236367 0.000000 0.181199
0.522471 0.000000 0.181199
0.797288 0.000000 0.181199
1.000000 0.000000 0.181199
0.000000 0.217451 0.181199
0.236367 0.217451 0.181199
0.522471 0.217451 0.181199
0.797288 0.217451 0.181199
1.000000 0.217451 0.181199
0.000000 0.483811 0.181199
0.236367 0.483811 0.181199
0.522471 0.483811 0.181199
0.797288 0.483811 0.181199
1.000000 0.483811 0.181199
0.000000 0.758261 0.181199
0.236367 0.758261 0.181199
0.522471 0.758261 0.181199
0.797288 0.758261 0.181199
1.000000 0.758261 0.181199
0.000000 1.000000 0.181199
0.236367 1.000000 0.181199
0.522471 1.000000 0.181199
0.797288 1.000000 0.181199
1.000000 1.000000 0.181199
0.000000 0.000000 0.421474
0.236367 0.000000 0.421474
0.522471 0.000000 0.421474
0.797288 0.000000 0.421474
1.000000 0.000000 0.421474
0.000000 0.217451 0.421474
0.236367 0.217451 0.421474
0.522471 0.217451 0.421474
0.797288 0.217451 0.421474
1.000000 0.217451 0.421474
0.000000 0.483811 0.421474
0.236367 0.483811 0.421474
0.522471 0.483811 0.421474
0.797288 0.483811 0.421474
1.000000 0.483811 0.421474
0.000000 0.758261 0.421474
0.236367 0.758261 0.421474
0.522471 0.758261 0.421474
0.797288 0.758261 0.421474
1.000000 0.758261 0.421474
0.000000 1.000000 0.421474
0.236367 1.000000 0.421474
0.522471 1.000000 0.421474
0.797288 1.000000 0.421474
1.000000 1.000000 0.421474
0.000000 0.000000 0.700853
0.236367 0.000000 0.700853
0.522471 0.000000 0.700853
0.797288 0.000000 0.700853
1.000000 0.000000 0.700853
0.000000 0.217451 0.700853
0.236367 0.217451 0.700853
0.522471 0.217451 0.700853
0.797288 0.217451 0.700853
1.000000 0.217451 0.700853
0.000000 0.483811 0.700853
0.236367 0.483811 0.700853
0.522471 0.483811 0.700853
0.797288 0.483811 0.700853
1.000000 0.483811 0.700853
0.000000 0.758261 0.700853
0.236367 0.758261 0.700853
0.522471 0.758261 0.700853
0.797288 0.758261 0.700853
1.000000 0.758261 0.700853
0.000000 1.000000 0.700853
0.236367 1.000000 0.700853
0.522471 1.000000 0.700853
0.797288 1.000000 0.700853
1.000000 1.000000 0.700853
0.000000 0.000000 1.000000
0.236367 0.000000 1.000000
0.522471 0.000000 1.000000
0.797288 0.000000 1.000000
1.000000 0.000000 1.000000
0.000000 0.217451 1.000000
0.236367 0.217451 1.000000
0.522471 0.217451 1.000000
0.797288 0.217451 1.000000
1.000000 0.217451 1.000000
0.000000 0.483811 1.000000
0.236367 0.483811 1.000000
0.522471 0.483811 1.000000
0.797288 0.483811 1.000000
1.000000 0.483811 1.000000
0.000000 0.758261 1.000000
0.236367 0.758261 1.000000
0.522471 0.758261 1.000000
0.797288 0.758261 1.000000
1.000000 0.758261 1.000000
0.000000 1.000000 1.000000
0.236367 1.000000 1.000000
0.522471 1.000000 1.000000
0.797288 1.000000 1.000000
1.000000 1.000000 1.000000
