assets/luts/teal_orange.cube
TITLE "Teal & Orange"
LUT_3D_SIZE 5
0.000000 0.000000 0.082000
0.137693 0.000000 0.057332
0.442385 0.000000 0.032665
0.747077 0.000000 0.007997
1.000000 0.000000 0.000000
0.000000 0.245893 0.033573
0.171445 0.239726 0.008905
0.476137 0.233559 0.000000
0.780830 0.227392 0.000000
1.000000 0.229026 0.000000
0.000000 0.508786 0.000000
0.205198 0.502619 0.000000
0.509890 0.503784 0.000000
0.814582 0.510362 0.000000
1.000000 0.516940 0.000000
0.000000 0.778542 0.000000
0.238950 0.785120 0.000000
0.543643 0.791698 0.000000
0.848335 0.798276 0.000000
1.000000 0.804854 0.000000
0.000000 1.000000 0.000000
0.272703 1.000000 0.000000
0.577395 1.000000 0.000000
0.882088 1.000000 0.000000
1.000000 1.000000 0.000000
0.000000 0.000000 0.347595
0.144248 0.000000 0.322928
0.448940 0.000000 0.298260
0.753632 0.000000 0.273592
1.000000 0.000000 0.248925
0.000000 0.243542 0.299168
0.178000 0.237375 0.274500
0.482692 0.231208 0.249833
0.787385 0.225041 0.225165
1.000000 0.231534 0.205398
0.000000 0.506435 0.250740
0.211752 0.500268 0.226073
0.516445 0.506292 0.206124
0.821137 0.512870 0.186390
1.000000 0.519448 0.166656
0.000000 0.781050 0.206850
0.245505 0.787628 0.187116
0.550198 0.794206 0.167382
0.854890 0.800784 0.147648
1.000000 0.807362 0.127914
0.000000 1.000000 0.168108
0.279258 1.000000 0.148374
0.583950 1.000000 0.128640
0.888643 1.000000 0.108906
1.000000 1.000000 0.089172
0.000000 0.000000 0.613190
0.150803 0.000000 0.588522
0.455495 0.000000 0.563855
0.760187 0.000000 0.539188
1.000000 0.000000 0.514520
0.000000 0.241191 0.564763
0.184555 0.235024 0.540095
0.489248 0.228857 0.515427
0.793940 0.227464 0.492608
1.000000 0.234042 0.472874
0.000000 0.504084 0.516335
0.218308 0.502222 0.493334
0.523000 0.508800 0.473600
0.827692 0.515378 0.453866
1.000000 0.521956 0.434132
0.000000 0.783558 0.474326
0.252060 0.790136 0.454592
0.556752 0.796714 0.434858
0.861445 0.803292 0.415124
1.000000 0.809870 0.395390
0.000000 1.000000 0.435584
0.285813 1.000000 0.415850
0.590505 1.000000 0.396116
0.895197 1.000000 0.376382
1.000000 1.000000 0.356648
0.000000 0.000000 0.878785
0.157358 0.000000 0.854118
0.462050 0.000000 0.829450
0.766742 0.000000 0.804782
1.000000 0.000000 0.780115
0.000000 0.238839 0.830357
0.191110 0.232673 0.805690
0.495803 0.226506 0.781022
0.800495 0.229972 0.760084
1.000000 0.236550 0.740350
0.000000 0.501733 0.781930
0.224863 0.504730 0.760810
0.529555 0.511308 0.741076
0.834247 0.517886 0.721342
1.000000 0.524464 0.701608
0.000000 0.786066 0.741802
0.258615 0.792644 0.722068
0.563308 0.799222 0.702334
0.868000 0.805800 0.682600
1.000000 0.812378 0.662866
0.000000 1.000000 0.703060
0.292368 1.000000 0.683326
0.597060 1.000000 0.663592
0.901752 1.000000 0.643858
1.000000 1.000000 0.624124
0.000000 0.000000 1.000000
0.163913 0.000000 1.000000
0.468605 0.000000 1.000000
0.773297 0.000000 1.000000
1.000000 0.000000 1.000000
0.000000 0.236488 1.000000
0.197665 0.230321 1.000000
0.502358 0.225902 1.000000
0.807050 0.232480 1.000000
1.000000 0.239058 1.000000
0.000000 0.500660 1.000000
0.231417 0.507238 1.000000
0.536110 0.513816 1.000000
0.840802 0.520394 0.988818
1.000000 0.526972 0.969084
0.000000 0.788574 1.000000
0.265170 0.795152 0.989544
0.569862 0.801730 0.969810
0.874555 0.808308 0.950076
1.000000 0.814886 0.930342
0.000000 1.000000 0.970536
0.298922 1.000000 0.950802
0.603615 1.000000 0.931068
0.908307 1.000000 0.911334
1.000000 1.000000 0.891600
