assets/luts/teal_orange.cube
TITLE "Teal & Orange"
LUT_3D_SIZE 9
0.000000 0.000000 0.082000
0.000000 0.000000 0.069666
0.137693 0.000000 0.057332
0.290039 0.000000 0.044999
0.442385 0.000000 0.032665
0.594731 0.000000 0.020331
0.747077 0.000000 0.007997
0.899424 0.000000 0.000000
1.000000 0.000000 0.000000
0.000000 0.114447 0.057786
0.002223 0.111363 0.045452
0.154569 0.108280 0.033119
0.306915 0.105196 0.020785
0.459261 0.102113 0.008451
0.611607 0.099029 0.000000
0.763954 0.095946 0.000000
0.916300 0.092862 0.000000
1.000000 0.089779 0.000000
0.000000 0.245893 0.033573
0.019099 0.242810 0.021239
0.171445 0.239726 0.008905
0.323791 0.236643 0.000000
0.476137 0.233559 0.000000
0.628484 0.230476 0.000000
0.780830 0.227392 0.000000
0.933176 0.225737 0.000000
1.000000 0.229026 0.000000
0.000000 0.377340 0.009359
0.035975 0.374256 0.000000
0.188321 0.371173 0.000000
0.340668 0.368089 0.000000
0.493014 0.365006 0.000000
0.645360 0.363116 0.000000
0.797706 0.366405 0.000000
0.950052 0.369694 0.000000
1.000000 0.372983 0.000000
0.000000 0.508786 0.000000
0.052851 0.505703 0.000000
0.205198 0.502619 0.000000
0.357544 0.500495 0.000000
0.509890 0.503784 0.000000
0.662236 0.507073 0.000000
0.814582 0.510362 0.000000
0.966929 0.513651 0.000000
1.000000 0.516940 0.000000
0.000000 0.640233 0.000000
0.069728 0.637874 0.000000
0.222074 0.641163 0.000000
0.374420 0.644452 0.000000
0.526766 0.647741 0.000000
0.679112 0.651030 0.000000
0.831459 0.654319 0.000000
0.983805 0.657608 0.000000
1.000000 0.660897 0.000000
0.000000 0.778542 0.000000
0.086604 0.781831 0.000000
0.238950 0.785120 0.000000
0.391296 0.788409 0.000000
0.543643 0.791698 0.000000
0.695989 0.794987 0.000000
0.848335 0.798276 0.000000
1.000000 0.801565 0.000000
1.000000 0.804854 0.000000
0.000000 0.922499 0.000000
0.103480 0.925788 0.000000
0.255826 0.929077 0.000000
0.408173 0.932366 0.000000
0.560519 0.935655 0.000000
0.712865 0.938944 0.000000
0.865211 0.942233 0.000000
1.000000 0.945522 0.000000
1.000000 0.948811 0.000000
0.000000 1.000000 0.000000
0.120356 1.000000 0.000000
0.272703 1.000000 0.000000
0.425049 1.000000 0.000000
0.577395 1.000000 0.000000
0.729741 1.000000 0.000000
0.882088 1.000000 0.000000
1.000000 1.000000 0.000000
1.000000 1.000000 0.000000
0.000000 0.000000 0.214797
0.000000 0.000000 0.202464
0.140970 0.000000 0.190130
0.293316 0.000000 0.177796
0.445662 0.000000 0.165463
0.598009 0.000000 0.153129
0.750355 0.000000 0.140795
0.902701 0.000000 0.128461
1.000000 0.000000 0.116127
0.000000 0.113271 0.190584
0.005500 0.110187 0.178250
0.157846 0.107104 0.165916
0.310192 0.104021 0.153582
0.462539 0.100937 0.141249
0.614885 0.097854 0.128915
0.767231 0.094770 0.116581
0.919577 0.091687 0.104247
1.000000 0.088603 0.091914
0.000000 0.244717 0.166370
0.022376 0.241634 0.154036
0.174723 0.238551 0.141703
0.327069 0.235467 0.129369
0.479415 0.232384 0.117035
0.631761 0.229300 0.104701
0.784107 0.226217 0.092367
0.936454 0.226991 0.081527
1.000000 0.230280 0.071660
0.000000 0.376164 0.142156
0.039253 0.373081 0.129823
0.191599 0.369997 0.117489
0.343945 0.366914 0.105155
0.496291 0.363830 0.092821
0.648637 0.364370 0.081890
0.800984 0.367659 0.072023
0.953330 0.370948 0.062156
1.000000 0.374237 0.052289
0.000000 0.507611 0.117942
0.056129 0.504527 0.105609
0.208475 0.501444 0.093275
0.360821 0.501749 0.082253
0.513167 0.505038 0.072386
0.665514 0.508327 0.062519
0.817860 0.511616 0.052652
0.970206 0.514905 0.042785
1.000000 0.518194 0.032918
0.000000 0.639057 0.093729
0.073005 0.639128 0.082616
0.225351 0.642417 0.072749
0.377698 0.645706 0.062882
0.530044 0.648995 0.053015
0.682390 0.652284 0.043148
0.834736 0.655573 0.033281
0.987082 0.658862 0.023414
1.000000 0.662151 0.013547
0.000000 0.779796 0.073112
0.089881 0.783085 0.063245
0.242227 0.786374 0.053378
0.394574 0.789663 0.043511
0.546920 0.792952 0.033644
0.699266 0.796241 0.023777
0.851612 0.799530 0.013910
1.000000 0.802819 0.004043
1.000000 0.806108 0.000000
0.000000 0.923753 0.053741
0.106758 0.927042 0.043874
0.259104 0.930331 0.034007
0.411450 0.933620 0.024140
0.563796 0.936909 0.014273
0.716142 0.940198 0.004406
0.868489 0.943487 0.000000
1.000000 0.946776 0.000000
1.000000 0.950065 0.000000
0.000000 1.000000 0.034370
0.123634 1.000000 0.024503
0.275980 1.000000 0.014636
0.428326 1.000000 0.004769
0.580672 1.000000 0.000000
0.733019 1.000000 0.000000
0.885365 1.000000 0.000000
1.000000 1.000000 0.000000
1.000000 1.000000 0.000000
0.000000 0.000000 0.347595
0.000000 0.000000 0.335261
0.144248 0.000000 0.322928
0.296594 0.000000 0.310594
0.448940 0.000000 0.298260
0.601286 0.000000 0.285926
0.753632 0.000000 0.273592
0.905979 0.000000 0.261259
1.000000 0.000000 0.248925
0.000000 0.112095 0.323381
0.008777 0.109012 0.311047
0.161124 0.105928 0.298714
0.313470 0.102845 0.286380
0.465816 0.099762 0.274046
0.618162 0.096678 0.261712
0.770509 0.093595 0.249379
0.922855 0.090511 0.237045
1.000000 0.087577 0.224769
0.000000 0.243542 0.299168
0.025654 0.240458 0.286834
0.178000 0.237375 0.274500
0.330346 0.234292 0.262166
0.482692 0.231208 0.249833
0.635039 0.228125 0.237499
0.787385 0.225041 0.225165
0.939731 0.228245 0.215265
1.000000 0.231534 0.205398
0.000000 0.374988 0.274954
0.042530 0.371905 0.262620
0.194876 0.368822 0.250286
0.347222 0.365738 0.237952
0.499569 0.362655 0.225619
0.651915 0.365624 0.215628
0.804261 0.368913 0.205761
0.956608 0.372202 0.195894
1.000000 0.375491 0.186027
0.000000 0.506435 0.250740
0.059406 0.503352 0.238406
0.211752 0.500268 0.226073
0.364099 0.503003 0.215991
0.516445 0.506292 0.206124
0.668791 0.509581 0.196257
0.821137 0.512870 0.186390
0.973484 0.516159 0.176523
1.000000 0.519448 0.166656
0.000000 0.637882 0.226526
0.076283 0.640382 0.216354
0.228629 0.643671 0.206487
0.380975 0.646960 0.196620
0.533321 0.650249 0.186753
0.685667 0.653538 0.176886
0.838014 0.656827 0.167019
0.990360 0.660116 0.157152
1.000000 0.663405 0.147285
0.000000 0.781050 0.206850
0.093159 0.784339 0.196983
0.245505 0.787628 0.187116
0.397851 0.790917 0.177249
0.550198 0.794206 0.167382
0.702544 0.797495 0.157515
0.854890 0.800784 0.147648
1.000000 0.804073 0.137781
1.000000 0.807362 0.127914
0.000000 0.925007 0.187479
0.110035 0.928296 0.177612
0.262381 0.931585 0.167745
0.414728 0.934874 0.157878
0.567074 0.938163 0.148011
0.719420 0.941452 0.138144
0.871766 0.944741 0.128277
1.000000 0.948030 0.118410
1.000000 0.951319 0.108543
0.000000 1.000000 0.168108
0.126911 1.000000 0.158241
0.279258 1.000000 0.148374
0.431604 1.000000 0.138507
0.583950 1.000000 0.128640
0.736296 1.000000 0.118773
0.888643 1.000000 0.108906
1.000000 1.000000 0.099039
1.000000 1.000000 0.089172
0.000000 0.000000 0.480393
0.000000 0.000000 0.468059
0.147525 0.000000 0.455725
0.299871 0.000000 0.443391
0.452218 0.000000 0.431057
0.604564 0.000000 0.418724
0.756910 0.000000 0.406390
0.909256 0.000000 0.394056
1.000000 0.000000 0.381723
0.000000 0.110920 0.456179
0.012055 0.107836 0.443845
0.164401 0.104753 0.431511
0.316748 0.101669 0.419177
0.469094 0.098586 0.406844
0.621440 0.095502 0.394510
0.773786 0.092419 0.382176
0.926133 0.089336 0.369842
1.000000 0.088831 0.358507
0.000000 0.242366 0.431965
0.028931 0.239283 0.419631
0.181278 0.236199 0.407297
0.333624 0.233116 0.394964
0.485970 0.230032 0.382630
0.638316 0.226949 0.370296
0.790663 0.226210 0.358870
0.943009 0.229499 0.349003
1.000000 0.232788 0.339136
0.000000 0.373813 0.407751
0.045808 0.370729 0.395417
0.198154 0.367646 0.383084
0.350500 0.364563 0.370750
0.502846 0.363589 0.359233
0.655193 0.366878 0.349366
0.807539 0.370167 0.339499
0.959885 0.373456 0.329632
1.000000 0.376745 0.319765
0.000000 0.505259 0.383537
0.062684 0.502176 0.371204
0.215030 0.500968 0.359596
0.367376 0.504257 0.349729
0.519722 0.507546 0.339862
0.672069 0.510835 0.329995
0.824415 0.514124 0.320128
0.976761 0.517413 0.310261
1.000000 0.520702 0.300394
0.000000 0.638347 0.359959
0.079560 0.641636 0.350092
0.231906 0.644925 0.340225
0.384252 0.648214 0.330358
0.536599 0.651503 0.320491
0.688945 0.654792 0.310624
0.841291 0.658081 0.300757
0.993637 0.661370 0.290890
1.000000 0.664659 0.281023
0.000000 0.782304 0.340588
0.096436 0.785593 0.330721
0.248782 0.788882 0.320854
0.401129 0.792171 0.310987
0.553475 0.795460 0.301120
0.705821 0.798749 0.291253
0.858167 0.802038 0.281386
1.000000 0.805327 0.271519
1.000000 0.808616 0.261652
0.000000 0.926261 0.321217
0.113313 0.929550 0.311350
0.265659 0.932839 0.301483
0.418005 0.936128 0.291616
0.570351 0.939417 0.281749
0.722697 0.942706 0.271882
0.875044 0.945995 0.262015
1.000000 0.949284 0.252148
1.000000 0.952573 0.242281
0.000000 1.000000 0.301846
0.130189 1.000000 0.291979
0.282535 1.000000 0.282112
0.434881 1.000000 0.272245
0.587228 1.000000 0.262378
0.739574 1.000000 0.252511
0.891920 1.000000 0.242644
1.000000 1.000000 0.232777
1.000000 1.000000 0.222910
0.000000 0.000000 0.613190
0.000000 0.000000 0.600856
0.150803 0.000000 0.588522
0.303149 0.000000 0.576189
0.455495 0.000000 0.563855
0.607841 0.000000 0.551521
0.760187 0.000000 0.539188
0.912534 0.000000 0.526854
1.000000 0.000000 0.514520
0.000000 0.109744 0.588976
0.015333 0.106661 0.576643
0.167679 0.103577 0.564309
0.320025 0.100494 0.551975
0.472371 0.097410 0.539641
0.624718 0.094327 0.527308
0.777064 0.091243 0.514974
0.929410 0.088160 0.502640
1.000000 0.090085 0.492245
0.000000 0.241191 0.564763
0.032209 0.238107 0.552429
0.184555 0.235024 0.540095
0.336901 0.231940 0.527761
0.489248 0.228857 0.515427
0.641594 0.225773 0.503094
0.793940 0.227464 0.492608
0.946286 0.230753 0.482741
1.000000 0.234042 0.472874
0.000000 0.372637 0.540549
0.049085 0.369554 0.528215
0.201431 0.366470 0.515881
0.353778 0.363387 0.503548
0.506124 0.364843 0.492971
0.658470 0.368132 0.483104
0.810816 0.371421 0.473237
0.963163 0.374710 0.463370
1.000000 0.377999 0.453503
0.000000 0.504084 0.516335
0.065961 0.501000 0.504001
0.218308 0.502222 0.493334
0.370654 0.505511 0.483467
0.523000 0.508800 0.473600
0.675346 0.512089 0.463733
0.827692 0.515378 0.453866
0.980039 0.518667 0.443999
1.000000 0.521956 0.434132
0.000000 0.639601 0.493697
0.082838 0.642890 0.483830
0.235184 0.646179 0.473963
0.387530 0.649468 0.464096
0.539876 0.652757 0.454229
0.692222 0.656046 0.444362
0.844569 0.659335 0.434495
0.996915 0.662624 0.424628
1.000000 0.665913 0.414761
0.000000 0.783558 0.474326
0.099714 0.786847 0.464459
0.252060 0.790136 0.454592
0.404406 0.793425 0.444725
0.556752 0.796714 0.434858
0.709099 0.800003 0.424991
0.861445 0.803292 0.415124
1.000000 0.806581 0.405257
1.000000 0.809870 0.395390
0.000000 0.927515 0.454955
0.116590 0.930804 0.445088
0.268936 0.934093 0.435221
0.421283 0.937382 0.425354
0.573629 0.940671 0.415487
0.725975 0.943960 0.405620
0.878321 0.947249 0.395753
1.000000 0.950538 0.385886
1.000000 0.953827 0.376019
0.000000 1.000000 0.435584
0.133466 1.000000 0.425717
0.285813 1.000000 0.415850
0.438159 1.000000 0.405983
0.590505 1.000000 0.396116
0.742851 1.000000 0.386249
0.895197 1.000000 0.376382
1.000000 1.000000 0.366515
1.000000 1.000000 0.356648
0.000000 0.000000 0.745988
0.001734 0.000000 0.733654
0.154080 0.000000 0.721320
0.306426 0.000000 0.708986
0.458773 0.000000 0.696653
0.611119 0.000000 0.684319
0.763465 0.000000 0.671985
0.915811 0.000000 0.659651
1.000000 0.000000 0.647317
0.000000 0.108568 0.721774
0.018610 0.105485 0.709440
0.170956 0.102402 0.697106
0.323302 0.099318 0.684773
0.475649 0.096235 0.672439
0.627995 0.093151 0.660105
0.780341 0.090068 0.647771
0.932687 0.088050 0.635850
1.000000 0.091339 0.625983
0.000000 0.240015 0.697560
0.035486 0.236932 0.685226
0.187833 0.233848 0.672893
0.340179 0.230765 0.660559
0.492525 0.227681 0.648225
0.644871 0.225429 0.636213
0.797217 0.228718 0.626346
0.949564 0.232007 0.616479
1.000000 0.235296 0.606612
0.000000 0.371462 0.673346
0.052363 0.368378 0.661013
0.204709 0.365295 0.648679
0.357055 0.362808 0.636576
0.509401 0.366097 0.626709
0.661747 0.369386 0.616842
0.814094 0.372675 0.606975
0.966440 0.375964 0.597108
1.000000 0.379253 0.587241
0.000000 0.502908 0.649133
0.069239 0.500187 0.636939
0.221585 0.503476 0.627072
0.373931 0.506765 0.617205
0.526278 0.510054 0.607338
0.678624 0.513343 0.597471
0.830970 0.516632 0.587604
0.983316 0.519921 0.577737
1.000000 0.523210 0.567870
0.000000 0.640855 0.627435
0.086115 0.644144 0.617568
0.238461 0.647433 0.607701
0.390808 0.650722 0.597834
0.543154 0.654011 0.587967
0.695500 0.657300 0.578100
0.847846 0.660589 0.568233
1.000000 0.663878 0.558366
1.000000 0.667167 0.548499
0.000000 0.784812 0.608064
0.102991 0.788101 0.598197
0.255337 0.791390 0.588330
0.407684 0.794679 0.578463
0.560030 0.797968 0.568596
0.712376 0.801257 0.558729
0.864723 0.804546 0.548862
1.000000 0.807835 0.538995
1.000000 0.811124 0.529128
0.000000 0.928769 0.588693
0.119868 0.932058 0.578826
0.272214 0.935347 0.568959
0.424560 0.938636 0.559092
0.576906 0.941925 0.549225
0.729253 0.945214 0.539358
0.881599 0.948503 0.529491
1.000000 0.951792 0.519624
1.000000 0.955081 0.509757
0.000000 1.000000 0.569322
0.136744 1.000000 0.559455
0.289090 1.000000 0.549588
0.441436 1.000000 0.539721
0.593782 1.000000 0.529854
0.746129 1.000000 0.519987
0.898475 1.000000 0.510120
1.000000 1.000000 0.500253
1.000000 1.000000 0.490386
0.000000 0.000000 0.878785
0.005011 0.000000 0.866451
0.157358 0.000000 0.854118
0.309704 0.000000 0.841784
0.462050 0.000000 0.829450
0.614396 0.000000 0.817116
0.766742 0.000000 0.804782
0.919089 0.000000 0.792449
1.000000 0.000000 0.780115
0.000000 0.107393 0.854571
0.021888 0.104309 0.842237
0.174234 0.101226 0.829904
0.326580 0.098142 0.817570
0.478926 0.095059 0.805236
0.631272 0.091976 0.792903
0.783619 0.088892 0.780569
0.935965 0.089304 0.769588
1.000000 0.092593 0.759721
0.000000 0.238839 0.830357
0.038764 0.235756 0.818024
0.191110 0.232673 0.805690
0.343456 0.229589 0.793356
0.495803 0.226506 0.781022
0.648149 0.226683 0.769951
0.800495 0.229972 0.760084
0.952841 0.233261 0.750217
1.000000 0.236550 0.740350
0.000000 0.370286 0.806144
0.055640 0.367202 0.793810
0.207986 0.364119 0.781476
0.360333 0.364062 0.770314
0.512679 0.367351 0.760447
0.665025 0.370640 0.750580
0.817371 0.373929 0.740713
0.969718 0.377218 0.730846
1.000000 0.380507 0.720979
0.000000 0.501733 0.781930
0.072516 0.501441 0.770677
0.224863 0.504730 0.760810
0.377209 0.508019 0.750943
0.529555 0.511308 0.741076
0.681901 0.514597 0.731209
0.834247 0.517886 0.721342
0.986594 0.521175 0.711475
1.000000 0.524464 0.701608
0.000000 0.642109 0.761173
0.089393 0.645398 0.751306
0.241739 0.648687 0.741439
0.394085 0.651976 0.731572
0.546431 0.655265 0.721705
0.698777 0.658554 0.711838
0.851124 0.661843 0.701971
1.000000 0.665132 0.692104
1.000000 0.668421 0.682237
0.000000 0.786066 0.741802
0.106269 0.789355 0.731935
0.258615 0.792644 0.722068
0.410961 0.795933 0.712201
0.563308 0.799222 0.702334
0.715654 0.802511 0.692467
0.868000 0.805800 0.682600
1.000000 0.809089 0.672733
1.000000 0.812378 0.662866
0.000000 0.930023 0.722431
0.123145 0.933312 0.712564
0.275491 0.936601 0.702697
0.427838 0.939890 0.692830
0.580184 0.943179 0.682963
0.732530 0.946468 0.673096
0.884876 0.949757 0.663229
1.000000 0.953046 0.653362
1.000000 0.956335 0.643495
0.000000 1.000000 0.703060
0.140021 1.000000 0.693193
0.292368 1.000000 0.683326
0.444714 1.000000 0.673459
0.597060 1.000000 0.663592
0.749406 1.000000 0.653725
0.901752 1.000000 0.643858
1.000000 1.000000 0.633991
1.000000 1.000000 0.624124
0.000000 0.000000 1.000000
0.008289 0.000000 0.999249
0.160635 0.000000 0.986915
0.312981 0.000000 0.974581
0.465328 0.000000 0.962247
0.617674 0.000000 0.949914
0.770020 0.000000 0.937580
0.922366 0.000000 0.925246
1.000000 0.000000 0.912913
0.000000 0.106217 0.987369
0.025165 0.103134 0.975035
0.177511 0.100050 0.962701
0.329857 0.096967 0.950368
0.482204 0.093883 0.938034
0.634550 0.090800 0.925700
0.786896 0.087717 0.913366
0.939242 0.090558 0.903326
1.000000 0.093847 0.893459
0.000000 0.237664 0.963155
0.042041 0.234580 0.950821
0.194387 0.231497 0.938488
0.346734 0.228413 0.926154
0.499080 0.225330 0.913820
0.651426 0.227937 0.903689
0.803773 0.231226 0.893822
0.956119 0.234515 0.883955
1.000000 0.237804 0.874088
0.000000 0.369110 0.938941
0.058918 0.366027 0.926608
0.211264 0.362943 0.914274
0.363610 0.365316 0.904052
0.515956 0.368605 0.894185
0.668303 0.371894 0.884318
0.820649 0.375183 0.874451
0.972995 0.378472 0.864584
1.000000 0.381761 0.854717
0.000000 0.500557 0.914727
0.075794 0.502695 0.904415
0.228140 0.505984 0.894548
0.380486 0.509273 0.884681
0.532832 0.512562 0.874814
0.685179 0.515851 0.864947
0.837525 0.519140 0.855080
0.989871 0.522429 0.845213
1.000000 0.525718 0.835346
0.000000 0.643363 0.894911
0.092670 0.646652 0.885044
0.245016 0.649941 0.875177
0.397363 0.653230 0.865310
0.549709 0.656519 0.855443
0.702055 0.659808 0.845576
0.854401 0.663097 0.835709
1.000000 0.666386 0.825842
1.000000 0.669675 0.815975
0.000000 0.787320 0.875540
0.109546 0.790609 0.865673
0.261892 0.793898 0.855806
0.414239 0.797187 0.845939
0.566585 0.800476 0.836072
0.718931 0.803765 0.826205
0.871277 0.807054 0.816338
1.000000 0.810343 0.806471
1.000000 0.813632 0.796604
0.000000 0.931277 0.856169
0.126423 0.934566 0.846302
0.278769 0.937855 0.836435
0.431115 0.941144 0.826568
0.583461 0.944433 0.816701
0.735807 0.947722 0.806834
0.888154 0.951011 0.796967
1.000000 0.954300 0.787100
1.000000 0.957589 0.777233
0.000000 1.000000 0.836798
0.143299 1.000000 0.826931
0.295645 1.000000 0.817064
0.447991 1.000000 0.807197
0.600338 1.000000 0.797330
0.752684 1.000000 0.787463
0.905030 1.000000 0.777596
1.000000 1.000000 0.767729
1.000000 1.000000 0.757862
0.000000 0.000000 1.000000
0.011566 0.000000 1.000000
0.163913 0.000000 1.000000
0.316259 0.000000 1.000000
0.468605 0.000000 1.000000
0.620951 0.000000 1.000000
0.773297 0.000000 1.000000
0.925644 0.000000 1.000000
1.000000 0.000000 1.000000
0.000000 0.105042 1.000000
0.028442 0.101958 1.000000
0.180789 0.098875 1.000000
0.333135 0.095791 1.000000
0.485481 0.092708 1.000000
0.637827 0.089624 1.000000
0.790174 0.088523 1.000000
0.942520 0.091812 1.000000
1.000000 0.095101 1.000000
0.000000 0.236488 1.000000
0.045319 0.233405 1.000000
0.197665 0.230321 1.000000
0.350011 0.227238 1.000000
0.502358 0.225902 1.000000
0.654704 0.229191 1.000000
0.807050 0.232480 1.000000
0.959396 0.235769 1.000000
1.000000 0.239058 1.000000
0.000000 0.367935 1.000000
0.062195 0.364851 1.000000
0.214541 0.363281 1.000000
0.366887 0.366570 1.000000
0.519234 0.369859 1.000000
0.671580 0.373148 1.000000
0.823926 0.376437 1.000000
0.976272 0.379726 0.998322
1.000000 0.383015 0.988455
0.000000 0.500660 1.000000
0.079071 0.503949 1.000000
0.231417 0.507238 1.000000
0.383764 0.510527 1.000000
0.536110 0.513816 1.000000
0.688456 0.517105 0.998685
0.840802 0.520394 0.988818
0.993149 0.523683 0.978951
1.000000 0.526972 0.969084
0.000000 0.644617 1.000000
0.095948 0.647906 1.000000
0.248294 0.651195 1.000000
0.400640 0.654484 0.999048
0.552986 0.657773 0.989181
0.705332 0.661062 0.979314
0.857679 0.664351 0.969447
1.000000 0.667640 0.959580
1.000000 0.670929 0.949713
0.000000 0.788574 1.000000
0.112824 0.791863 0.999411
0.265170 0.795152 0.989544
0.417516 0.798441 0.979677
0.569862 0.801730 0.969810
0.722209 0.805019 0.959943
0.874555 0.808308 0.950076
1.000000 0.811597 0.940209
1.000000 0.814886 0.930342
0.000000 0.932531 0.989907
0.129700 0.935820 0.980040
0.282046 0.939109 0.970173
0.434393 0.942398 0.960306
0.586739 0.945687 0.950439
0.739085 0.948976 0.940572
0.891431 0.952265 0.930705
1.000000 0.955554 0.920838
1.000000 0.958843 0.910971
0.000000 1.000000 0.970536
0.146576 1.000000 0.960669
0.298922 1.000000 0.950802
0.451269 1.000000 0.940935
0.603615 1.000000 0.931068
0.755961 1.000000 0.921201
0.908307 1.000000 0.911334
1.000000 1.000000 0.901467
1.000000 1.000000 0.891600
