assets/luts/teal_orange.cube
TITLE "Teal & Orange"
LUT_3D_SIZE 33
0.000000 0.000000 0.082000
0.000000 0.000000 0.078917
0.000000 0.000000 0.075833
0.000000 0.000000 0.072750
0.000000 0.000000 0.069666
0.023433 0.000000 0.066583
0.061519 0.000000 0.063499
0.099606 0.000000 0.060416
0.137693 0.000000 0.057332
0.175779 0.000000 0.054249
0.213866 0.000000 0.051166
0.251952 0.000000 0.048082
0.290039 0.000000 0.044999
0.328125 0.000000 0.041915
0.366212 0.000000 0.038832
0.404298 0.000000 0.035748
0.442385 0.000000 0.032665
0.480472 0.000000 0.029582
0.518558 0.000000 0.026498
0.556645 0.000000 0.023415
0.594731 0.000000 0.020331
0.632818 0.000000 0.017248
0.670904 0.000000 0.014164
0.708991 0.000000 0.011081
0.747077 0.000000 0.007997
0.785164 0.000000 0.004914
0.823251 0.000000 0.001831
0.861337 0.000000 0.000000
0.899424 0.000000 0.000000
0.937510 0.000000 0.000000
0.975597 0.000000 0.000000
1.000000 0.000000 0.000000
1.000000 0.000000 0.000000
0.000000 0.015862 0.075947
0.000000 0.015091 0.072863
0.000000 0.014320 0.069780
0.000000 0.013549 0.066696
0.000000 0.012778 0.063613
0.027652 0.012007 0.060529
0.065738 0.011236 0.057446
0.103825 0.010466 0.054362
0.141912 0.009695 0.051279
0.179998 0.008924 0.048196
0.218085 0.008153 0.045112
0.256171 0.007382 0.042029
0.294258 0.006611 0.038945
0.332344 0.005840 0.035862
0.370431 0.005070 0.032778
0.408517 0.004299 0.029695
0.446604 0.003528 0.026612
0.484691 0.002757 0.023528
0.522777 0.001986 0.020445
0.560864 0.001215 0.017361
0.598950 0.000444 0.014278
0.637037 0.000000 0.011194
0.675123 0.000000 0.008111
0.713210 0.000000 0.005027
0.751297 0.000000 0.001944
0.789383 0.000000 0.000000
0.827470 0.000000 0.000000
0.865556 0.000000 0.000000
0.903643 0.000000 0.000000
0.941729 0.000000 0.000000
0.979816 0.000000 0.000000
1.000000 0.000000 0.000000
1.000000 0.000000 0.000000
0.000000 0.048723 0.069893
0.000000 0.047952 0.066810
0.000000 0.047182 0.063726
0.000000 0.046411 0.060643
0.000000 0.045640 0.057559
0.031871 0.044869 0.054476
0.069958 0.044098 0.051392
0.108044 0.043327 0.048309
0.146131 0.042556 0.045226
0.184217 0.041786 0.042142
0.222304 0.041015 0.039059
0.260390 0.040244 0.035975
0.298477 0.039473 0.032892
0.336563 0.038702 0.029808
0.374650 0.037931 0.026725
0.412737 0.037160 0.023642
0.450823 0.036390 0.020558
0.488910 0.035619 0.017475
0.526996 0.034848 0.014391
0.565083 0.034077 0.011308
0.603169 0.033306 0.008224
0.641256 0.032535 0.005141
0.679342 0.031764 0.002057
0.717429 0.030994 0.000000
0.755516 0.030223 0.000000
0.793602 0.029452 0.000000
0.831689 0.028681 0.000000
0.869775 0.027910 0.000000
0.907862 0.027139 0.000000
0.945948 0.026368 0.000000
0.984035 0.025597 0.000000
1.000000 0.024827 0.000000
1.000000 0.024056 0.000000
0.000000 0.081585 0.063840
0.000000 0.080814 0.060756
0.000000 0.080043 0.057673
0.000000 0.079272 0.054589
0.000000 0.078501 0.051506
0.036090 0.077731 0.048422
0.074177 0.076960 0.045339
0.112263 0.076189 0.042256
0.150350 0.075418 0.039172
0.188436 0.074647 0.036089
0.226523 0.073876 0.033005
0.264609 0.073105 0.029922
0.302696 0.072335 0.026838
0.340782 0.071564 0.023755
0.378869 0.070793 0.020672
0.416956 0.070022 0.017588
0.455042 0.069251 0.014505
0.493129 0.068480 0.011421
0.531215 0.067709 0.008338
0.569302 0.066939 0.005254
0.607388 0.066168 0.002171
0.645475 0.065397 0.000000
0.683562 0.064626 0.000000
0.721648 0.063855 0.000000
0.759735 0.063084 0.000000
0.797821 0.062313 0.000000
0.835908 0.061543 0.000000
0.873994 0.060772 0.000000
0.912081 0.060001 0.000000
0.950167 0.059230 0.000000
0.988254 0.058459 0.000000
1.000000 0.057688 0.000000
1.000000 0.056917 0.000000
0.000000 0.114447 0.057786
0.000000 0.113676 0.054703
0.000000 0.112905 0.051619
0.000000 0.112134 0.048536
0.002223 0.111363 0.045452
0.040309 0.110592 0.042369
0.078396 0.109821 0.039286
0.116482 0.109051 0.036202
0.154569 0.108280 0.033119
0.192655 0.107509 0.030035
0.230742 0.106738 0.026952
0.268828 0.105967 0.023868
0.306915 0.105196 0.020785
0.345002 0.104425 0.017702
0.383088 0.103655 0.014618
0.421175 0.102884 0.011535
0.459261 0.102113 0.008451
0.497348 0.101342 0.005368
0.535434 0.100571 0.002284
0.573521 0.099800 0.000000
0.611607 0.099029 0.000000
0.649694 0.098259 0.000000
0.687781 0.097488 0.000000
0.725867 0.096717 0.000000
0.763954 0.095946 0.000000
0.802040 0.095175 0.000000
0.840127 0.094404 0.000000
0.878213 0.093633 0.000000
0.916300 0.092862 0.000000
0.954387 0.092092 0.000000
0.992473 0.091321 0.000000
1.000000 0.090550 0.000000
1.000000 0.089779 0.000000
0.000000 0.147308 0.051733
0.000000 0.146537 0.048649
0.000000 0.145766 0.045566
0.000000 0.144996 0.042482
0.006442 0.144225 0.039399
0.044528 0.143454 0.036316
0.082615 0.142683 0.033232
0.120701 0.141912 0.030149
0.158788 0.141141 0.027065
0.196874 0.140370 0.023982
0.234961 0.139600 0.020898
0.273047 0.138829 0.017815
0.311134 0.138058 0.014732
0.349221 0.137287 0.011648
0.387307 0.136516 0.008565
0.425394 0.135745 0.005481
0.463480 0.134974 0.002398
0.501567 0.134204 0.000000
0.539653 0.133433 0.000000
0.577740 0.132662 0.000000
0.615827 0.131891 0.000000
0.653913 0.131120 0.000000
0.692000 0.130349 0.000000
0.730086 0.129578 0.000000
0.768173 0.128808 0.000000
0.806259 0.128037 0.000000
0.844346 0.127266 0.000000
0.882432 0.126495 0.000000
0.920519 0.125724 0.000000
0.958606 0.124953 0.000000
0.996692 0.124182 0.000000
1.000000 0.123412 0.000000
1.000000 0.122641 0.000000
0.000000 0.180170 0.045679
0.000000 0.179399 0.042596
0.000000 0.178628 0.039512
0.000000 0.177857 0.036429
0.010661 0.177086 0.033346
0.048747 0.176316 0.030262
0.086834 0.175545 0.027179
0.124920 0.174774 0.024095
0.163007 0.174003 0.021012
0.201093 0.173232 0.017928
0.239180 0.172461 0.014845
0.277267 0.171690 0.011762
0.315353 0.170920 0.008678
0.353440 0.170149 0.005595
0.391526 0.169378 0.002511
0.429613 0.168607 0.000000
0.467699 0.167836 0.000000
0.505786 0.167065 0.000000
0.543872 0.166294 0.000000
0.581959 0.165524 0.000000
0.620046 0.164753 0.000000
0.658132 0.163982 0.000000
0.696219 0.163211 0.000000
0.734305 0.162440 0.000000
0.772392 0.161669 0.000000
0.810478 0.160898 0.000000
0.848565 0.160127 0.000000
0.886652 0.159357 0.000000
0.924738 0.158586 0.000000
0.962825 0.157815 0.000000
1.000000 0.157044 0.000000
1.000000 0.156273 0.000000
1.000000 0.157047 0.000000
0.000000 0.213031 0.039626
0.000000 0.212261 0.036542
0.000000 0.211490 0.033459
0.000000 0.210719 0.030376
0.014880 0.209948 0.027292
0.052966 0.209177 0.024209
0.091053 0.208406 0.021125
0.129139 0.207635 0.018042
0.167226 0.206865 0.014958
0.205313 0.206094 0.011875
0.243399 0.205323 0.008792
0.281486 0.204552 0.005708
0.319572 0.203781 0.002625
0.357659 0.203010 0.000000
0.395745 0.202239 0.000000
0.433832 0.201469 0.000000
0.471918 0.200698 0.000000
0.510005 0.199927 0.000000
0.548092 0.199156 0.000000
0.586178 0.198385 0.000000
0.624265 0.197614 0.000000
0.662351 0.196843 0.000000
0.700438 0.196073 0.000000
0.738524 0.195302 0.000000
0.776611 0.194531 0.000000
0.814697 0.193760 0.000000
0.852784 0.192989 0.000000
0.890871 0.192218 0.000000
0.928957 0.191447 0.000000
0.967044 0.190677 0.000000
1.000000 0.191392 0.000000
1.000000 0.192215 0.000000
1.000000 0.193037 0.000000
0.000000 0.245893 0.033573
0.000000 0.245122 0.030489
0.000000 0.244351 0.027406
0.000000 0.243581 0.024322
0.019099 0.242810 0.021239
0.057185 0.242039 0.018155
0.095272 0.241268 0.015072
0.133358 0.240497 0.011988
0.171445 0.239726 0.008905
0.209532 0.238955 0.005822
0.247618 0.238185 0.002738
0.285705 0.237414 0.000000
0.323791 0.236643 0.000000
0.361878 0.235872 0.000000
0.399964 0.235101 0.000000
0.438051 0.234330 0.000000
0.476137 0.233559 0.000000
0.514224 0.232789 0.000000
0.552311 0.232018 0.000000
0.590397 0.231247 0.000000
0.628484 0.230476 0.000000
0.666570 0.229705 0.000000
0.704657 0.228934 0.000000
0.742743 0.228163 0.000000
0.780830 0.227392 0.000000
0.818917 0.226622 0.000000
0.857003 0.225851 0.000000
0.895090 0.225080 0.000000
0.933176 0.225737 0.000000
0.971263 0.226559 0.000000
1.000000 0.227381 0.000000
1.000000 0.228204 0.000000
1.000000 0.229026 0.000000
0.000000 0.278755 0.027519
0.000000 0.277984 0.024436
0.000000 0.277213 0.021352
0.000000 0.276442 0.018269
0.023318 0.275671 0.015185
0.061404 0.274900 0.012102
0.099491 0.274130 0.009018
0.137577 0.273359 0.005935
0.175664 0.272588 0.002852
0.213751 0.271817 0.000000
0.251837 0.271046 0.000000
0.289924 0.270275 0.000000
0.328010 0.269504 0.000000
0.366097 0.268734 0.000000
0.404183 0.267963 0.000000
0.442270 0.267192 0.000000
0.480357 0.266421 0.000000
0.518443 0.265650 0.000000
0.556530 0.264879 0.000000
0.594616 0.264108 0.000000
0.632703 0.263338 0.000000
0.670789 0.262567 0.000000
0.708876 0.261796 0.000000
0.746962 0.261025 0.000000
0.785049 0.260254 0.000000
0.823136 0.259483 0.000000
0.861222 0.260082 0.000000
0.899309 0.260904 0.000000
0.937395 0.261726 0.000000
0.975482 0.262548 0.000000
1.000000 0.263371 0.000000
1.000000 0.264193 0.000000
1.000000 0.265015 0.000000
0.000000 0.311616 0.021466
0.000000 0.310846 0.018382
0.000000 0.310075 0.015299
0.000000 0.309304 0.012215
0.027537 0.308533 0.009132
0.065623 0.307762 0.006048
0.103710 0.306991 0.002965
0.141797 0.306220 0.000000
0.179883 0.305450 0.000000
0.217970 0.304679 0.000000
0.256056 0.303908 0.000000
0.294143 0.303137 0.000000
0.332229 0.302366 0.000000
0.370316 0.301595 0.000000
0.408403 0.300824 0.000000
0.446489 0.300054 0.000000
0.484576 0.299283 0.000000
0.522662 0.298512 0.000000
0.560749 0.297741 0.000000
0.598835 0.296970 0.000000
0.636922 0.296199 0.000000
0.675008 0.295428 0.000000
0.713095 0.294658 0.000000
0.751182 0.293887 0.000000
0.789268 0.294426 0.000000
0.827355 0.295249 0.000000
0.865441 0.296071 0.000000
0.903528 0.296893 0.000000
0.941614 0.297715 0.000000
0.979701 0.298538 0.000000
1.000000 0.299360 0.000000
1.000000 0.300182 0.000000
1.000000 0.301005 0.000000
0.000000 0.344478 0.015412
0.000000 0.343707 0.012329
0.000000 0.342936 0.009245
0.000000 0.342165 0.006162
0.031756 0.341395 0.003078
0.069843 0.340624 0.000000
0.107929 0.339853 0.000000
0.146016 0.339082 0.000000
0.184102 0.338311 0.000000
0.222189 0.337540 0.000000
0.260275 0.336769 0.000000
0.298362 0.335999 0.000000
0.336448 0.335228 0.000000
0.374535 0.334457 0.000000
0.412622 0.333686 0.000000
0.450708 0.332915 0.000000
0.488795 0.332144 0.000000
0.526881 0.331373 0.000000
0.564968 0.330603 0.000000
0.603054 0.329832 0.000000
0.641141 0.329061 0.000000
0.679228 0.328290 0.000000
0.717314 0.328771 0.000000
0.755401 0.329593 0.000000
0.793487 0.330416 0.000000
0.831574 0.331238 0.000000
0.869660 0.332060 0.000000
0.907747 0.332883 0.000000
0.945833 0.333705 0.000000
0.983920 0.334527 0.000000
1.000000 0.335349 0.000000
1.000000 0.336172 0.000000
1.000000 0.336994 0.000000
0.000000 0.377340 0.009359
0.000000 0.376569 0.006275
0.000000 0.375798 0.003192
0.000000 0.375027 0.000108
0.035975 0.374256 0.000000
0.074062 0.373485 0.000000
0.112148 0.372715 0.000000
0.150235 0.371944 0.000000
0.188321 0.371173 0.000000
0.226408 0.370402 0.000000
0.264494 0.369631 0.000000
0.302581 0.368860 0.000000
0.340668 0.368089 0.000000
0.378754 0.367319 0.000000
0.416841 0.366548 0.000000
0.454927 0.365777 0.000000
0.493014 0.365006 0.000000
0.531100 0.364235 0.000000
0.569187 0.363464 0.000000
0.607273 0.362693 0.000000
0.645360 0.363116 0.000000
0.683447 0.363938 0.000000
0.721533 0.364760 0.000000
0.759620 0.365583 0.000000
0.797706 0.366405 0.000000
0.835793 0.367227 0.000000
0.873879 0.368050 0.000000
0.911966 0.368872 0.000000
0.950052 0.369694 0.000000
0.988139 0.370516 0.000000
1.000000 0.371339 0.000000
1.000000 0.372161 0.000000
1.000000 0.372983 0.000000
0.000000 0.410201 0.003305
0.000000 0.409430 0.000222
0.000000 0.408660 0.000000
0.002108 0.407889 0.000000
0.040194 0.407118 0.000000
0.078281 0.406347 0.000000
0.116367 0.405576 0.000000
0.154454 0.404805 0.000000
0.192540 0.404034 0.000000
0.230627 0.403264 0.000000
0.268713 0.402493 0.000000
0.306800 0.401722 0.000000
0.344887 0.400951 0.000000
0.382973 0.400180 0.000000
0.421060 0.399409 0.000000
0.459146 0.398638 0.000000
0.497233 0.397868 0.000000
0.535319 0.397097 0.000000
0.573406 0.397461 0.000000
0.611492 0.398283 0.000000
0.649579 0.399105 0.000000
0.687666 0.399927 0.000000
0.725752 0.400750 0.000000
0.763839 0.401572 0.000000
0.801925 0.402394 0.000000
0.840012 0.403217 0.000000
0.878098 0.404039 0.000000
0.916185 0.404861 0.000000
0.954272 0.405683 0.000000
0.992358 0.406506 0.000000
1.000000 0.407328 0.000000
1.000000 0.408150 0.000000
1.000000 0.408972 0.000000
0.000000 0.443063 0.000000
0.000000 0.442292 0.000000
0.000000 0.441521 0.000000
0.006327 0.440750 0.000000
0.044413 0.439980 0.000000
0.082500 0.439209 0.000000
0.120586 0.438438 0.000000
0.158673 0.437667 0.000000
0.196759 0.436896 0.000000
0.234846 0.436125 0.000000
0.272933 0.435354 0.000000
0.311019 0.434584 0.000000
0.349106 0.433813 0.000000
0.387192 0.433042 0.000000
0.425279 0.432271 0.000000
0.463365 0.431500 0.000000
0.501452 0.431805 0.000000
0.539538 0.432628 0.000000
0.577625 0.433450 0.000000
0.615712 0.434272 0.000000
0.653798 0.435095 0.000000
0.691885 0.435917 0.000000
0.729971 0.436739 0.000000
0.768058 0.437561 0.000000
0.806144 0.438384 0.000000
0.844231 0.439206 0.000000
0.882317 0.440028 0.000000
0.920404 0.440850 0.000000
0.958491 0.441673 0.000000
0.996577 0.442495 0.000000
1.000000 0.443317 0.000000
1.000000 0.444139 0.000000
1.000000 0.444962 0.000000
0.000000 0.475925 0.000000
0.000000 0.475154 0.000000
0.000000 0.474383 0.000000
0.010546 0.473612 0.000000
0.048632 0.472841 0.000000
0.086719 0.472070 0.000000
0.124805 0.471299 0.000000
0.162892 0.470529 0.000000
0.200978 0.469758 0.000000
0.239065 0.468987 0.000000
0.277152 0.468216 0.000000
0.315238 0.467445 0.000000
0.353325 0.466674 0.000000
0.391411 0.465903 0.000000
0.429498 0.466150 0.000000
0.467584 0.466972 0.000000
0.505671 0.467795 0.000000
0.543758 0.468617 0.000000
0.581844 0.469439 0.000000
0.619931 0.470261 0.000000
0.658017 0.471084 0.000000
0.696104 0.471906 0.000000
0.734190 0.472728 0.000000
0.772277 0.473551 0.000000
0.810363 0.474373 0.000000
0.848450 0.475195 0.000000
0.886537 0.476017 0.000000
0.924623 0.476840 0.000000
0.962710 0.477662 0.000000
1.000000 0.478484 0.000000
1.000000 0.479306 0.000000
1.000000 0.480129 0.000000
1.000000 0.480951 0.000000
0.000000 0.508786 0.000000
0.000000 0.508015 0.000000
0.000000 0.507245 0.000000
0.014765 0.506474 0.000000
0.052851 0.505703 0.000000
0.090938 0.504932 0.000000
0.129024 0.504161 0.000000
0.167111 0.503390 0.000000
0.205198 0.502619 0.000000
0.243284 0.501849 0.000000
0.281371 0.501078 0.000000
0.319457 0.500307 0.000000
0.357544 0.500495 0.000000
0.395630 0.501317 0.000000
0.433717 0.502139 0.000000
0.471803 0.502962 0.000000
0.509890 0.503784 0.000000
0.547977 0.504606 0.000000
0.586063 0.505429 0.000000
0.624150 0.506251 0.000000
0.662236 0.507073 0.000000
0.700323 0.507895 0.000000
0.738409 0.508717 0.000000
0.776496 0.509540 0.000000
0.814582 0.510362 0.000000
0.852669 0.511184 0.000000
0.890756 0.512007 0.000000
0.928842 0.512829 0.000000
0.966929 0.513651 0.000000
1.000000 0.514473 0.000000
1.000000 0.515295 0.000000
1.000000 0.516118 0.000000
1.000000 0.516940 0.000000
0.000000 0.541648 0.000000
0.000000 0.540877 0.000000
0.000000 0.540106 0.000000
0.018984 0.539335 0.000000
0.057070 0.538564 0.000000
0.095157 0.537794 0.000000
0.133243 0.537023 0.000000
0.171330 0.536252 0.000000
0.209417 0.535481 0.000000
0.247503 0.534710 0.000000
0.285590 0.534840 0.000000
0.323676 0.535662 0.000000
0.361763 0.536484 0.000000
0.399849 0.537307 0.000000
0.437936 0.538129 0.000000
0.476022 0.538951 0.000000
0.514109 0.539773 0.000000
0.552196 0.540596 0.000000
0.590282 0.541418 0.000000
0.628369 0.542240 0.000000
0.666455 0.543062 0.000000
0.704542 0.543884 0.000000
0.742628 0.544707 0.000000
0.780715 0.545529 0.000000
0.818802 0.546351 0.000000
0.856888 0.547173 0.000000
0.894975 0.547996 0.000000
0.933061 0.548818 0.000000
0.971148 0.549640 0.000000
1.000000 0.550462 0.000000
1.000000 0.551285 0.000000
1.000000 0.552107 0.000000
1.000000 0.552929 0.000000
0.000000 0.574510 0.000000
0.000000 0.573739 0.000000
0.000000 0.572968 0.000000
0.023203 0.572197 0.000000
0.061289 0.571426 0.000000
0.099376 0.570655 0.000000
0.137462 0.569884 0.000000
0.175549 0.569114 0.000000
0.213636 0.569184 0.000000
0.251722 0.570007 0.000000
0.289809 0.570829 0.000000
0.327895 0.571651 0.000000
0.365982 0.572473 0.000000
0.404068 0.573296 0.000000
0.442155 0.574118 0.000000
0.480242 0.574940 0.000000
0.518328 0.575763 0.000000
0.556415 0.576585 0.000000
0.594501 0.577407 0.000000
0.632588 0.578229 0.000000
0.670674 0.579051 0.000000
0.708761 0.579874 0.000000
0.746847 0.580696 0.000000
0.784934 0.581518 0.000000
0.823021 0.582341 0.000000
0.861107 0.583163 0.000000
0.899194 0.583985 0.000000
0.937280 0.584807 0.000000
0.975367 0.585629 0.000000
1.000000 0.586452 0.000000
1.000000 0.587274 0.000000
1.000000 0.588096 0.000000
1.000000 0.588919 0.000000
0.000000 0.607371 0.000000
0.000000 0.606600 0.000000
0.000000 0.605829 0.000000
0.027422 0.605059 0.000000
0.065508 0.604288 0.000000
0.103595 0.603517 0.000000
0.141682 0.603529 0.000000
0.179768 0.604351 0.000000
0.217855 0.605174 0.000000
0.255941 0.605996 0.000000
0.294028 0.606818 0.000000
0.332114 0.607641 0.000000
0.370201 0.608463 0.000000
0.408288 0.609285 0.000000
0.446374 0.610107 0.000000
0.484461 0.610930 0.000000
0.522547 0.611752 0.000000
0.560634 0.612574 0.000000
0.598720 0.613396 0.000000
0.636807 0.614219 0.000000
0.674893 0.615041 0.000000
0.712980 0.615863 0.000000
0.751067 0.616685 0.000000
0.789153 0.617507 0.000000
0.827240 0.618330 0.000000
0.865326 0.619152 0.000000
0.903413 0.619974 0.000000
0.941499 0.620796 0.000000
0.979586 0.621619 0.000000
1.000000 0.622441 0.000000
1.000000 0.623263 0.000000
1.000000 0.624086 0.000000
1.000000 0.624908 0.000000
0.000000 0.640233 0.000000
0.000000 0.639462 0.000000
0.000000 0.638691 0.000000
0.031641 0.637920 0.000000
0.069728 0.637874 0.000000
0.107814 0.638696 0.000000
0.145901 0.639519 0.000000
0.183987 0.640341 0.000000
0.222074 0.641163 0.000000
0.260160 0.641985 0.000000
0.298247 0.642807 0.000000
0.336333 0.643630 0.000000
0.374420 0.644452 0.000000
0.412507 0.645274 0.000000
0.450593 0.646097 0.000000
0.488680 0.646919 0.000000
0.526766 0.647741 0.000000
0.564853 0.648563 0.000000
0.602939 0.649385 0.000000
0.641026 0.650208 0.000000
0.679112 0.651030 0.000000
0.717199 0.651852 0.000000
0.755286 0.652675 0.000000
0.793372 0.653497 0.000000
0.831459 0.654319 0.000000
0.869545 0.655141 0.000000
0.907632 0.655964 0.000000
0.945718 0.656786 0.000000
0.983805 0.657608 0.000000
1.000000 0.658430 0.000000
1.000000 0.659253 0.000000
1.000000 0.660075 0.000000
1.000000 0.660897 0.000000
0.000000 0.673094 0.000000
0.000000 0.672324 0.000000
0.000000 0.672219 0.000000
0.035860 0.673041 0.000000
0.073947 0.673863 0.000000
0.112033 0.674686 0.000000
0.150120 0.675508 0.000000
0.188206 0.676330 0.000000
0.226293 0.677152 0.000000
0.264379 0.677975 0.000000
0.302466 0.678797 0.000000
0.340553 0.679619 0.000000
0.378639 0.680441 0.000000
0.416726 0.681264 0.000000
0.454812 0.682086 0.000000
0.492899 0.682908 0.000000
0.530985 0.683730 0.000000
0.569072 0.684553 0.000000
0.607158 0.685375 0.000000
0.645245 0.686197 0.000000
0.683332 0.687019 0.000000
0.721418 0.687842 0.000000
0.759505 0.688664 0.000000
0.797591 0.689486 0.000000
0.835678 0.690308 0.000000
0.873764 0.691130 0.000000
0.911851 0.691953 0.000000
0.949937 0.692775 0.000000
0.988024 0.693597 0.000000
1.000000 0.694420 0.000000
1.000000 0.695242 0.000000
1.000000 0.696064 0.000000
1.000000 0.696886 0.000000
0.000000 0.706564 0.000000
0.000000 0.707386 0.000000
0.001993 0.708208 0.000000
0.040079 0.709030 0.000000
0.078166 0.709852 0.000000
0.116252 0.710675 0.000000
0.154339 0.711497 0.000000
0.192425 0.712319 0.000000
0.230512 0.713141 0.000000
0.268598 0.713964 0.000000
0.306685 0.714786 0.000000
0.344772 0.715608 0.000000
0.382858 0.716430 0.000000
0.420945 0.717253 0.000000
0.459031 0.718075 0.000000
0.497118 0.718897 0.000000
0.535204 0.719719 0.000000
0.573291 0.720542 0.000000
0.611378 0.721364 0.000000
0.649464 0.722186 0.000000
0.687551 0.723009 0.000000
0.725637 0.723831 0.000000
0.763724 0.724653 0.000000
0.801810 0.725475 0.000000
0.839897 0.726298 0.000000
0.877983 0.727120 0.000000
0.916070 0.727942 0.000000
0.954157 0.728764 0.000000
0.992243 0.729587 0.000000
1.000000 0.730409 0.000000
1.000000 0.731231 0.000000
1.000000 0.732053 0.000000
1.000000 0.732876 0.000000
0.000000 0.742553 0.000000
0.000000 0.743375 0.000000
0.006212 0.744197 0.000000
0.044298 0.745019 0.000000
0.082385 0.745842 0.000000
0.120471 0.746664 0.000000
0.158558 0.747486 0.000000
0.196644 0.748309 0.000000
0.234731 0.749131 0.000000
0.272818 0.749953 0.000000
0.310904 0.750775 0.000000
0.348991 0.751597 0.000000
0.387077 0.752420 0.000000
0.425164 0.753242 0.000000
0.463250 0.754064 0.000000
0.501337 0.754887 0.000000
0.539423 0.755709 0.000000
0.577510 0.756531 0.000000
0.615597 0.757353 0.000000
0.653683 0.758175 0.000000
0.691770 0.758998 0.000000
0.729856 0.759820 0.000000
0.767943 0.760642 0.000000
0.806029 0.761464 0.000000
0.844116 0.762287 0.000000
0.882203 0.763109 0.000000
0.920289 0.763931 0.000000
0.958376 0.764754 0.000000
0.996462 0.765576 0.000000
1.000000 0.766398 0.000000
1.000000 0.767220 0.000000
1.000000 0.768042 0.000000
1.000000 0.768865 0.000000
0.000000 0.778542 0.000000
0.000000 0.779364 0.000000
0.010431 0.780187 0.000000
0.048517 0.781009 0.000000
0.086604 0.781831 0.000000
0.124690 0.782653 0.000000
0.162777 0.783475 0.000000
0.200863 0.784298 0.000000
0.238950 0.785120 0.000000
0.277037 0.785942 0.000000
0.315123 0.786765 0.000000
0.353210 0.787587 0.000000
0.391296 0.788409 0.000000
0.429383 0.789231 0.000000
0.467469 0.790053 0.000000
0.505556 0.790876 0.000000
0.543643 0.791698 0.000000
0.581729 0.792520 0.000000
0.619816 0.793343 0.000000
0.657902 0.794165 0.000000
0.695989 0.794987 0.000000
0.734075 0.795809 0.000000
0.772162 0.796632 0.000000
0.810248 0.797454 0.000000
0.848335 0.798276 0.000000
0.886422 0.799098 0.000000
0.924508 0.799921 0.000000
0.962595 0.800743 0.000000
1.000000 0.801565 0.000000
1.000000 0.802387 0.000000
1.000000 0.803210 0.000000
1.000000 0.804032 0.000000
1.000000 0.804854 0.000000
0.000000 0.814531 0.000000
0.000000 0.815354 0.000000
0.014650 0.816176 0.000000
0.052736 0.816998 0.000000
0.090823 0.817820 0.000000
0.128909 0.818643 0.000000
0.166996 0.819465 0.000000
0.205083 0.820287 0.000000
0.243169 0.821109 0.000000
0.281256 0.821932 0.000000
0.319342 0.822754 0.000000
0.357429 0.823576 0.000000
0.395515 0.824398 0.000000
0.433602 0.825221 0.000000
0.471688 0.826043 0.000000
0.509775 0.826865 0.000000
0.547862 0.827687 0.000000
0.585948 0.828510 0.000000
0.624035 0.829332 0.000000
0.662121 0.830154 0.000000
0.700208 0.830976 0.000000
0.738294 0.831798 0.000000
0.776381 0.832621 0.000000
0.814467 0.833443 0.000000
0.852554 0.834265 0.000000
0.890641 0.835087 0.000000
0.928727 0.835910 0.000000
0.966814 0.836732 0.000000
1.000000 0.837554 0.000000
1.000000 0.838376 0.000000
1.000000 0.839199 0.000000
1.000000 0.840021 0.000000
1.000000 0.840843 0.000000
0.000000 0.850521 0.000000
0.000000 0.851343 0.000000
0.018869 0.852165 0.000000
0.056955 0.852987 0.000000
0.095042 0.853809 0.000000
0.133128 0.854632 0.000000
0.171215 0.855454 0.000000
0.209302 0.856276 0.000000
0.247388 0.857098 0.000000
0.285475 0.857921 0.000000
0.323561 0.858743 0.000000
0.361648 0.859565 0.000000
0.399734 0.860387 0.000000
0.437821 0.861210 0.000000
0.475907 0.862032 0.000000
0.513994 0.862854 0.000000
0.552081 0.863676 0.000000
0.590167 0.864499 0.000000
0.628254 0.865321 0.000000
0.666340 0.866143 0.000000
0.704427 0.866966 0.000000
0.742513 0.867788 0.000000
0.780600 0.868610 0.000000
0.818687 0.869432 0.000000
0.856773 0.870254 0.000000
0.894860 0.871077 0.000000
0.932946 0.871899 0.000000
0.971033 0.872721 0.000000
1.000000 0.873544 0.000000
