assets/luts/vintage_tobacco.cube
TITLE "Vintage Tobacco"
LUT_3D_SIZE 33
0.075400 0.038000 0.000000
0.094378 0.042587 0.002662
0.113355 0.047173 0.007825
0.132333 0.051760 0.012987
0.151310 0.056346 0.018150
0.170288 0.060933 0.023312
0.189265 0.065520 0.028475
0.208243 0.070106 0.033637
0.227221 0.074693 0.038799
0.246198 0.079280 0.043962
0.265176 0.083866 0.049124
0.284153 0.088453 0.054287
0.303131 0.093039 0.059449
0.322109 0.097626 0.064611
0.341086 0.102213 0.069774
0.360064 0.106799 0.074936
0.379041 0.111386 0.080099
0.398019 0.115972 0.085261
0.416996 0.120559 0.090424
0.435974 0.125146 0.095586
0.454952 0.129732 0.100748
0.473929 0.134319 0.105911
0.492907 0.138905 0.111073
0.511884 0.143492 0.116236
0.530862 0.148079 0.121398
0.549839 0.152665 0.126561
0.568817 0.157252 0.131723
0.587795 0.161839 0.136885
0.606772 0.166425 0.142048
0.625750 0.171012 0.147210
0.644727 0.175598 0.152373
0.663705 0.180185 0.157535
0.682682 0.184772 0.162697
0.083976 0.059555 0.007635
0.102953 0.064142 0.012797
0.121931 0.068728 0.017960
0.140908 0.073315 0.023122
0.159886 0.077902 0.028285
0.178864 0.082488 0.033447
0.197841 0.087075 0.038609
0.216819 0.091662 0.043772
0.235796 0.096248 0.048934
0.254774 0.100835 0.054097
0.273751 0.105421 0.059259
0.292729 0.110008 0.064422
0.311707 0.114595 0.069584
0.330684 0.119181 0.074746
0.349662 0.123768 0.079909
0.368639 0.128354 0.085071
0.387617 0.132941 0.090234
0.406595 0.137528 0.095396
0.425572 0.142114 0.100559
0.444550 0.146701 0.105721
0.463527 0.151288 0.110883
0.482505 0.155874 0.116046
0.501482 0.160461 0.121208
0.520460 0.165047 0.126371
0.539438 0.169634 0.131533
0.558415 0.174221 0.136695
0.577393 0.178807 0.141858
0.596370 0.183394 0.147020
0.615348 0.187980 0.152183
0.634325 0.192567 0.157345
0.653303 0.197154 0.162508
0.672281 0.201740 0.167670
0.691258 0.206327 0.172832
0.092551 0.081111 0.017770
0.111529 0.085697 0.022932
0.130507 0.090284 0.028095
0.149484 0.094870 0.033257
0.168462 0.099457 0.038420
0.187439 0.104044 0.043582
0.206417 0.108630 0.048744
0.225394 0.113217 0.053907
0.244372 0.117803 0.059069
0.263350 0.122390 0.064232
0.282327 0.126977 0.069394
0.301305 0.131563 0.074556
0.320282 0.136150 0.079719
0.339260 0.140737 0.084881
0.358237 0.145323 0.090044
0.377215 0.149910 0.095206
0.396193 0.154496 0.100369
0.415170 0.159083 0.105531
0.434148 0.163670 0.110693
0.453125 0.168256 0.115856
0.472103 0.172843 0.121018
0.491081 0.177429 0.126181
0.510058 0.182016 0.131343
0.529036 0.186603 0.136506
0.548013 0.191189 0.141668
0.566991 0.195776 0.146830
0.585968 0.200362 0.151993
0.604946 0.204949 0.157155
0.623924 0.209536 0.162318
0.642901 0.214122 0.167480
0.661879 0.218709 0.172642
0.680856 0.223296 0.177805
0.699834 0.227882 0.182967
0.101127 0.102666 0.027905
0.120105 0.107252 0.033067
0.139082 0.111839 0.038230
0.158060 0.116426 0.043392
0.177037 0.121012 0.048554
0.196015 0.125599 0.053717
0.214993 0.130185 0.058879
0.233970 0.134772 0.064042
0.252948 0.139359 0.069204
0.271925 0.143945 0.074367
0.290903 0.148532 0.079529
0.309880 0.153119 0.084691
0.328858 0.157705 0.089854
0.347836 0.162292 0.095016
0.366813 0.166878 0.100179
0.385791 0.171465 0.105341
0.404768 0.176052 0.110504
0.423746 0.180638 0.115666
0.442724 0.185225 0.120828
0.461701 0.189811 0.125991
0.480679 0.194398 0.131153
0.499656 0.198985 0.136316
0.518634 0.203571 0.141478
0.537611 0.208158 0.146640
0.556589 0.212745 0.151803
0.575567 0.217331 0.156965
0.594544 0.221918 0.162128
0.613522 0.226504 0.167290
0.632499 0.231091 0.172453
0.651477 0.235678 0.177615
0.670454 0.240264 0.182777
0.689432 0.244851 0.187940
0.708410 0.249437 0.193102
0.109703 0.124221 0.038040
0.128680 0.128808 0.043202
0.147658 0.133394 0.048365
0.166636 0.137981 0.053527
0.185613 0.142568 0.058689
0.204591 0.147154 0.063852
0.223568 0.151741 0.069014
0.242546 0.156327 0.074177
0.261523 0.160914 0.079339
0.280501 0.165501 0.084501
0.299479 0.170087 0.089664
0.318456 0.174674 0.094826
0.337434 0.179260 0.099989
0.356411 0.183847 0.105151
0.375389 0.188434 0.110314
0.394366 0.193020 0.115476
0.413344 0.197607 0.120638
0.432322 0.202194 0.125801
0.451299 0.206780 0.130963
0.470277 0.211367 0.136126
0.489254 0.215953 0.141288
0.508232 0.220540 0.146451
0.527210 0.225127 0.151613
0.546187 0.229713 0.156775
0.565165 0.234300 0.161938
0.584142 0.238886 0.167100
0.603120 0.243473 0.172263
0.622097 0.248060 0.177425
0.641075 0.252646 0.182587
0.660053 0.257233 0.187750
0.679030 0.261819 0.192912
0.698008 0.266406 0.198075
0.716985 0.270993 0.203237
0.118279 0.145776 0.048175
0.137256 0.150363 0.053337
0.156234 0.154950 0.058499
0.175211 0.159536 0.063662
0.194189 0.164123 0.068824
0.213166 0.168709 0.073987
0.232144 0.173296 0.079149
0.251122 0.177883 0.084312
0.270099 0.182469 0.089474
0.289077 0.187056 0.094636
0.308054 0.191642 0.099799
0.327032 0.196229 0.104961
0.346009 0.200816 0.110124
0.364987 0.205402 0.115286
0.383965 0.209989 0.120449
0.402942 0.214576 0.125611
0.421920 0.219162 0.130773
0.440897 0.223749 0.135936
0.459875 0.228335 0.141098
0.478853 0.232922 0.146261
0.497830 0.237509 0.151423
0.516808 0.242095 0.156585
0.535785 0.246682 0.161748
0.554763 0.251268 0.166910
0.573740 0.255855 0.172073
0.592718 0.260442 0.177235
0.611696 0.265028 0.182398
0.630673 0.269615 0.187560
0.649651 0.274202 0.192722
0.668628 0.278788 0.197885
0.687606 0.283375 0.203047
0.706583 0.287961 0.208210
0.725561 0.292548 0.213372
0.126854 0.167332 0.058310
0.145832 0.171918 0.063472
0.164809 0.176505 0.068634
0.183787 0.181091 0.073797
0.202765 0.185678 0.078959
0.221742 0.190265 0.084122
0.240720 0.194851 0.089284
0.259697 0.199438 0.094446
0.278675 0.204025 0.099609
0.297652 0.208611 0.104771
0.316630 0.213198 0.109934
0.335608 0.217784 0.115096
0.354585 0.222371 0.120259
0.373563 0.226958 0.125421
0.392540 0.231544 0.130583
0.411518 0.236131 0.135746
0.430495 0.240717 0.140908
0.449473 0.245304 0.146071
0.468451 0.249891 0.151233
0.487428 0.254477 0.156396
0.506406 0.259064 0.161558
0.525383 0.263650 0.166720
0.544361 0.268237 0.171883
0.563339 0.272824 0.177045
0.582316 0.277410 0.182208
0.601294 0.281997 0.187370
0.620271 0.286584 0.192532
0.639249 0.291170 0.197695
0.658226 0.295757 0.202857
0.677204 0.300343 0.208020
0.696182 0.304930 0.213182
0.715159 0.309517 0.218345
0.734137 0.314103 0.223507
0.135430 0.188887 0.068444
0.154407 0.193473 0.073607
0.173385 0.198060 0.078769
0.192363 0.202647 0.083932
0.211340 0.207233 0.089094
0.230318 0.211820 0.094257
0.249295 0.216407 0.099419
0.268273 0.220993 0.104581
0.287251 0.225580 0.109744
0.306228 0.230166 0.114906
0.325206 0.234753 0.120069
0.344183 0.239340 0.125231
0.363161 0.243926 0.130394
0.382138 0.248513 0.135556
0.401116 0.253099 0.140718
0.420094 0.257686 0.145881
0.439071 0.262273 0.151043
0.458049 0.266859 0.156206
0.477026 0.271446 0.161368
0.496004 0.276033 0.166530
0.514981 0.280619 0.171693
0.533959 0.285206 0.176855
0.552937 0.289792 0.182018
0.571914 0.294379 0.187180
0.590892 0.298966 0.192343
0.609869 0.303552 0.197505
0.628847 0.308139 0.202667
0.647825 0.312725 0.207830
0.666802 0.317312 0.212992
0.685780 0.321899 0.218155
0.704757 0.326485 0.223317
0.723735 0.331072 0.228480
0.742712 0.335659 0.233642
0.144006 0.210442 0.078579
0.162983 0.215029 0.083742
0.181961 0.219615 0.088904
0.200938 0.224202 0.094067
0.219916 0.228789 0.099229
0.238894 0.233375 0.104391
0.257871 0.237962 0.109554
0.276849 0.242548 0.114716
0.295826 0.247135 0.119879
0.314804 0.251722 0.125041
0.333781 0.256308 0.130204
0.352759 0.260895 0.135366
0.371737 0.265482 0.140528
0.390714 0.270068 0.145691
0.409692 0.274655 0.150853
0.428669 0.279241 0.156016
0.447647 0.283828 0.161178
0.466624 0.288415 0.166341
0.485602 0.293001 0.171503
0.504580 0.297588 0.176665
0.523557 0.302174 0.181828
0.542535 0.306761 0.186990
0.561512 0.311348 0.192153
0.580490 0.315934 0.197315
0.599468 0.320521 0.202477
0.618445 0.325107 0.207640
0.637423 0.329694 0.212802
0.656400 0.334281 0.217965
0.675378 0.338867 0.223127
0.694355 0.343454 0.228290
0.713333 0.348041 0.233452
0.732311 0.352627 0.238614
0.751288 0.357214 0.243777
0.152581 0.231997 0.088714
0.171559 0.236584 0.093877
0.190536 0.241171 0.099039
0.209514 0.245757 0.104202
0.228492 0.250344 0.109364
0.247469 0.254930 0.114526
0.266447 0.259517 0.119689
0.285424 0.264104 0.124851
0.304402 0.268690 0.130014
0.323380 0.273277 0.135176
0.342357 0.277864 0.140339
0.361335 0.282450 0.145501
0.380312 0.287037 0.150663
0.399290 0.291623 0.155826
0.418267 0.296210 0.160988
0.437245 0.300797 0.166151
0.456223 0.305383 0.171313
0.475200 0.309970 0.176475
0.494178 0.314556 0.181638
0.513155 0.319143 0.186800
0.532133 0.323730 0.191963
0.551110 0.328316 0.197125
0.570088 0.332903 0.202288
0.589066 0.337490 0.207450
0.608043 0.342076 0.212612
0.627021 0.346663 0.217775
0.645998 0.351249 0.222937
0.664976 0.355836 0.228100
0.683954 0.360423 0.233262
0.702931 0.365009 0.238425
0.721909 0.369596 0.243587
0.740886 0.374182 0.248749
0.759864 0.378769 0.253912
0.161157 0.253553 0.098849
0.180135 0.258139 0.104012
0.199112 0.262726 0.109174
0.218090 0.267313 0.114336
0.237067 0.271899 0.119499
0.256045 0.276486 0.124661
0.275022 0.281072 0.129824
0.294000 0.285659 0.134986
0.312978 0.290246 0.140149
0.331955 0.294832 0.145311
0.350933 0.299419 0.150473
0.369910 0.304005 0.155636
0.388888 0.308592 0.160798
0.407866 0.313179 0.165961
0.426843 0.317765 0.171123
0.445821 0.322352 0.176286
0.464798 0.326939 0.181448
0.483776 0.331525 0.186610
0.502753 0.336112 0.191773
0.521731 0.340698 0.196935
0.540709 0.345285 0.202098
0.559686 0.349872 0.207260
0.578664 0.354458 0.212422
0.597641 0.359045 0.217585
0.616619 0.363631 0.222747
0.635596 0.368218 0.227910
0.654574 0.372805 0.233072
0.673552 0.377391 0.238235
0.692529 0.381978 0.243397
0.711507 0.386564 0.248559
0.730484 0.391151 0.253722
0.749462 0.395738 0.258884
0.768440 0.400324 0.264047
0.169733 0.275108 0.108984
0.188710 0.279695 0.114147
0.207688 0.284281 0.119309
0.226665 0.288868 0.124471
0.245643 0.293454 0.129634
0.264621 0.298041 0.134796
0.283598 0.302628 0.139959
0.302576 0.307214 0.145121
0.321553 0.311801 0.150284
0.340531 0.316387 0.155446
0.359509 0.320974 0.160608
0.378486 0.325561 0.165771
0.397464 0.330147 0.170933
0.416441 0.334734 0.176096
0.435419 0.339321 0.181258
0.454396 0.343907 0.186420
0.473374 0.348494 0.191583
0.492352 0.353080 0.196745
0.511329 0.357667 0.201908
0.530307 0.362254 0.207070
0.549284 0.366840 0.212233
0.568262 0.371427 0.217395
0.587239 0.376013 0.222557
0.606217 0.380600 0.227720
0.625195 0.385187 0.232882
0.644172 0.389773 0.238045
0.663150 0.394360 0.243207
0.682127 0.398947 0.248370
0.701105 0.403533 0.253532
0.720082 0.408120 0.258694
0.739060 0.412706 0.263857
0.758038 0.417293 0.269019
0.777015 0.421880 0.274182
0.178308 0.296663 0.119119
0.197286 0.301250 0.124281
0.216264 0.305836 0.129444
0.235241 0.310423 0.134606
0.254219 0.315010 0.139769
0.273196 0.319596 0.144931
0.292174 0.324183 0.150094
0.311151 0.328770 0.155256
0.330129 0.333356 0.160418
0.349107 0.337943 0.165581
0.368084 0.342529 0.170743
0.387062 0.347116 0.175906
0.406039 0.351703 0.181068
0.425017 0.356289 0.186231
0.443995 0.360876 0.191393
0.462972 0.365462 0.196555
0.481950 0.370049 0.201718
0.500927 0.374636 0.206880
0.519905 0.379222 0.212043
0.538882 0.383809 0.217205
0.557860 0.388396 0.222368
0.576838 0.392982 0.227530
0.595815 0.397569 0.232692
0.614793 0.402155 0.237855
0.633770 0.406742 0.243017
0.652748 0.411329 0.248180
0.671725 0.415915 0.253342
0.690703 0.420502 0.258504
0.709681 0.425088 0.263667
0.728658 0.429675 0.268829
0.747636 0.434262 0.273992
0.766613 0.438848 0.279154
0.785591 0.443435 0.284317
0.186884 0.318219 0.129254
0.205862 0.322805 0.134416
0.224839 0.327392 0.139579
0.243817 0.331978 0.144741
0.262794 0.336565 0.149904
0.281772 0.341152 0.155066
0.300750 0.345738 0.160229
0.319727 0.350325 0.165391
0.338705 0.354911 0.170553
0.357682 0.359498 0.175716
0.376660 0.364085 0.180878
0.395637 0.368671 0.186041
0.414615 0.373258 0.191203
0.433593 0.377844 0.196365
0.452570 0.382431 0.201528
0.471548 0.387018 0.206690
0.490525 0.391604 0.211853
0.509503 0.396191 0.217015
0.528481 0.400778 0.222178
0.547458 0.405364 0.227340
0.566436 0.409951 0.232502
0.585413 0.414537 0.237665
0.604391 0.419124 0.242827
0.623368 0.423711 0.247990
0.642346 0.428297 0.253152
0.661324 0.432884 0.258315
0.680301 0.437470 0.263477
0.699279 0.442057 0.268639
0.718256 0.446644 0.273802
0.737234 0.451230 0.278964
0.756211 0.455817 0.284127
0.775189 0.460404 0.289289
0.794167 0.464990 0.294451
0.195460 0.339774 0.139389
0.214437 0.344360 0.144551
0.233415 0.348947 0.149714
0.252393 0.353534 0.154876
0.271370 0.358120 0.160039
0.290348 0.362707 0.165201
0.309325 0.367293 0.170363
0.328303 0.371880 0.175526
0.347280 0.376467 0.180688
0.366258 0.381053 0.185851
0.385236 0.385640 0.191013
0.404213 0.390227 0.196176
0.423191 0.394813 0.201338
0.442168 0.399400 0.206500
0.461146 0.403986 0.211663
0.480124 0.408573 0.216825
0.499101 0.413160 0.221988
0.518079 0.417746 0.227150
0.537056 0.422333 0.232313
0.556034 0.426919 0.237475
0.575011 0.431506 0.242637
0.593989 0.436093 0.247800
0.612967 0.440679 0.252962
0.631944 0.445266 0.258125
0.650922 0.449852 0.263287
0.669899 0.454439 0.268449
0.688877 0.459026 0.273612
0.707854 0.463612 0.278774
0.726832 0.468199 0.283937
0.745810 0.472786 0.289099
0.764787 0.477372 0.294262
0.783765 0.481959 0.299424
0.802742 0.486545 0.304586
0.204036 0.361329 0.149524
0.223013 0.365916 0.154686
0.241991 0.370502 0.159849
0.260968 0.375089 0.165011
0.279946 0.379675 0.170174
0.298923 0.384262 0.175336
0.317901 0.388849 0.180498
0.336879 0.393435 0.185661
0.355856 0.398022 0.190823
0.374834 0.402609 0.195986
0.393811 0.407195 0.201148
0.412789 0.411782 0.206310
0.431766 0.416368 0.211473
0.450744 0.420955 0.216635
0.469722 0.425542 0.221798
0.488699 0.430128 0.226960
0.507677 0.434715 0.232123
0.526654 0.439301 0.237285
0.545632 0.443888 0.242447
0.564610 0.448475 0.247610
0.583587 0.453061 0.252772
0.602565 0.457648 0.257935
0.621542 0.462235 0.263097
0.640520 0.466821 0.268260
0.659497 0.471408 0.273422
0.678475 0.475994 0.278584
0.697453 0.480581 0.283747
0.716430 0.485168 0.288909
0.735408 0.489754 0.294072
0.754385 0.494341 0.299234
0.773363 0.498927 0.304396
0.792340 0.503514 0.309559
0.811318 0.508101 0.314721
0.212611 0.382884 0.159659
0.231589 0.387471 0.164821
0.250566 0.392058 0.169984
0.269544 0.396644 0.175146
0.288522 0.401231 0.180308
0.307499 0.405817 0.185471
0.326477 0.410404 0.190633
0.345454 0.414991 0.195796
0.364432 0.419577 0.200958
0.383409 0.424164 0.206121
0.402387 0.428750 0.211283
0.421365 0.433337 0.216445
0.440342 0.437924 0.221608
0.459320 0.442510 0.226770
0.478297 0.447097 0.231933
0.497275 0.451684 0.237095
0.516253 0.456270 0.242258
0.535230 0.460857 0.247420
0.554208 0.465443 0.252582
0.573185 0.470030 0.257745
0.592163 0.474617 0.262907
0.611140 0.479203 0.268070
0.630118 0.483790 0.273232
0.649096 0.488376 0.278394
0.668073 0.492963 0.283557
0.687051 0.497550 0.288719
0.706028 0.502136 0.293882
0.725006 0.506723 0.299044
0.743983 0.511309 0.304207
0.762961 0.515896 0.309369
0.781939 0.520483 0.314531
0.800916 0.525069 0.319694
0.819894 0.529656 0.324856
0.221187 0.404440 0.169794
0.240165 0.409026 0.174956
0.259142 0.413613 0.180119
0.278120 0.418199 0.185281
0.297097 0.422786 0.190443
0.316075 0.427373 0.195606
0.335052 0.431959 0.200768
0.354030 0.436546 0.205931
0.373008 0.441132 0.211093
0.391985 0.445719 0.216255
0.410963 0.450306 0.221418
0.429940 0.454892 0.226580
0.448918 0.459479 0.231743
0.467895 0.464066 0.236905
0.486873 0.468652 0.242068
0.505851 0.473239 0.247230
0.524828 0.477825 0.252392
0.543806 0.482412 0.257555
0.562783 0.486999 0.262717
0.581761 0.491585 0.267880
0.600739 0.496172 0.273042
0.619716 0.500758 0.278205
0.638694 0.505345 0.283367
0.657671 0.509932 0.288529
0.676649 0.514518 0.293692
0.695626 0.519105 0.298854
0.714604 0.523692 0.304017
0.733582 0.528278 0.309179
0.752559 0.532865 0.314341
0.771537 0.537451 0.319504
0.790514 0.542038 0.324666
0.809492 0.546625 0.329829
0.828469 0.551211 0.334991
0.229763 0.425995 0.179929
0.248740 0.430581 0.185091
0.267718 0.435168 0.190253
0.286695 0.439755 0.195416
0.305673 0.444341 0.200578
0.324651 0.448928 0.205741
0.343628 0.453515 0.210903
0.362606 0.458101 0.216066
0.381583 0.462688 0.221228
0.400561 0.467274 0.226390
0.419538 0.471861 0.231553
0.438516 0.476448 0.236715
0.457494 0.481034 0.241878
0.476471 0.485621 0.247040
0.495449 0.490207 0.252202
0.514426 0.494794 0.257365
0.533404 0.499381 0.262527
0.552381 0.503967 0.267690
0.571359 0.508554 0.272852
0.590337 0.513141 0.278015
0.609314 0.517727 0.283177
0.628292 0.522314 0.288339
0.647269 0.526900 0.293502
0.666247 0.531487 0.298664
0.685225 0.536074 0.303827
0.704202 0.540660 0.308989
0.723180 0.545247 0.314152
0.742157 0.549833 0.319314
0.761135 0.554420 0.324476
0.780112 0.559007 0.329639
0.799090 0.563593 0.334801
0.818068 0.568180 0.339964
0.837045 0.572766 0.345126
0.238338 0.447550 0.190064
0.257316 0.452137 0.195226
0.276294 0.456723 0.200388
0.295271 0.461310 0.205551
0.314249 0.465897 0.210713
0.333226 0.470483 0.215876
0.352204 0.475070 0.221038
0.371181 0.479656 0.226200
0.390159 0.484243 0.231363
0.409137 0.488830 0.236525
0.428114 0.493416 0.241688
0.447092 0.498003 0.246850
0.466069 0.502589 0.252013
0.485047 0.507176 0.257175
0.504024 0.511763 0.262337
0.523002 0.516349 0.267500
0.541980 0.520936 0.272662
0.560957 0.525523 0.277825
0.579935 0.530109 0.282987
0.598912 0.534696 0.288150
0.617890 0.539282 0.293312
0.636868 0.543869 0.298474
0.655845 0.548456 0.303637
0.674823 0.553042 0.308799
0.693800 0.557629 0.313962
0.712778 0.562215 0.319124
0.731755 0.566802 0.324286
0.750733 0.571389 0.329449
0.769711 0.575975 0.334611
0.788688 0.580562 0.339774
0.807666 0.585149 0.344936
0.826643 0.589735 0.350099
0.845621 0.594322 0.355261
0.246914 0.469105 0.200198
0.265892 0.473692 0.205361
0.284869 0.478279 0.210523
0.303847 0.482865 0.215686
0.322824 0.487452 0.220848
0.341802 0.492038 0.226011
0.360780 0.496625 0.231173
0.379757 0.501212 0.236335
0.398735 0.505798 0.241498
0.417712 0.510385 0.246660
0.436690 0.514972 0.251823
0.455667 0.519558 0.256985
0.474645 0.524145 0.262148
0.493623 0.528731 0.267310
0.512600 0.533318 0.272472
0.531578 0.537905 0.277635
0.550555 0.542491 0.282797
0.569533 0.547078 0.287960
0.588510 0.551664 0.293122
0.607488 0.556251 0.298284
0.626466 0.560838 0.303447
0.645443 0.565424 0.308609
0.664421 0.570011 0.313772
0.683398 0.574597 0.318934
0.702376 0.579184 0.324097
0.721354 0.583771 0.329259
0.740331 0.588357 0.334421
0.759309 0.592944 0.339584
0.778286 0.597531 0.344746
0.797264 0.602117 0.349909
0.816241 0.606704 0.355071
0.835219 0.611290 0.360234
0.854197 0.615877 0.365396
0.255490 0.490661 0.210333
0.274467 0.495247 0.215496
0.293445 0.499834 0.220658
0.312422 0.504421 0.225821
0.331400 0.509007 0.230983
0.350378 0.513594 0.236145
0.369355 0.518180 0.241308
0.388333 0.522767 0.246470
0.407310 0.527354 0.251633
0.426288 0.531940 0.256795
0.445266 0.536527 0.261958
0.464243 0.541113 0.267120
0.483221 0.545700 0.272282
0.502198 0.550287 0.277445
0.521176 0.554873 0.282607
0.540153 0.559460 0.287770
0.559131 0.564046 0.292932
0.578109 0.568633 0.298095
0.597086 0.573220 0.303257
0.616064 0.577806 0.308419
0.635041 0.582393 0.313582
0.654019 0.586980 0.318744
0.672996 0.591566 0.323907
0.691974 0.596153 0.329069
0.710952 0.600739 0.334231
0.729929 0.605326 0.339394
0.748907 0.609913 0.344556
0.767884 0.614499 0.349719
0.786862 0.619086 0.354881
0.805840 0.623672 0.360044
0.824817 0.628259 0.365206
0.843795 0.632846 0.370368
0.862772 0.637432 0.375531
0.264065 0.512216 0.220468
0.283043 0.516803 0.225631
0.302021 0.521389 0.230793
0.320998 0.525976 0.235956
0.339976 0.530562 0.241118
0.358953 0.535149 0.246280
0.377931 0.539736 0.251443
0.396909 0.544322 0.256605
0.415886 0.548909 0.261768
0.434864 0.553495 0.266930
0.453841 0.558082 0.272093
0.472819 0.562669 0.277255
0.491796 0.567255 0.282417
0.510774 0.571842 0.287580
0.529752 0.576429 0.292742
0.548729 0.581015 0.297905
0.567707 0.585602 0.303067
0.586684 0.590188 0.308229
0.605662 0.594775 0.313392
0.624639 0.599362 0.318554
0.643617 0.603948 0.323717
0.662595 0.608535 0.328879
0.681572 0.613121 0.334042
0.700550 0.617708 0.339204
0.719527 0.622295 0.344366
0.738505 0.626881 0.349529
0.757483 0.631468 0.354691
0.776460 0.636054 0.359854
0.795438 0.640641 0.365016
0.814415 0.645228 0.370179
0.833393 0.649814 0.375341
0.852370 0.654401 0.380503
0.871348 0.658988 0.385666
0.272641 0.533771 0.230603
0.291619 0.538358 0.235766
0.310596 0.542944 0.240928
0.329574 0.547531 0.246090
0.348551 0.552118 0.251253
0.367529 0.556704 0.256415
0.386507 0.561291 0.261578
0.405484 0.565877 0.266740
0.424462 0.570464 0.271903
0.443439 0.575051 0.277065
0.462417 0.579637 0.282227
0.481395 0.584224 0.287390
0.500372 0.588811 0.292552
0.519350 0.593397 0.297715
0.538327 0.597984 0.302877
0.557305 0.602570 0.308040
0.576282 0.607157 0.313202
0.595260 0.611744 0.318364
0.614238 0.616330 0.323527
0.633215 0.620917 0.328689
0.652193 0.625503 0.333852
0.671170 0.630090 0.339014
0.690148 0.634677 0.344176
0.709125 0.639263 0.349339
0.728103 0.643850 0.354501
0.747081 0.648437 0.359664
0.766058 0.653023 0.364826
0.785036 0.657610 0.369989
0.804013 0.662196 0.375151
0.822991 0.666783 0.380313
0.841969 0.671370 0.385476
0.860946 0.675956 0.390638
0.879924 0.680543 0.395801
0.281217 0.555326 0.240738
0.300194 0.559913 0.245901
0.319172 0.564500 0.251063
0.338150 0.569086 0.256225
0.357127 0.573673 0.261388
0.376105 0.578260 0.266550
0.395082 0.582846 0.271713
0.414060 0.587433 0.276875
0.433037 0.592019 0.282038
0.452015 0.596606 0.287200
0.470993 0.601193 0.292362
0.489970 0.605779 0.297525
0.508948 0.610366 0.302687
0.527925 0.614952 0.307850
0.546903 0.619539 0.313012
0.565881 0.624126 0.318174
0.584858 0.628712 0.323337
0.603836 0.633299 0.328499
0.622813 0.637886 0.333662
0.641791 0.642472 0.338824
0.660768 0.647059 0.343987
0.679746 0.651645 0.349149
0.698724 0.656232 0.354311
0.717701 0.660819 0.359474
0.736679 0.665405 0.364636
0.755656 0.669992 0.369799
0.774634 0.674578 0.374961
0.793611 0.679165 0.380124
0.812589 0.683752 0.385286
0.831567 0.688338 0.390448
0.850544 0.692925 0.395611
0.869522 0.697511 0.400773
0.888499 0.702098 0.405936
0.289793 0.576882 0.250873
0.308770 0.581468 0.256035
0.327748 0.586055 0.261198
0.346725 0.590642 0.266360
0.365703 0.595228 0.271523
0.384680 0.599815 0.276685
0.403658 0.604401 0.281848
0.422636 0.608988 0.287010
0.441613 0.613575 0.292172
0.460591 0.618161 0.297335
0.479568 0.622748 0.302497
0.498546 0.627334 0.307660
0.517524 0.631921 0.312822
0.536501 0.636508 0.317985
0.555479 0.641094 0.323147
0.574456 0.645681 0.328309
0.593434 0.650268 0.333472
0.612411 0.654854 0.338634
0.631389 0.659441 0.343797
0.650367 0.664027 0.348959
0.669344 0.668614 0.354121
0.688322 0.673201 0.359284
0.707299 0.677787 0.364446
0.726277 0.682374 0.369609
0.745254 0.686960 0.374771
0.764232 0.691547 0.379934
0.783210 0.696134 0.385096
0.802187 0.700720 0.390258
0.821165 0.705307 0.395421
0.840142 0.709894 0.400583
0.859120 0.714480 0.405746
0.878098 0.719067 0.410908
0.897075 0.723653 0.416071
0.298368 0.598437 0.261008
0.317346 0.603024 0.266170
0.336323 0.607610 0.271333
0.355301 0.612197 0.276495
0.374279 0.616783 0.281658
0.393256 0.621370 0.286820
0.412234 0.625957 0.291982
0.431211 0.630543 0.297145
0.450189 0.635130 0.302307
0.469166 0.639717 0.307470
0.488144 0.644303 0.312632
0.507122 0.648890 0.317795
0.526099 0.653476 0.322957
0.545077 0.658063 0.328119
0.564054 0.662650 0.333282
0.583032 0.667236 0.338444
0.602010 0.671823 0.343607
0.620987 0.676409 0.348769
0.639965 0.680996 0.353932
0.658942 0.685583 0.359094
0.677920 0.690169 0.364256
0.696897 0.694756 0.369419
0.715875 0.699343 0.374581
0.734853 0.703929 0.379744
0.753830 0.708516 0.384906
0.772808 0.713102 0.390069
0.791785 0.717689 0.395231
0.810763 0.722276 0.400393
0.829740 0.726862 0.405556
