assets/luts/vintage_tobacco.cube
TITLE "Vintage Tobacco"
LUT_3D_SIZE 9
0.075400 0.038000 0.000000
0.151310 0.056346 0.018150
0.227221 0.074693 0.038799
0.303131 0.093039 0.059449
0.379041 0.111386 0.080099
0.454952 0.129732 0.100748
0.530862 0.148079 0.121398
0.606772 0.166425 0.142048
0.682682 0.184772 0.162697
0.109703 0.124221 0.038040
0.185613 0.142568 0.058689
0.261523 0.160914 0.079339
0.337434 0.179260 0.099989
0.413344 0.197607 0.120638
0.489254 0.215953 0.141288
0.565165 0.234300 0.161938
0.641075 0.252646 0.182587
0.716985 0.270993 0.203237
0.144006 0.210442 0.078579
0.219916 0.228789 0.099229
0.295826 0.247135 0.119879
0.371737 0.265482 0.140528
0.447647 0.283828 0.161178
0.523557 0.302174 0.181828
0.599468 0.320521 0.202477
0.675378 0.338867 0.223127
0.751288 0.357214 0.243777
0.178308 0.296663 0.119119
0.254219 0.315010 0.139769
0.330129 0.333356 0.160418
0.406039 0.351703 0.181068
0.481950 0.370049 0.201718
0.557860 0.388396 0.222368
0.633770 0.406742 0.243017
0.709681 0.425088 0.263667
0.785591 0.443435 0.284317
0.212611 0.382884 0.159659
0.288522 0.401231 0.180308
0.364432 0.419577 0.200958
0.440342 0.437924 0.221608
0.516253 0.456270 0.242258
0.592163 0.474617 0.262907
0.668073 0.492963 0.283557
0.743983 0.511309 0.304207
0.819894 0.529656 0.324856
0.246914 0.469105 0.200198
0.322824 0.487452 0.220848
0.398735 0.505798 0.241498
0.474645 0.524145 0.262148
0.550555 0.542491 0.282797
0.626466 0.560838 0.303447
0.702376 0.579184 0.324097
0.778286 0.597531 0.344746
0.854197 0.615877 0.365396
0.281217 0.555326 0.240738
0.357127 0.573673 0.261388
0.433037 0.592019 0.282038
0.508948 0.610366 0.302687
0.584858 0.628712 0.323337
0.660768 0.647059 0.343987
0.736679 0.665405 0.364636
0.812589 0.683752 0.385286
0.888499 0.702098 0.405936
0.315520 0.641548 0.281278
0.391430 0.659894 0.301928
0.467340 0.678240 0.322577
0.543251 0.696587 0.343227
0.619161 0.714933 0.363877
0.695071 0.733280 0.384526
0.770982 0.751626 0.405176
0.846892 0.769973 0.425826
0.922802 0.788319 0.446475
0.349822 0.727769 0.321817
0.425733 0.746115 0.342467
0.501643 0.764462 0.363117
0.577553 0.782808 0.383767
0.653464 0.801154 0.404416
0.729374 0.819501 0.425066
0.805284 0.837847 0.445716
0.881195 0.856194 0.466365
0.957105 0.874540 0.487015
0.082062 0.044995 0.042561
0.157972 0.063341 0.063210
0.233882 0.081688 0.083860
0.309793 0.100034 0.104510
0.385703 0.118381 0.125159
0.461613 0.136727 0.145809
0.537524 0.155074 0.166459
0.613434 0.173420 0.187108
0.689344 0.191767 0.207758
0.116365 0.131216 0.083100
0.192275 0.149562 0.103750
0.268185 0.167909 0.124400
0.344096 0.186255 0.145049
0.420006 0.204602 0.165699
0.495916 0.222948 0.186349
0.571827 0.241295 0.206998
0.647737 0.259641 0.227648
0.723647 0.277988 0.248298
0.150667 0.217437 0.123640
0.226578 0.235784 0.144290
0.302488 0.254130 0.164939
0.378398 0.272476 0.185589
0.454309 0.290823 0.206239
0.530219 0.309169 0.226888
0.606129 0.327516 0.247538
0.682040 0.345862 0.268188
0.757950 0.364209 0.288837
0.184970 0.303658 0.164180
0.260881 0.322005 0.184829
0.336791 0.340351 0.205479
0.412701 0.358698 0.226129
0.488612 0.377044 0.246778
0.564522 0.395390 0.267428
0.640432 0.413737 0.288078
0.716342 0.432083 0.308727
0.792253 0.450430 0.329377
0.219273 0.389879 0.204719
0.295183 0.408226 0.225369
0.371094 0.426572 0.246019
0.447004 0.444919 0.266668
0.522914 0.463265 0.287318
0.598825 0.481612 0.307968
0.674735 0.499958 0.328617
0.750645 0.518304 0.349267
0.826556 0.536651 0.369917
0.253576 0.476100 0.245259
0.329486 0.494447 0.265909
0.405397 0.512793 0.286558
0.481307 0.531140 0.307208
0.557217 0.549486 0.327858
0.633128 0.567833 0.348507
0.709038 0.586179 0.369157
0.784948 0.604526 0.389807
0.860858 0.622872 0.410457
0.287879 0.562321 0.285799
0.363789 0.580668 0.306448
0.439699 0.599014 0.327098
0.515610 0.617361 0.347748
0.591520 0.635707 0.368397
0.667430 0.654054 0.389047
0.743341 0.672400 0.409697
0.819251 0.690747 0.430347
0.895161 0.709093 0.450996
0.322182 0.648543 0.326338
0.398092 0.666889 0.346988
0.474002 0.685235 0.367638
0.549913 0.703582 0.388288
0.625823 0.721928 0.408937
0.701733 0.740275 0.429587
0.777643 0.758621 0.450237
0.853554 0.776968 0.470886
0.929464 0.795314 0.491536
0.356484 0.734764 0.366878
0.432395 0.753110 0.387528
0.508305 0.771457 0.408177
0.584215 0.789803 0.428827
0.660126 0.808149 0.449477
0.736036 0.826496 0.470127
0.811946 0.844842 0.490776
0.887857 0.863189 0.511426
0.963767 0.881535 0.532076
0.088724 0.051990 0.087621
0.164634 0.070336 0.108271
0.240544 0.088683 0.128921
0.316455 0.107029 0.149570
0.392365 0.125376 0.170220
0.468275 0.143722 0.190870
0.544186 0.162069 0.211519
0.620096 0.180415 0.232169
0.696006 0.198762 0.252819
0.123027 0.138211 0.128161
0.198937 0.156557 0.148811
0.274847 0.174904 0.169460
0.350757 0.193250 0.190110
0.426668 0.211597 0.210760
0.502578 0.229943 0.231409
0.578488 0.248290 0.252059
0.654399 0.266636 0.272709
0.730309 0.284983 0.293358
0.157329 0.224432 0.168701
0.233240 0.242779 0.189350
0.309150 0.261125 0.210000
0.385060 0.279471 0.230650
0.460971 0.297818 0.251299
0.536881 0.316164 0.271949
0.612791 0.334511 0.292599
0.688702 0.352857 0.313248
0.764612 0.371204 0.333898
0.191632 0.310653 0.209240
0.267543 0.329000 0.229890
0.343453 0.347346 0.250540
0.419363 0.365693 0.271189
0.495273 0.384039 0.291839
0.571184 0.402385 0.312489
0.647094 0.420732 0.333138
0.723004 0.439078 0.353788
0.798915 0.457425 0.374438
0.225935 0.396874 0.249780
0.301845 0.415221 0.270430
0.377756 0.433567 0.291079
0.453666 0.451914 0.311729
0.529576 0.470260 0.332379
0.605487 0.488607 0.353028
0.681397 0.506953 0.373678
0.757307 0.525299 0.394328
0.833217 0.543646 0.414977
0.260238 0.483095 0.290320
0.336148 0.501442 0.310969
0.412058 0.519788 0.331619
0.487969 0.538135 0.352269
0.563879 0.556481 0.372918
0.639789 0.574828 0.393568
0.715700 0.593174 0.414218
0.791610 0.611521 0.434867
0.867520 0.629867 0.455517
0.294541 0.569316 0.330859
0.370451 0.587663 0.351509
0.446361 0.606009 0.372159
0.522272 0.624356 0.392808
0.598182 0.642702 0.413458
0.674092 0.661049 0.434108
0.750003 0.679395 0.454757
0.825913 0.697742 0.475407
0.901823 0.716088 0.496057
0.328843 0.655537 0.371399
0.404754 0.673884 0.392049
0.480664 0.692230 0.412698
0.556574 0.710577 0.433348
0.632485 0.728923 0.453998
0.708395 0.747270 0.474647
0.784305 0.765616 0.495297
0.860216 0.783963 0.515947
0.936126 0.802309 0.536597
0.363146 0.741759 0.411939
0.439057 0.760105 0.432588
0.514967 0.778451 0.453238
0.590877 0.796798 0.473888
0.666787 0.815144 0.494537
0.742698 0.833491 0.515187
0.818608 0.851837 0.535837
0.894518 0.870184 0.556487
0.970429 0.888530 0.577136
0.095386 0.058985 0.132682
0.171296 0.077331 0.153332
0.247206 0.095678 0.173981
0.323117 0.114024 0.194631
0.399027 0.132371 0.215281
0.474937 0.150717 0.235930
0.550847 0.169064 0.256580
0.626758 0.187410 0.277230
0.702668 0.205757 0.297879
0.129688 0.145206 0.173222
0.205599 0.163552 0.193871
0.281509 0.181899 0.214521
0.357419 0.200245 0.235171
0.433330 0.218592 0.255820
0.509240 0.236938 0.276470
0.585150 0.255285 0.297120
0.661061 0.273631 0.317769
0.736971 0.291978 0.338419
0.163991 0.231427 0.213761
0.239902 0.249774 0.234411
0.315812 0.268120 0.255061
0.391722 0.286466 0.275710
0.467632 0.304813 0.296360
0.543543 0.323159 0.317010
0.619453 0.341506 0.337659
0.695363 0.359852 0.358309
0.771274 0.378199 0.378959
0.198294 0.317648 0.254301
0.274204 0.335995 0.274951
0.350115 0.354341 0.295600
0.426025 0.372687 0.316250
0.501935 0.391034 0.336900
0.577846 0.409380 0.357549
0.653756 0.427727 0.378199
0.729666 0.446073 0.398849
0.805577 0.464420 0.419498
0.232597 0.403869 0.294841
0.308507 0.422216 0.315490
0.384418 0.440562 0.336140
0.460328 0.458909 0.356790
0.536238 0.477255 0.377439
0.612148 0.495601 0.398089
0.688059 0.513948 0.418739
0.763969 0.532294 0.439388
0.839879 0.550641 0.460038
0.266900 0.490090 0.335380
0.342810 0.508437 0.356030
0.418720 0.526783 0.376680
0.494631 0.545130 0.397329
0.570541 0.563476 0.417979
0.646451 0.581823 0.438629
0.722362 0.600169 0.459278
0.798272 0.618515 0.479928
0.874182 0.636862 0.500578
0.301202 0.576311 0.375920
0.377113 0.594658 0.396570
0.453023 0.613004 0.417219
0.528933 0.631351 0.437869
0.604844 0.649697 0.458519
0.680754 0.668044 0.479168
0.756664 0.686390 0.499818
0.832575 0.704737 0.520468
0.908485 0.723083 0.541117
0.335505 0.662532 0.416460
0.411416 0.680879 0.437109
0.487326 0.699225 0.457759
0.563236 0.717572 0.478409
0.639147 0.735918 0.499058
0.715057 0.754265 0.519708
0.790967 0.772611 0.540358
0.866877 0.790958 0.561007
0.942788 0.809304 0.581657
0.369808 0.748754 0.456999
0.445718 0.767100 0.477649
0.521629 0.785446 0.498299
0.597539 0.803793 0.518948
0.673449 0.822139 0.539598
0.749360 0.840486 0.560248
0.825270 0.858832 0.580897
0.901180 0.877179 0.601547
0.977091 0.895525 0.622197
0.102048 0.065980 0.177742
0.177958 0.084326 0.198392
0.253868 0.102673 0.219042
0.329778 0.121019 0.239692
0.405689 0.139366 0.260341
0.481599 0.157712 0.280991
0.557509 0.176059 0.301641
0.633420 0.194405 0.322290
0.709330 0.212751 0.342940
0.136350 0.152201 0.218282
0.212261 0.170547 0.238932
0.288171 0.188894 0.259582
0.364081 0.207240 0.280231
0.439992 0.225587 0.300881
0.515902 0.243933 0.321531
0.591812 0.262280 0.342180
0.667722 0.280626 0.362830
0.743633 0.298973 0.383480
0.170653 0.238422 0.258822
0.246563 0.256768 0.279472
0.322474 0.275115 0.300121
0.398384 0.293461 0.320771
0.474294 0.311808 0.341421
0.550205 0.330154 0.362070
0.626115 0.348501 0.382720
0.702025 0.366847 0.403370
0.777936 0.385194 0.424019
0.204956 0.324643 0.299362
0.280866 0.342990 0.320011
0.356777 0.361336 0.340661
0.432687 0.379682 0.361311
0.508597 0.398029 0.381960
0.584508 0.416375 0.402610
0.660418 0.434722 0.423260
0.736328 0.453068 0.443909
0.812238 0.471415 0.464559
0.239259 0.410864 0.339901
0.315169 0.429211 0.360551
0.391079 0.447557 0.381201
0.466990 0.465904 0.401850
0.542900 0.484250 0.422500
0.618810 0.502596 0.443150
0.694721 0.520943 0.463799
0.770631 0.539289 0.484449
0.846541 0.557636 0.505099
0.273562 0.497085 0.380441
0.349472 0.515432 0.401091
0.425382 0.533778 0.421740
0.501292 0.552125 0.442390
0.577203 0.570471 0.463040
0.653113 0.588818 0.483689
0.729023 0.607164 0.504339
0.804934 0.625510 0.524989
0.880844 0.643857 0.545638
0.307864 0.583306 0.420981
0.383775 0.601653 0.441630
0.459685 0.619999 0.462280
0.535595 0.638346 0.482930
0.611506 0.656692 0.503579
0.687416 0.675039 0.524229
0.763326 0.693385 0.544879
0.839237 0.711732 0.565528
0.915147 0.730078 0.586178
0.342167 0.669527 0.461520
0.418078 0.687874 0.482170
0.493988 0.706220 0.502820
0.569898 0.724567 0.523469
0.645808 0.742913 0.544119
0.721719 0.761260 0.564769
0.797629 0.779606 0.585418
0.873539 0.797953 0.606068
0.949450 0.816299 0.626718
0.376470 0.755749 0.502060
0.452380 0.774095 0.522710
0.528291 0.792441 0.543359
0.604201 0.810788 0.564009
0.680111 0.829134 0.584659
0.756022 0.847481 0.605308
0.831932 0.865827 0.625958
0.907842 0.884174 0.646608
0.983753 0.902520 0.667257
0.108709 0.072975 0.222803
0.184620 0.091321 0.243453
0.260530 0.109668 0.264102
0.336440 0.128014 0.284752
0.412351 0.146361 0.305402
0.488261 0.164707 0.326052
0.564171 0.183054 0.346701
0.640082 0.201400 0.367351
0.715992 0.219746 0.388001
0.143012 0.159196 0.263343
0.218922 0.177542 0.283993
0.294833 0.195889 0.304642
0.370743 0.214235 0.325292
0.446653 0.232582 0.345942
0.522564 0.250928 0.366591
0.598474 0.269275 0.387241
0.674384 0.287621 0.407891
0.750295 0.305968 0.428540
0.177315 0.245417 0.303882
0.253225 0.263763 0.324532
0.329136 0.282110 0.345182
0.405046 0.300456 0.365832
0.480956 0.318803 0.386481
0.556867 0.337149 0.407131
0.632777 0.355496 0.427781
0.708687 0.373842 0.448430
0.784598 0.392189 0.469080
0.211618 0.331638 0.344422
0.287528 0.349985 0.365072
0.363438 0.368331 0.385722
0.439349 0.386677 0.406371
0.515259 0.405024 0.427021
0.591169 0.423370 0.447671
0.667080 0.441717 0.468320
0.742990 0.460063 0.488970
0.818900 0.478410 0.509620
0.245921 0.417859 0.384962
0.321831 0.436206 0.405612
0.397741 0.454552 0.426261
0.473652 0.472899 0.446911
0.549562 0.491245 0.467561
0.625472 0.509591 0.488210
0.701383 0.527938 0.508860
0.777293 0.546284 0.529510
0.853203 0.564631 0.550159
0.280223 0.504080 0.425502
0.356134 0.522427 0.446151
0.432044 0.540773 0.466801
0.507954 0.559120 0.487451
0.583865 0.577466 0.508100
0.659775 0.595813 0.528750
0.735685 0.614159 0.549400
0.811596 0.632505 0.570049
0.887506 0.650852 0.590699
0.314526 0.590301 0.466041
0.390437 0.608648 0.486691
0.466347 0.626994 0.507341
0.542257 0.645341 0.527990
0.618167 0.663687 0.548640
0.694078 0.682034 0.569290
0.769988 0.700380 0.589939
0.845898 0.718726 0.610589
0.921809 0.737073 0.631239
0.348829 0.676522 0.506581
0.424739 0.694869 0.527231
0.500650 0.713215 0.547880
0.576560 0.731562 0.568530
0.652470 0.749908 0.589180
0.728381 0.768255 0.609829
0.804291 0.786601 0.630479
0.880201 0.804948 0.651129
0.956112 0.823294 0.671778
0.383132 0.762743 0.547121
0.459042 0.781090 0.567770
0.534952 0.799436 0.588420
0.610863 0.817783 0.609070
0.686773 0.836129 0.629719
0.762683 0.854476 0.650369
0.838594 0.872822 0.671019
0.914504 0.891169 0.691668
0.990414 0.909515 0.712318
0.115371 0.079970 0.267864
0.191282 0.098316 0.288513
0.267192 0.116663 0.309163
0.343102 0.135009 0.329813
0.419013 0.153356 0.350462
0.494923 0.171702 0.371112
0.570833 0.190049 0.391762
0.646743 0.208395 0.412412
0.722654 0.226741 0.433061
0.149674 0.166191 0.308403
0.225584 0.184537 0.329053
0.301495 0.202884 0.349703
0.377405 0.221230 0.370352
0.453315 0.239577 0.391002
0.529226 0.257923 0.411652
0.605136 0.276270 0.432302
0.681046 0.294616 0.452951
0.756957 0.312963 0.473601
0.183977 0.252412 0.348943
0.259887 0.270758 0.369593
0.335797 0.289105 0.390242
0.411708 0.307451 0.410892
0.487618 0.325798 0.431542
0.563528 0.344144 0.452192
0.639439 0.362491 0.472841
0.715349 0.380837 0.493491
0.791259 0.399184 0.514141
0.218280 0.338633 0.389483
0.294190 0.356980 0.410132
0.370100 0.375326 0.430782
0.446011 0.393672 0.451432
0.521921 0.412019 0.472082
0.597831 0.430365 0.492731
0.673742 0.448712 0.513381
0.749652 0.467058 0.534031
0.825562 0.485405 0.554680
0.252582 0.424854 0.430022
0.328493 0.443201 0.450672
0.404403 0.461547 0.471322
0.480313 0.479893 0.491972
0.556224 0.498240 0.512621
0.632134 0.516586 0.533271
0.708044 0.534933 0.553921
0.783955 0.553279 0.574570
0.859865 0.571626 0.595220
0.286885 0.511075 0.470562
0.362796 0.529422 0.491212
0.438706 0.547768 0.511862
0.514616 0.566115 0.532511
0.590527 0.584461 0.553161
0.666437 0.602807 0.573811
0.742347 0.621154 0.594460
0.818257 0.639500 0.615110
0.894168 0.657847 0.635760
0.321188 0.597296 0.511102
0.397098 0.615643 0.531752
0.473009 0.633989 0.552401
0.548919 0.652336 0.573051
0.624829 0.670682 0.593701
0.700740 0.689029 0.614350
0.776650 0.707375 0.635000
0.852560 0.725721 0.655650
0.928471 0.744068 0.676299
0.355491 0.683517 0.551642
0.431401 0.701864 0.572291
0.507312 0.720210 0.592941
0.583222 0.738557 0.613591
0.659132 0.756903 0.634240
0.735042 0.775250 0.654890
0.810953 0.793596 0.675540
0.886863 0.811943 0.696189
0.962773 0.830289 0.716839
0.389794 0.769738 0.592181
0.465704 0.788085 0.612831
0.541614 0.806431 0.633481
0.617525 0.824778 0.654130
0.693435 0.843124 0.674780
0.769345 0.861471 0.695430
0.845256 0.879817 0.716079
0.921166 0.898164 0.736729
0.997076 0.916510 0.757379
0.122033 0.086965 0.312924
0.197943 0.105311 0.333574
0.273854 0.123658 0.354224
0.349764 0.142004 0.374873
0.425674 0.160351 0.395523
0.501585 0.178697 0.416173
0.577495 0.197044 0.436823
0.653405 0.215390 0.457472
0.729316 0.233736 0.478122
0.156336 0.173186 0.353464
0.232246 0.191532 0.374114
0.308157 0.209879 0.394763
0.384067 0.228225 0.415413
0.459977 0.246572 0.436063
0.535887 0.264918 0.456712
0.611798 0.283265 0.477362
0.687708 0.301611 0.498012
0.763618 0.319957 0.518662
0.190639 0.259407 0.394004
0.266549 0.277753 0.414653
0.342459 0.296100 0.435303
0.418370 0.314446 0.455953
0.494280 0.332793 0.476602
0.570190 0.351139 0.497252
0.646101 0.369486 0.517902
0.722011 0.387832 0.538552
0.797921 0.406179 0.559201
0.224942 0.345628 0.434543
0.300852 0.363974 0.455193
0.376762 0.382321 0.475843
0.452672 0.400667 0.496492
0.528583 0.419014 0.517142
0.604493 0.437360 0.537792
0.680403 0.455707 0.558442
0.756314 0.474053 0.579091
0.832224 0.492400 0.599741
0.259244 0.431849 0.475083
0.335155 0.450196 0.495733
0.411065 0.468542 0.516382
0.486975 0.486888 0.537032
0.562886 0.505235 0.557682
0.638796 0.523581 0.578332
0.714706 0.541928 0.598981
0.790617 0.560274 0.619631
0.866527 0.578621 0.640281
0.293547 0.518070 0.515623
0.369457 0.536417 0.536272
0.445368 0.554763 0.556922
0.521278 0.573110 0.577572
0.597188 0.591456 0.598222
0.673099 0.609802 0.618871
0.749009 0.628149 0.639521
0.824919 0.646495 0.660171
0.900830 0.664842 0.680820
0.327850 0.604291 0.556163
0.403760 0.622638 0.576812
0.479671 0.640984 0.597462
0.555581 0.659331 0.618112
0.631491 0.677677 0.638761
0.707402 0.696024 0.659411
0.783312 0.714370 0.680061
0.859222 0.732716 0.700710
0.935133 0.751063 0.721360
0.362153 0.690512 0.596702
0.438063 0.708859 0.617352
0.513973 0.727205 0.638002
0.589884 0.745552 0.658651
0.665794 0.763898 0.679301
0.741704 0.782245 0.699951
0.817615 0.800591 0.720600
0.893525 0.818937 0.741250
0.969435 0.837284 0.761900
0.396456 0.776733 0.637242
0.472366 0.795080 0.657892
0.548276 0.813426 0.678541
0.624187 0.831773 0.699191
0.700097 0.850119 0.719841
0.776007 0.868466 0.740490
0.851918 0.886812 0.761140
0.927828 0.905159 0.781790
1.000000 0.923505 0.802439
0.128695 0.093960 0.357985
0.204605 0.112306 0.378635
0.280516 0.130653 0.399284
0.356426 0.148999 0.419934
0.432336 0.167346 0.440584
0.508247 0.185692 0.461233
0.584157 0.204038 0.481883
0.660067 0.222385 0.502533
0.735977 0.240731 0.523182
0.162998 0.180181 0.398525
0.238908 0.198527 0.419174
0.314818 0.216874 0.439824
0.390729 0.235220 0.460474
0.466639 0.253567 0.481123
0.542549 0.271913 0.501773
0.618460 0.290260 0.522423
0.694370 0.308606 0.543072
0.770280 0.326952 0.563722
0.197301 0.266402 0.439064
0.273211 0.284748 0.459714
0.349121 0.303095 0.480364
0.425032 0.321441 0.501013
0.500942 0.339788 0.521663
0.576852 0.358134 0.542313
0.652762 0.376481 0.562962
0.728673 0.394827 0.583612
0.804583 0.413174 0.604262
0.231603 0.352623 0.479604
0.307514 0.370969 0.500254
0.383424 0.389316 0.520903
0.459334 0.407662 0.541553
0.535245 0.426009 0.562203
0.611155 0.444355 0.582852
0.687065 0.462702 0.603502
0.762976 0.481048 0.624152
0.838886 0.499395 0.644802
0.265906 0.438844 0.520144
0.341817 0.457191 0.540793
0.417727 0.475537 0.561443
0.493637 0.493883 0.582093
0.569547 0.512230 0.602742
0.645458 0.530576 0.623392
0.721368 0.548923 0.644042
0.797278 0.567269 0.664692
0.873189 0.585616 0.685341
0.300209 0.525065 0.560683
0.376119 0.543412 0.581333
0.452030 0.561758 0.601983
0.527940 0.580105 0.622632
0.603850 0.598451 0.643282
0.679761 0.616797 0.663932
0.755671 0.635144 0.684582
0.831581 0.653490 0.705231
0.907492 0.671837 0.725881
0.334512 0.611286 0.601223
0.410422 0.629633 0.621873
0.486333 0.647979 0.642522
0.562243 0.666326 0.663172
0.638153 0.684672 0.683822
0.714063 0.703018 0.704472
0.789974 0.721365 0.725121
0.865884 0.739711 0.745771
0.941794 0.758058 0.766421
0.368815 0.697507 0.641763
0.444725 0.715854 0.662412
0.520635 0.734200 0.683062
0.596546 0.752547 0.703712
0.672456 0.770893 0.724362
0.748366 0.789240 0.745011
0.824277 0.807586 0.765661
0.900187 0.825932 0.786311
0.976097 0.844279 0.806960
0.403117 0.783728 0.682302
0.479028 0.802075 0.702952
0.554938 0.820421 0.723602
0.630848 0.838768 0.744252
0.706759 0.857114 0.764901
0.782669 0.875461 0.785551
0.858579 0.893807 0.806201
0.934490 0.912154 0.826850
1.000000 0.930500 0.847500
