assets/luts/vintage_tobacco.cube
TITLE "Vintage Tobacco"
LUT_3D_SIZE 5
0.075400 0.038000 0.000000
0.227221 0.074693 0.038799
0.379041 0.111386 0.080099
0.530862 0.148079 0.121398
0.682682 0.184772 0.162697
0.144006 0.210442 0.078579
0.295826 0.247135 0.119879
0.447647 0.283828 0.161178
0.599468 0.320521 0.202477
0.751288 0.357214 0.243777
0.212611 0.382884 0.159659
0.364432 0.419577 0.200958
0.516253 0.456270 0.242258
0.668073 0.492963 0.283557
0.819894 0.529656 0.324856
0.281217 0.555326 0.240738
0.433037 0.592019 0.282038
0.584858 0.628712 0.323337
0.736679 0.665405 0.364636
0.888499 0.702098 0.405936
0.349822 0.727769 0.321817
0.501643 0.764462 0.363117
0.653464 0.801154 0.404416
0.805284 0.837847 0.445716
0.957105 0.874540 0.487015
0.088724 0.051990 0.087621
0.240544 0.088683 0.128921
0.392365 0.125376 0.170220
0.544186 0.162069 0.211519
0.696006 0.198762 0.252819
0.157329 0.224432 0.168701
0.309150 0.261125 0.210000
0.460971 0.297818 0.251299
0.612791 0.334511 0.292599
0.764612 0.371204 0.333898
0.225935 0.396874 0.249780
0.377756 0.433567 0.291079
0.529576 0.470260 0.332379
0.681397 0.506953 0.373678
0.833217 0.543646 0.414977
0.294541 0.569316 0.330859
0.446361 0.606009 0.372159
0.598182 0.642702 0.413458
0.750003 0.679395 0.454757
0.901823 0.716088 0.496057
0.363146 0.741759 0.411939
0.514967 0.778451 0.453238
0.666787 0.815144 0.494537
0.818608 0.851837 0.535837
0.970429 0.888530 0.577136
0.102048 0.065980 0.177742
0.253868 0.102673 0.219042
0.405689 0.139366 0.260341
0.557509 0.176059 0.301641
0.709330 0.212751 0.342940
0.170653 0.238422 0.258822
0.322474 0.275115 0.300121
0.474294 0.311808 0.341421
0.626115 0.348501 0.382720
0.777936 0.385194 0.424019
0.239259 0.410864 0.339901
0.391079 0.447557 0.381201
0.542900 0.484250 0.422500
0.694721 0.520943 0.463799
0.846541 0.557636 0.505099
0.307864 0.583306 0.420981
0.459685 0.619999 0.462280
0.611506 0.656692 0.503579
0.763326 0.693385 0.544879
0.915147 0.730078 0.586178
0.376470 0.755749 0.502060
0.528291 0.792441 0.543359
0.680111 0.829134 0.584659
0.831932 0.865827 0.625958
0.983753 0.902520 0.667257
0.115371 0.079970 0.267864
0.267192 0.116663 0.309163
0.419013 0.153356 0.350462
0.570833 0.190049 0.391762
0.722654 0.226741 0.433061
0.183977 0.252412 0.348943
0.335797 0.289105 0.390242
0.487618 0.325798 0.431542
0.639439 0.362491 0.472841
0.791259 0.399184 0.514141
0.252582 0.424854 0.430022
0.404403 0.461547 0.471322
0.556224 0.498240 0.512621
0.708044 0.534933 0.553921
0.859865 0.571626 0.595220
0.321188 0.597296 0.511102
0.473009 0.633989 0.552401
0.624829 0.670682 0.593701
0.776650 0.707375 0.635000
0.928471 0.744068 0.676299
0.389794 0.769738 0.592181
0.541614 0.806431 0.633481
0.693435 0.843124 0.674780
0.845256 0.879817 0.716079
0.997076 0.916510 0.757379
0.128695 0.093960 0.357985
0.280516 0.130653 0.399284
0.432336 0.167346 0.440584
0.584157 0.204038 0.481883
0.735977 0.240731 0.523182
0.197301 0.266402 0.439064
0.349121 0.303095 0.480364
0.500942 0.339788 0.521663
0.652762 0.376481 0.562962
0.804583 0.413174 0.604262
0.265906 0.438844 0.520144
0.417727 0.475537 0.561443
0.569547 0.512230 0.602742
0.721368 0.548923 0.644042
0.873189 0.585616 0.685341
0.334512 0.611286 0.601223
0.486333 0.647979 0.642522
0.638153 0.684672 0.683822
0.789974 0.721365 0.725121
0.941794 0.758058 0.766421
0.403117 0.783728 0.682302
0.554938 0.820421 0.723602
0.706759 0.857114 0.764901
0.858579 0.893807 0.806201
1.000000 0.930500 0.847500
